%
(Header)
(Generated by gcodetools from Inkscape.)
(Using default header. To add your own header create file "header" in the output dir.)
M3
(Header end.)
G21 (All units in mm)

(Start cutting path id: path1)
(Change tool to Default tool)

G00 Z5.000000
G00 X479.281250 Y907.305828

G01 Z-1.000000 F100.0(Penetrate)
G01 X474.996090 Y904.610516 Z-1.000000 F400.000000
G03 X470.296402 Y901.305355 Z-1.000000 I29.710563 J-47.240055
G03 X464.898440 Y896.702312 Z-1.000000 I52.511639 J-67.046686
G02 X459.045485 Y891.513723 Z-1.000000 I-118.507174 J127.785763
G02 X457.160160 Y890.145672 Z-1.000000 I-10.029196 J11.838223
G03 X455.732046 Y889.125193 Z-1.000000 I6.794461 J-11.018074
G03 X454.367190 Y887.848797 Z-1.000000 I9.333051 J-11.347791
G02 X453.022011 Y886.537804 Z-1.000000 I-15.900866 J14.969878
G02 X449.964840 Y883.913250 Z-1.000000 I-66.783251 J74.698608
G03 X446.925635 Y881.269867 Z-1.000000 I48.231143 J-58.522148
G03 X444.083980 Y878.516766 Z-1.000000 I49.256842 J-53.684276
G02 X441.186560 Y876.141213 Z-1.000000 I-12.205390 J11.931957
G02 X440.169920 Y875.971844 Z-1.000000 I-0.702264 J1.079468
G03 X430.996861 Y877.033771 Z-1.000000 I-8.605353 J-34.184130
G03 X417.828120 Y875.612469 Z-1.000000 I1.168438 J-72.542476
G02 X414.868173 Y875.172359 Z-1.000000 I-5.764419 J28.594884
G02 X414.525390 Y875.292156 Z-1.000000 I-0.041645 J0.431152
G02 X414.282232 Y875.614507 Z-1.000000 I0.904685 J0.935315
G02 X412.255860 Y879.542156 Z-1.000000 I137.460971 J73.406078
G03 X407.828928 Y884.867355 Z-1.000000 I-13.512535 J-6.730516
G03 X396.400390 Y891.491375 Z-1.000000 I-33.058388 J-43.865278
G02 X391.773943 Y893.497375 Z-1.000000 I226.879930 J529.592378
G02 X386.097660 Y896.012859 Z-1.000000 I342.188710 J779.823451
G03 X376.706291 Y899.802773 Z-1.000000 I-55.573908 J-124.180764
G03 X371.599610 Y901.245281 Z-1.000000 I-12.689643 J-35.162689
G03 X367.077711 Y901.862218 Z-1.000000 I-6.745900 J-32.564414
G03 X360.531250 Y901.987469 Z-1.000000 I-4.582523 J-68.369711
G03 X354.074893 Y901.456719 Z-1.000000 I1.740704 J-60.709815
G03 X352.792970 Y900.932781 Z-1.000000 I0.373907 J-2.745056
G03 X352.122248 Y898.836346 Z-1.000000 I1.131239 J-1.517433
G03 X354.947270 Y894.227703 Z-1.000000 I10.869174 J3.492456
G03 X364.668434 Y885.161989 Z-1.000000 I149.416146 J150.474052
G03 X373.552730 Y877.936688 Z-1.000000 I103.650851 J118.375279
G02 X385.106291 Y868.344985 Z-1.000000 I-97.278387 J-128.929610
G02 X385.804690 Y866.762859 Z-1.000000 I-1.442843 J-1.582126
G02 X385.675775 Y866.569516 Z-1.000000 I-0.209443 J0.000000
G02 X382.759770 Y865.493328 Z-1.000000 I-14.542933 J34.916436
G03 X374.352900 Y862.084995 Z-1.000000 I19.190617 J-59.407088
G03 X356.144530 Y852.378094 Z-1.000000 I143.053193 J-290.272836
G03 X345.665348 Y846.098737 Z-1.000000 I167.403895 J-291.252385
G03 X340.455080 Y842.583170 Z-1.000000 I46.835223 J-75.031169
G03 X327.101184 Y831.954040 Z-1.000000 I116.371993 J-159.906978
G03 X315.091800 Y820.542160 Z-1.000000 I122.255916 J-140.682019
G03 X300.088360 Y803.441312 Z-1.000000 I177.097712 J-170.508851
G03 X297.177730 Y798.110520 Z-1.000000 I13.698861 J-10.939627
G02 X296.520877 Y796.779471 Z-1.000000 I-5.312030 J1.793812
G02 X294.914060 Y794.737470 Z-1.000000 I-14.298759 J9.598266
G03 X291.249877 Y789.324737 Z-1.000000 I16.431924 J-15.070304
G03 X287.144530 Y778.569500 Z-1.000000 I62.320298 J-29.949220
G02 X285.265238 Y772.105041 Z-1.000000 I-1996.345306 J576.854793
G02 X283.757810 Y766.989420 Z-1.000000 I-1262.008849 J369.098337
G03 X278.385272 Y744.288054 Z-1.000000 I199.046833 J-59.093132
G03 X270.429690 Y692.124190 Z-1.000000 I1046.050148 J-186.223119
G03 X268.039598 Y657.120434 Z-1.000000 I298.481765 J-37.964114
G03 X269.722660 Y620.339030 Z-1.000000 I331.473903 J-3.261460
G03 X273.273001 Y596.776957 Z-1.000000 I245.688963 J24.971977
G03 X279.402340 Y572.049970 Z-1.000000 I276.618256 J55.445116
G03 X286.089956 Y552.789359 Z-1.000000 I212.344189 J62.938231
G03 X291.121090 Y542.731610 Z-1.000000 I62.537790 J24.995719
G03 X296.855428 Y534.091270 Z-1.000000 I114.996993 J70.097085
G03 X297.253910 Y534.219890 Z-1.000000 I0.178483 J0.128620
G03 X297.154410 Y534.606077 Z-1.000000 I-0.799198 J-0.000000
G03 X296.457030 Y535.667160 Z-1.000000 I-7.214758 J-3.982071
G02 X292.658316 Y541.513368 Z-1.000000 I33.517004 J25.935739
G02 X287.662110 Y552.001140 Z-1.000000 I103.802398 J55.883730
G02 X279.333972 Y576.949219 Z-1.000000 I166.180679 J69.338319
G02 X272.363280 Y612.145670 Z-1.000000 I324.716277 J82.598884
G02 X270.667447 Y626.742191 Z-1.000000 I276.685012 J39.542212
G02 X269.503910 Y644.051920 Z-1.000000 I388.274971 J34.793297
G02 X269.430688 Y662.926301 Z-1.000000 I230.099293 J10.329987
G02 X271.039060 Y685.415200 Z-1.000000 I328.576133 J-12.197302
G02 X274.851073 Y716.789493 Z-1.000000 I1032.541824 J-109.536315
G02 X277.451170 Y732.219890 Z-1.000000 I251.645652 J-34.469247
G03 X278.381099 Y737.117794 Z-1.000000 I-241.631844 J48.414109
G03 X280.505860 Y749.251140 Z-1.000000 I-1459.170606 J261.778955
G02 X283.183975 Y762.196354 Z-1.000000 I187.270036 J-31.992928
G02 X286.275390 Y772.950360 Z-1.000000 I132.241702 J-32.193697
G03 X290.001956 Y784.652191 Z-1.000000 I-457.657181 J152.189822
G03 X290.611330 Y787.190590 Z-1.000000 I-20.834067 J6.343822
G02 X291.658574 Y789.530807 Z-1.000000 I5.200876 J-0.922956
G02 X298.755860 Y797.555830 Z-1.000000 I72.395885 J-56.875610
G02 X308.600579 Y806.809953 Z-1.000000 I141.079897 J-140.220014
G02 X317.664060 Y814.157390 Z-1.000000 I97.949946 J-111.562950
G03 X320.225481 Y816.088699 Z-1.000000 I-231.294514 J309.421244
G03 X320.886720 Y816.608560 Z-1.000000 I-15.855872 J20.848396
G02 X321.542343 Y817.136499 Z-1.000000 I60.292592 J-74.203408
G02 X322.400390 Y817.817550 Z-1.000000 I129.879039 J-162.751992
G03 X322.467359 Y818.000370 Z-1.000000 I-0.115145 J0.145855
G03 X322.351590 Y818.057780 Z-1.000000 I-0.080191 J-0.016277
G03 X316.174363 Y814.118583 Z-1.000000 I13.540576 J-28.046555
G03 X300.371120 Y800.079270 Z-1.000000 I164.101944 J-200.634130
G02 X298.118708 Y798.122599 Z-1.000000 I-19.961411 J20.703721
G02 X297.914090 Y798.159340 Z-1.000000 I-0.085876 J0.109887
G02 X298.084172 Y800.469401 Z-1.000000 I1.683475 J1.037344
G02 X317.457060 Y821.397620 Z-1.000000 I229.370977 J-192.894048
G02 X325.710800 Y829.200241 Z-1.000000 I208.724781 J-212.525679
G02 X330.568390 Y833.327310 Z-1.000000 I63.142571 J-69.397032
G03 X332.697158 Y835.053246 Z-1.000000 I-77.511276 J97.778073
G03 X333.285190 Y835.579270 Z-1.000000 I-6.708779 J8.091314
G02 X333.885074 Y836.090404 Z-1.000000 I4.441280 J-4.604845
G02 X336.724640 Y838.161300 Z-1.000000 I75.738233 J-100.868345
G03 X339.574427 Y840.214999 Z-1.000000 I-122.906469 J173.553495
G03 X339.808620 Y840.423020 Z-1.000000 I-0.991216 J1.351768
G02 X340.044044 Y840.629612 Z-1.000000 I1.151889 J-1.075212
G02 X342.603550 Y842.421060 Z-1.000000 I90.513107 J-126.595160
G02 X367.528808 Y857.291982 Z-1.000000 I130.886114 J-191.054976
G02 X385.210970 Y864.346844 Z-1.000000 I45.627243 J-88.672660
G01 X387.839870 Y865.114422 Z-1.000000
G01 X391.013700 Y862.432781 Z-1.000000
G03 X396.010632 Y858.617111 Z-1.000000 I40.915968 J48.403023
G03 X401.064480 Y855.520672 Z-1.000000 I31.803909 J46.236170
G02 X407.914365 Y851.492086 Z-1.000000 I-54.472606 J-100.458641
G02 X407.834010 Y851.215984 Z-1.000000 I-0.080355 J-0.126358
G03 X399.860256 Y850.569768 Z-1.000000 I0.000000 J-49.517770
G03 X385.160190 Y847.516766 Z-1.000000 I28.092717 J-172.181733
G03 X368.602341 Y842.455952 Z-1.000000 I43.522541 J-172.013185
G03 X352.884800 Y835.901530 Z-1.000000 I58.093411 J-161.430921
G02 X347.006094 Y833.186559 Z-1.000000 I-115.262564 J241.855137
G02 X346.640650 Y833.108560 Z-1.000000 I-0.365444 J0.817093
G03 X346.374462 Y832.991700 Z-1.000000 I-0.000000 J-0.361598
G03 X346.257840 Y832.692550 Z-1.000000 I0.325370 J-0.299150
G03 X346.486947 Y832.536104 Z-1.000000 I0.167968 J0.000000
G03 X353.349640 Y835.464030 Z-1.000000 I-44.221781 J113.156956
G02 X367.793542 Y841.275511 Z-1.000000 I63.653593 J-137.349922
G02 X386.582060 Y846.887859 Z-1.000000 I78.119742 J-227.266862
G02 X390.183761 Y847.641964 Z-1.000000 I10.549460 J-41.407394
G02 X399.908230 Y849.083172 Z-1.000000 I49.372680 J-299.611167
G03 X409.640121 Y850.480663 Z-1.000000 I-54.960854 J417.322442
G03 X412.240260 Y851.001141 Z-1.000000 I-4.712018 J30.294679
G02 X414.832616 Y851.439107 Z-1.000000 I4.271711 J-17.393457
G02 X416.753940 Y851.426922 Z-1.000000 I0.900091 J-9.557190
G03 X418.692650 Y851.284622 Z-1.000000 I3.104119 J29.013084
G03 X426.746120 Y851.026531 Z-1.000000 I20.330578 J508.616100
G02 X438.313302 Y849.818201 Z-1.000000 I-1.755843 J-72.778170
G02 X442.947300 Y848.010906 Z-1.000000 I-2.437657 J-13.094831
G03 X444.504236 Y847.092766 Z-1.000000 I17.867008 J28.518814
G03 X448.564480 Y844.897625 Z-1.000000 I108.272932 J195.414540
G02 X471.434004 Y831.635604 Z-1.000000 I-153.392694 J-290.865618
G02 X490.904330 Y818.014810 Z-1.000000 I-142.458556 J-224.364633
G03 X493.508552 Y816.067704 Z-1.000000 I75.396621 J98.126632
G03 X495.632840 Y814.575360 Z-1.000000 I46.391695 J63.778504
G02 X497.758598 Y813.089824 Z-1.000000 I-52.042436 J-76.734875
G02 X497.998080 Y812.872230 Z-1.000000 I-0.833663 J-1.158107
G03 X498.237671 Y812.655269 Z-1.000000 I1.056489 J0.925916
G03 X500.146510 Y811.337080 Z-1.000000 I41.629598 J58.241675
G02 X502.062708 Y810.020857 Z-1.000000 I-47.072242 J-70.582158
G02 X505.126980 Y807.815590 Z-1.000000 I-132.442914 J-187.264223
G03 X508.204824 Y805.630103 Z-1.000000 I76.464795 J104.426161
G03 X514.154330 Y801.600750 Z-1.000000 I269.111035 J390.946488
G02 X530.391097 Y789.822308 Z-1.000000 I-139.581982 J-209.496488
G02 X532.890650 Y786.835120 Z-1.000000 I-5.876232 J-7.456338
G02 X533.618668 Y784.417643 Z-1.000000 I-5.671728 J-3.026389
G02 X534.537140 Y769.514810 Z-1.000000 I-223.171031 J-21.233900
G03 X535.049039 Y756.156674 Z-1.000000 I664.282147 J18.767182
G03 X535.570340 Y748.173020 Z-1.000000 I237.241151 J11.482056
G02 X536.538202 Y733.185019 Z-1.000000 I-426.235649 J-35.049753
G02 X537.303140 Y713.112270 Z-1.000000 I-1135.397831 J-53.319015
G02 X537.640216 Y692.078310 Z-1.000000 I-794.745216 J-23.255744
G02 X537.218780 Y691.842940 Z-1.000000 I-0.276014 J-0.000771
G03 X537.030900 Y691.750521 Z-1.000000 I-0.065051 J-0.104938
G03 X537.105500 Y690.727700 Z-1.000000 I2.940193 J-0.299686
G02 X538.179582 Y682.433956 Z-1.000000 I-34.322304 J-8.661335
G02 X537.347690 Y667.284340 Z-1.000000 I-116.355667 J-1.208352
G03 X535.939435 Y650.712281 Z-1.000000 I233.767688 J-28.210900
G03 X534.289090 Y605.464030 Z-1.000000 I1740.382160 J-86.131391
G03 X534.288594 Y594.043149 Z-1.000000 I243.768706 J-5.721036
G03 X534.939480 Y577.655440 Z-1.000000 I502.379375 J11.746705
G02 X536.114408 Y551.435836 Z-1.000000 I-1166.219912 J-65.395687
G02 X535.828150 Y551.139810 Z-1.000000 I-0.286258 J-0.009606
G03 X534.604886 Y550.773031 Z-1.000000 I0.000000 J-2.223278
G03 X519.705110 Y540.516770 Z-1.000000 I245.736452 J-372.944394
G02 X516.623609 Y538.350539 Z-1.000000 I-105.766129 J147.179281
G02 X503.156280 Y529.137860 Z-1.000000 I-1948.492844 J2833.906742
G02 X495.963951 Y524.725648 Z-1.000000 I-50.173275 J73.719051
G02 X479.513700 Y516.132000 Z-1.000000 I-207.852928 J377.837463
G03 X464.689211 Y508.775459 Z-1.000000 I4903.133616 J-9899.136590
G03 X455.871120 Y504.376140 Z-1.000000 I1591.061776 J-3200.195893
G02 X447.017109 Y500.131307 Z-1.000000 I-128.609663 J256.901821
G02 X446.199250 Y499.942550 Z-1.000000 I-0.867117 J1.890891
G02 X439.057707 Y501.204992 Z-1.000000 I-0.436103 J18.363814
G02 X403.806670 Y516.563640 Z-1.000000 I188.623622 J481.060575
G02 X390.532331 Y523.562879 Z-1.000000 I87.600086 J182.224383
G02 X375.480500 Y532.870280 Z-1.000000 I140.353315 J243.802428
G02 X372.085103 Y535.546128 Z-1.000000 I14.548934 J21.953357
G02 X368.824250 Y539.067550 Z-1.000000 I22.054630 J23.693183
G02 X364.072300 Y546.185824 Z-1.000000 I39.810570 J31.721630
G02 X359.343780 Y556.237470 Z-1.000000 I75.141461 J41.486257
G03 X355.221156 Y565.070942 Z-1.000000 I-73.548325 J-28.946598
G03 X343.466830 Y585.415200 Z-1.000000 I-403.907671 J-219.798429
G02 X339.522323 Y591.891890 Z-1.000000 I1330.777770 J814.924843
G02 X336.886750 Y596.278480 Z-1.000000 I611.675104 J370.494757
G03 X334.216995 Y600.642838 Z-1.000000 I-190.292933 J-113.406828
G03 X331.880890 Y604.251140 Z-1.000000 I-129.808551 J-81.480908
G02 X329.786884 Y607.916986 Z-1.000000 I25.248170 J16.853261
G02 X329.492220 Y609.206220 Z-1.000000 I2.673039 J1.289234
G03 X329.387374 Y610.572132 Z-1.000000 I-8.949826 J-0.000000
G03 X328.851590 Y613.354660 Z-1.000000 I-37.845168 J-5.844351
G02 X328.311329 Y616.144163 Z-1.000000 I38.539675 J8.911295
G02 X327.318390 Y623.135910 Z-1.000000 I243.737150 J38.180926
G01 X326.423860 Y630.145670 Z-1.000000
G01 X327.492220 Y631.278480 Z-1.000000
G03 X330.679285 Y635.614276 Z-1.000000 I-16.027347 J15.120280
G03 X336.318390 Y647.007000 Z-1.000000 I-106.973840 J60.041265
G02 X337.419915 Y648.972728 Z-1.000000 I10.061092 J-4.346393
G02 X339.634800 Y651.714030 Z-1.000000 I21.897470 J-15.427028
G03 X344.773131 Y657.840734 Z-1.000000 I-61.841068 J57.082787
G03 X347.834010 Y662.491380 Z-1.000000 I-32.478217 J24.708533
G03 X351.115196 Y668.912236 Z-1.000000 I-75.863639 J42.816639
G03 X351.418000 Y670.284340 Z-1.000000 I-3.008083 J1.383306
G02 X351.518341 Y670.754907 Z-1.000000 I1.171405 J-0.003801
G02 X352.220730 Y672.098800 Z-1.000000 I10.726079 J-4.750517
G02 X353.641378 Y673.238436 Z-1.000000 I2.278925 J-1.385569
G02 X367.468780 Y677.280440 Z-1.000000 I53.623999 J-157.771540
G03 X375.565097 Y679.396746 Z-1.000000 I-68.840500 J279.907058
G03 X375.568390 Y679.522620 Z-1.000000 I-0.017570 J0.063440
G03 X372.402134 Y679.701429 Z-1.000000 I-1.910960 J-5.715673
G03 X357.003940 Y675.569500 Z-1.000000 I31.739912 J-149.040780
G02 X353.874516 Y674.716583 Z-1.000000 I-10.365807 J31.865498
G02 X353.664090 Y674.831220 Z-1.000000 I-0.039397 J0.178129
G02 X353.661743 Y675.141010 Z-1.000000 I0.425957 J0.158131
G02 X355.689480 Y680.551920 Z-1.000000 I149.365916 J-52.889428
G03 X357.698409 Y686.006604 Z-1.000000 I-113.049019 J44.732588
G03 X359.580110 Y691.952310 Z-1.000000 I-131.380018 J44.849851
G02 X361.385693 Y697.926181 Z-1.000000 I316.211700 J-92.314176
G02 X364.959010 Y709.153480 Z-1.000000 I1093.159135 J-341.737868
G03 X370.849446 Y730.090686 Z-1.000000 I-265.152320 J85.894683
G03 X372.656280 Y741.274580 Z-1.000000 I-73.467798 J17.607122
G03 X372.655331 Y742.160936 Z-1.000000 I-5.129424 J0.437689
G01 X372.569155 Y742.170557 Z-1.000000
G03 X372.363569 Y741.419091 Z-1.000000 I8.715078 J-2.788127
G03 X371.621120 Y738.040200 Z-1.000000 I206.490496 J-47.143478
G02 X367.941552 Y723.150568 Z-1.000000 I-219.813996 J46.421588
G02 X363.677760 Y710.032390 Z-1.000000 I-175.349128 J49.741585
G03 X361.075330 Y702.586505 Z-1.000000 I233.329953 J-85.729465
G03 X359.634800 Y697.848800 Z-1.000000 I93.260690 J-30.944378
G02 X357.646044 Y691.216431 Z-1.000000 I-156.307384 J43.255368
G02 X353.392610 Y678.542160 Z-1.000000 I-572.382048 J185.038229
G02 X351.634089 Y674.454360 Z-1.000000 I-29.472760 J10.256671
G02 X350.896510 Y673.717940 Z-1.000000 I-1.523959 J0.788778
G02 X346.558894 Y672.036191 Z-1.000000 I-10.059160 J19.510151
G02 X345.697300 Y672.313640 Z-1.000000 I-0.216840 J0.803150
G02 X345.626663 Y672.532557 Z-1.000000 I0.245156 J0.199958
G02 X345.890650 Y675.524580 Z-1.000000 I53.469949 J-3.210013
G03 X346.833362 Y688.737563 Z-1.000000 I-146.832423 J17.116237
G03 X346.275420 Y690.104660 Z-1.000000 I-1.835069 J0.048471
G03 X346.026191 Y690.024652 Z-1.000000 I-0.103239 J-0.106589
G03 X345.935580 Y688.243330 Z-1.000000 I6.805876 J-1.239160
G02 X345.898099 Y681.104661 Z-1.000000 I-42.570797 J-3.345916
G02 X344.578150 Y673.012860 Z-1.000000 I-56.166798 J5.008468
G02 X344.004537 Y671.480103 Z-1.000000 I-6.453017 J1.541240
G02 X343.394560 Y670.749190 Z-1.000000 I-1.989035 J1.039950
G03 X343.245737 Y670.483083 Z-1.000000 I0.240954 J-0.309425
G03 X343.355460 Y670.395670 Z-1.000000 I0.082387 J-0.009156
G02 X343.903852 Y670.371321 Z-1.000000 I0.243752 J-0.697830
G02 X344.107410 Y670.055830 Z-1.000000 I-0.142708 J-0.315491
G02 X343.699815 Y667.500349 Z-1.000000 I-8.214787 J-0.000000
G02 X340.900380 Y660.257000 Z-1.000000 I-70.363086 J23.031528
G02 X335.346989 Y648.143581 Z-1.000000 I-707.948475 J317.228955
G02 X332.896470 Y643.188640 Z-1.000000 I-120.090833 J56.308765
G02 X331.998463 Y641.464435 Z-1.000000 I-19945.390056 J10386.433664
G02 X329.644520 Y636.946450 Z-1.000000 I-20982.293704 J10929.454092
G02 X326.647834 Y631.944858 Z-1.000000 I-43.574353 J22.708894
G02 X326.201160 Y631.903480 Z-1.000000 I-0.240466 J0.164214
G02 X326.148081 Y632.014993 Z-1.000000 I0.130999 J0.130742
G02 X325.425770 Y639.317550 Z-1.000000 I664.203867 J69.384814
G03 X324.715227 Y646.635233 Z-1.000000 I-988.909690 J-92.329216
G03 X324.339830 Y650.087080 Z-1.000000 I-220.616446 J-22.246270
G02 X324.040395 Y653.544249 Z-1.000000 I57.918340 J6.758015
G02 X323.441400 Y665.952310 Z-1.000000 I738.225588 J41.856101
G02 X323.306748 Y694.568540 Z-1.000000 I407.037058 J16.223720
G02 X324.539050 Y702.040200 Z-1.000000 I28.532400 J-0.868400
G03 X324.965257 Y704.010497 Z-1.000000 I-11.559024 J3.531650
G03 X325.410150 Y708.723800 Z-1.000000 I-66.262581 J8.632233
G02 X325.786705 Y713.456147 Z-1.000000 I114.376331 J-6.719817
G02 X326.318350 Y717.774580 Z-1.000000 I96.762122 J-9.720507
G03 X326.901283 Y722.088617 Z-1.000000 I-204.050693 J29.768694
G03 X327.580070 Y727.905440 Z-1.000000 I-382.978580 J47.639231
G02 X330.385865 Y744.041624 Z-1.000000 I128.132571 J-13.967940
G02 X335.490220 Y760.842940 Z-1.000000 I144.273014 J-34.655106
G02 X339.165803 Y769.062351 Z-1.000000 I63.681322 J-23.545688
G02 X341.882800 Y772.917160 Z-1.000000 I16.441534 J-8.703617
G03 X344.287686 Y775.614623 Z-1.000000 I-103.002672 J94.251385
G03 X346.429680 Y778.153480 Z-1.000000 I-87.316736 J75.840763
G02 X353.628329 Y786.024612 Z-1.000000 I75.938523 J-62.223213
G02 X384.730460 Y815.714030 Z-1.000000 I1116.826999 J-1138.833297
G03 X408.328952 Y838.665329 Z-1.000000 I-491.184134 J528.642424
G03 X417.195300 Y848.760906 Z-1.000000 I-85.891725 J84.374803
G03 X417.961465 Y849.958669 Z-1.000000 I-5.851962 J4.587212
G03 X417.925770 Y850.186688 Z-1.000000 I-0.174675 J0.089459
G03 X417.693932 Y850.210808 Z-1.000000 I-0.130735 J-0.130352
G03 X412.826160 Y846.850750 Z-1.000000 I65.774171 J-100.494190
G02 X407.941748 Y843.300562 Z-1.000000 I-6448.420068 J8867.066201
G03 X403.427720 Y840.020670 Z-1.000000 I13914.260421 J-19156.345801
G02 X398.871740 Y836.801423 Z-1.000000 I-122.993177 J169.230317
G02 X388.394520 Y829.698410 Z-1.000000 I-593.720361 J864.481938
G03 X372.828170 Y818.876588 Z-1.000000 I296.746495 J-443.453188
G03 X363.343740 Y811.614420 Z-1.000000 I123.975971 J-171.737712
G03 X334.038640 Y785.714194 Z-1.000000 I292.567884 J-360.558105
G03 X325.259760 Y774.985520 Z-1.000000 I40.441504 J-42.047853
G03 X323.350359 Y771.178576 Z-1.000000 I17.680301 J-11.249994
G03 X320.888660 Y763.477700 Z-1.000000 I70.400457 J-26.748447
G03 X320.272127 Y759.987238 Z-1.000000 I21.226225 J-5.548945
G03 X319.689440 Y750.758950 Z-1.000000 I148.958444 J-14.037989
G03 X319.373863 Y726.513678 Z-1.000000 I633.225553 J-20.366758
G03 X319.935540 Y710.663250 Z-1.000000 I270.694568 J1.657181
G02 X321.079724 Y690.162181 Z-1.000000 I-1142.397931 J-74.040766
G02 X321.775380 Y671.364420 Z-1.000000 I-959.229466 J-44.910331
G03 X322.348686 Y655.141246 Z-1.000000 I998.301277 J27.156940
G03 X322.626940 Y651.747230 Z-1.000000 I44.368741 J1.929104
G02 X323.029005 Y648.362009 Z-1.000000 I-873.234062 J-105.431146
G02 X324.105460 Y639.092940 Z-1.000000 I-6990.362003 J-816.516657
G03 X325.839675 Y624.969450 Z-1.000000 I978.315305 J112.958536
G03 X327.134760 Y615.811690 Z-1.000000 I413.684373 J53.832548
G02 X327.759512 Y610.994896 Z-1.000000 I-106.282853 J-16.234114
G02 X330.773430 Y581.751140 Z-1.000000 I-3957.220922 J-422.615961
G03 X332.820477 Y566.087844 Z-1.000000 I253.993114 J25.229126
G03 X338.353510 Y535.049970 Z-1.000000 I1003.210195 J162.827289
G02 X340.571803 Y523.076006 Z-1.000000 I-683.765430 J-132.866652
G02 X340.517570 Y522.762860 Z-1.000000 I-0.461533 J-0.081337
G03 X340.514217 Y522.489464 Z-1.000000 I0.245496 J-0.139729
G03 X341.082020 Y521.714030 Z-1.000000 I3.052830 J1.639800
G03 X341.403915 Y521.804974 Z-1.000000 I0.136352 J0.132527
G03 X341.474600 Y523.467940 Z-1.000000 I-4.586628 J1.027942
G03 X341.072928 Y525.966552 Z-1.000000 I-52.511772 J-7.160091
G03 X339.417960 Y534.569500 Z-1.000000 I-635.384817 J-117.769740
G02 X335.660402 Y554.284160 Z-1.000000 I1159.046331 J231.126316
G02 X333.621080 Y566.444500 Z-1.000000 I443.056096 J80.552898
G02 X329.193707 Y602.462724 Z-1.000000 I594.777380 J91.391466
G02 X330.068350 Y604.889810 Z-1.000000 I3.028277 J0.279847
G02 X330.373146 Y604.856763 Z-1.000000 I0.139147 J-0.138738
G02 X336.585930 Y594.674970 Z-1.000000 I-250.783017 J-160.010580
G03 X337.903122 Y592.479846 Z-1.000000 I87.550713 J51.042343
G03 X342.789050 Y584.628090 Z-1.000000 I1109.602228 J685.028415
G02 X349.419067 Y573.110333 Z-1.000000 I-148.679717 J-93.252271
G02 X359.152330 Y553.534340 Z-1.000000 I-420.031771 J-221.049200
G03 X365.355378 Y542.255509 Z-1.000000 I90.487035 J42.420222
G03 X370.263660 Y536.094890 Z-1.000000 I31.551491 J20.102101
G03 X372.371844 Y534.196459 Z-1.000000 I16.990169 J16.747600
G03 X375.703110 Y531.753090 Z-1.000000 I31.617462 J39.614353
G02 X379.140324 Y529.437752 Z-1.000000 I-1588.759697 J-2362.288701
G02 X381.505850 Y527.839030 Z-1.000000 I-989.690326 J-1466.929922
G03 X393.716559 Y520.401052 Z-1.000000 I83.476331 J123.298652
G03 X406.222650 Y514.364420 Z-1.000000 I67.338076 J123.531555
G02 X408.757526 Y513.183794 Z-1.000000 I-15.335932 J-36.238743
G02 X412.240220 Y511.298020 Z-1.000000 I-36.186567 J-70.989119
G03 X415.737439 Y509.451660 Z-1.000000 I27.838394 J48.493868
G03 X417.783190 Y508.618330 Z-1.000000 I7.569070 J15.653670
G01 X419.884760 Y507.915200 Z-1.000000
G01 X419.656240 Y500.616380 Z-1.000000
G02 X419.309245 Y493.368328 Z-1.000000 I-220.237105 J6.911349
G02 X419.169910 Y493.059730 Z-1.000000 I-0.479840 J0.030898
G02 X417.773255 Y492.830207 Z-1.000000 I-0.857720 J0.855149
G02 X401.316400 Y501.930830 Z-1.000000 I95.104583 J191.409657
G03 X397.041604 Y504.040759 Z-1.000000 I-13.742398 J-22.457206
G03 X396.410150 Y503.821450 Z-1.000000 I-0.186097 J-0.482897
G03 X396.284624 Y503.475906 Z-1.000000 I0.855398 J-0.506313
G03 X395.906240 Y500.747230 Z-1.000000 I55.125682 J-9.034822
G03 X395.852925 Y498.406674 Z-1.000000 I12.889600 J-1.464492
G03 X396.072260 Y498.294110 Z-1.000000 I0.143538 J0.009716
G03 X396.374565 Y498.688459 Z-1.000000 I-0.369787 J0.596523
G03 X396.550770 Y499.885910 Z-1.000000 I-3.980710 J1.197451
G02 X396.679725 Y501.150185 Z-1.000000 I6.261968 J-0.000000
G02 X396.984370 Y501.993330 Z-1.000000 I3.071381 J-0.633143
G02 X397.572287 Y502.225633 Z-1.000000 I0.430647 J-0.229783
G02 X400.826160 Y500.684730 Z-1.000000 I-5.088927 J-14.952120
G03 X408.121586 Y496.580509 Z-1.000000 I50.206483 J80.708060
G03 X414.927720 Y493.549970 Z-1.000000 I33.996406 J67.192769
G02 X417.927135 Y492.263907 Z-1.000000 I-16.535511 J-42.705608
G02 X418.042960 Y492.081220 Z-1.000000 I-0.086162 J-0.182687
G02 X417.598747 Y491.239560 Z-1.000000 I-1.019463 J0.000000
G02 X409.556630 Y486.282390 Z-1.000000 I-56.546030 J82.733742
G02 X401.179405 Y482.104242 Z-1.000000 I-53.207197 J96.193632
G02 X392.982410 Y478.880050 Z-1.000000 I-39.657151 J88.790126
G02 X377.246928 Y475.425855 Z-1.000000 I-23.038415 J67.382454
G02 X340.884760 Y473.508950 Z-1.000000 I-37.309551 J361.893431
G02 X328.897555 Y473.929187 Z-1.000000 I-0.415655 J159.320236
G02 X322.830070 Y474.823410 Z-1.000000 I3.027557 J41.574270
G03 X316.796637 Y476.086470 Z-1.000000 I-49.482199 J-221.326519
G03 X312.943350 Y476.753090 Z-1.000000 I-17.450089 J-89.397429
G02 X309.077892 Y477.360152 Z-1.000000 I49.176189 J325.738860
G02 X305.205070 Y478.014810 Z-1.000000 I55.071686 J337.575424
G03 X289.957885 Y479.294187 Z-1.000000 I-14.753110 J-84.327526
G03 X276.982410 Y477.852700 Z-1.000000 I0.359904 J-62.359468
G03 X258.995088 Y472.392931 Z-1.000000 I25.407032 J-116.063676
G03 X246.990220 Y466.085120 Z-1.000000 I22.578729 J-57.548861
G03 X240.085102 Y460.501106 Z-1.000000 I28.813588 J-42.691904
G03 X235.466790 Y454.993330 Z-1.000000 I23.405624 J-24.315923
G03 X227.672195 Y442.168935 Z-1.000000 I138.600313 J-93.021437
G03 X222.242180 Y430.850750 Z-1.000000 I102.297708 J-56.040020
G02 X221.069245 Y428.052616 Z-1.000000 I-406.273954 J168.658978
G02 X220.324210 Y426.323410 Z-1.000000 I-134.735182 J57.026036
G03 X216.852222 Y417.507150 Z-1.000000 I113.944135 J-49.964860
G03 X209.087880 Y394.258950 Z-1.000000 I784.260104 J-274.844756
G03 X200.884629 Y366.529722 Z-1.000000 I690.754976 J-219.426900
G03 X196.656240 Y348.932780 Z-1.000000 I273.954925 J-75.135422
G02 X195.566275 Y344.458642 Z-1.000000 I-64.440550 J13.328815
G02 X194.958970 Y342.895670 Z-1.000000 I-8.364436 J2.350596
G02 X194.194121 Y341.388457 Z-1.000000 I-319.617158 J161.245003
G02 X189.898430 Y332.979660 Z-1.000000 I-12461.989328 J6360.989256
G03 X182.641457 Y317.403888 Z-1.000000 I208.915867 J-106.815316
G03 X175.249990 Y298.272620 Z-1.000000 I307.835448 J-129.927358
G02 X165.260806 Y270.244913 Z-1.000000 I-3207.772882 J1127.468789
G02 X160.449210 Y257.313640 Z-1.000000 I-684.918301 J247.490379
G03 X157.750978 Y249.946507 Z-1.000000 I250.728336 J-96.007592
G03 X155.623040 Y243.516770 Z-1.000000 I189.580233 J-66.309066
G02 X153.562233 Y237.062381 Z-1.000000 I-512.517405 J160.084331
G02 X150.771470 Y228.641770 Z-1.000000 I-904.515486 J295.102174
G03 X147.958849 Y220.230617 Z-1.000000 I2113.716270 J-711.485186
G03 X147.333970 Y218.296060 Z-1.000000 I116.444481 J-38.680829
G02 X146.691816 Y216.367754 Z-1.000000 I-55.980890 J17.571376
G02 X146.347650 Y215.493330 Z-1.000000 I-12.249285 J4.316274
G03 X145.740716 Y213.932236 Z-1.000000 I19.025032 J-8.295224
G03 X140.800770 Y199.325360 Z-1.000000 I1686.644322 J-578.550422
G02 X137.803353 Y190.504230 Z-1.000000 I-766.523840 J255.544740
G02 X134.830070 Y182.079270 Z-1.000000 I-710.180775 J245.895299
G02 X125.391704 Y155.948273 Z-1.000000 I-9329.892873 J3355.133468
G02 X122.160150 Y147.155440 Z-1.000000 I-1052.237712 J381.729664
G03 X115.704163 Y129.115615 Z-1.000000 I706.448001 J-262.994612
G03 X113.419910 Y121.717940 Z-1.000000 I116.350473 J-39.978182
G02 X112.767421 Y119.347285 Z-1.000000 I-2091.438703 J574.363152
G02 X111.457020 Y114.604660 Z-1.000000 I-5580.967472 J1539.486405
G03 X110.548686 Y109.804358 Z-1.000000 I28.401490 J-7.860343
G03 X110.039050 Y101.022620 Z-1.000000 I95.011743 J-9.919533
G03 X110.077660 Y92.191156 Z-1.000000 I271.197784 J-3.230172
G03 X110.292960 Y88.735520 Z-1.000000 I41.648113 J0.860318
G02 X110.582697 Y85.280893 Z-1.000000 I-85.650027 J-8.922856
G02 X111.128900 Y75.585120 Z-1.000000 I-666.709656 J-42.421816
G03 X111.992692 Y61.834448 Z-1.000000 I501.203397 J24.582213
G03 X113.374990 Y46.268720 Z-1.000000 I643.487180 J49.299955
G03 X113.805421 Y42.421979 Z-1.000000 I179.081138 J18.090805
G03 X113.923804 Y41.748497 Z-1.000000 I6.552050 J0.804564
G01 X113.992379 Y41.754445 Z-1.000000
G03 X114.007560 Y43.269479 Z-1.000000 I-17.694465 J0.934899
G03 X113.799675 Y47.662980 Z-1.000000 I-151.231107 J-4.954049
G03 X112.892570 Y60.995280 Z-1.000000 I-1090.119235 J-67.472698
G02 X111.018740 Y90.676401 Z-1.000000 I1347.816343 J99.990117
G02 X110.693350 Y103.231610 Z-1.000000 I239.984355 J12.501431
G02 X111.035412 Y109.895290 Z-1.000000 I65.293813 J-0.011066
G02 X111.595690 Y112.010910 Z-1.000000 I6.984876 J-0.717798
G03 X112.385887 Y114.094122 Z-1.000000 I-19.307439 J8.515108
G03 X113.943350 Y119.346840 Z-1.000000 I-121.449113 J38.867658
G02 X115.506306 Y124.601580 Z-1.000000 I118.392067 J-32.354416
G02 X116.947260 Y128.676920 Z-1.000000 I72.400801 J-23.306974
G03 X118.321783 Y132.752736 Z-1.000000 I-46.654580 J18.003414
G03 X118.617180 Y134.436690 Z-1.000000 I-7.575559 J2.196779
G02 X118.930704 Y136.116091 Z-1.000000 I7.149995 J-0.465852
G02 X120.781240 Y141.335120 Z-1.000000 I72.035951 J-22.604540
G03 X123.041581 Y147.224973 Z-1.000000 I-266.949700 J105.825577
G03 X127.664050 Y159.874190 Z-1.000000 I-1239.658285 J460.183980
G02 X130.730511 Y168.322143 Z-1.000000 I1444.465964 J-519.535695
G02 X133.902330 Y176.905440 Z-1.000000 I1507.996917 J-552.378232
G03 X139.244263 Y191.820535 Z-1.000000 I-575.558008 J214.553828
G03 X146.792960 Y214.415200 Z-1.000000 I-1310.960132 J450.539589
G02 X157.953585 Y247.886151 Z-1.000000 I2095.273837 J-680.056382
G02 X161.814440 Y258.290200 Z-1.000000 I206.024659 J-70.535624
G03 X168.905371 Y276.843368 Z-1.000000 I-585.092981 J234.251358
G03 X175.042960 Y294.608560 Z-1.000000 I-530.058901 J193.069658
G02 X182.580011 Y314.996851 Z-1.000000 I271.149706 J-88.650121
G02 X191.746080 Y334.989420 Z-1.000000 I269.776607 J-111.588016
G03 X196.491221 Y345.594743 Z-1.000000 I-110.753740 J55.918778
G03 X198.765610 Y352.882000 Z-1.000000 I-49.842909 J19.554773
G02 X200.558173 Y360.348075 Z-1.000000 I838.344256 J-197.333522
G02 X201.175770 Y362.727700 Z-1.000000 I86.265357 J-21.118970
G03 X201.825762 Y365.099212 Z-1.000000 I-4646.330816 J1274.754516
G03 X203.064440 Y369.626140 Z-1.000000 I-13187.104424 J3610.755290
G02 X214.573425 Y408.135238 Z-1.000000 I824.976299 J-225.581407
G02 X221.648430 Y426.872230 Z-1.000000 I202.166781 J-65.633033
G02 X223.460703 Y430.829947 Z-1.000000 I94.080173 J-40.686347
G02 X224.847650 Y433.481610 Z-1.000000 I43.080438 J-20.844583
G03 X226.274521 Y436.114805 Z-1.000000 I-78.615258 J44.303090
G03 X229.054680 Y441.561690 Z-1.000000 I-336.997353 J175.440665
G02 X234.722925 Y452.012682 Z-1.000000 I160.796260 J-80.447533
G02 X236.166010 Y453.700360 Z-1.000000 I5.428236 J-3.180719
G03 X236.406669 Y453.938222 Z-1.000000 I-1.147177 J1.401342
G03 X238.148430 Y456.065590 Z-1.000000 I-90.641596 J75.988598
G02 X241.911124 Y460.255688 Z-1.000000 I38.426288 J-30.722185
G02 X246.302720 Y464.161300 Z-1.000000 I37.710311 J-37.980858
G02 X255.166226 Y469.430988 Z-1.000000 I23.747961 J-29.854620
G02 X272.929680 Y475.444500 Z-1.000000 I49.219747 J-116.148664
G02 X289.889652 Y477.524327 Z-1.000000 I16.434218 J-63.822968
G02 X313.158190 Y475.124190 Z-1.000000 I-0.985614 J-123.545690
G03 X328.725804 Y472.775256 Z-1.000000 I32.315469 J161.409719
G03 X343.248040 Y472.046060 Z-1.000000 I14.300620 J139.829865
G03 X362.555253 Y472.632268 Z-1.000000 I-0.529210 J335.671834
G03 X375.917960 Y473.979660 Z-1.000000 I-9.596554 J162.109238
G02 X378.712597 Y474.361779 Z-1.000000 I33.387861 J-233.772835
G02 X379.013660 Y474.385910 Z-1.000000 I0.391959 J-2.999980
G02 X379.077963 Y474.270962 Z-1.000000 I0.002231 J-0.074212
G02 X376.826160 Y471.053880 Z-1.000000 I-54.858399 J36.001633
G03 X372.183595 Y464.516338 Z-1.000000 I139.015444 J-103.637517
G03 X365.826160 Y454.778480 Z-1.000000 I301.227251 J-203.602702
G02 X364.180315 Y452.201493 Z-1.000000 I-216.216235 J136.276802
G02 X363.394520 Y451.022620 Z-1.000000 I-43.792468 J28.339186
G03 X362.645918 Y449.838811 Z-1.000000 I15.337523 J-10.527553
G03 X362.591790 Y449.637860 Z-1.000000 I0.345956 J-0.200951
G02 X362.537613 Y449.435097 Z-1.000000 I-0.406520 J0.000000
G02 X360.160150 Y445.415200 Z-1.000000 I-170.035245 J97.849914
G03 X357.768318 Y441.388231 Z-1.000000 I199.447343 J-121.186234
G03 X352.582020 Y432.358560 Z-1.000000 I984.832243 J-571.654251
G03 X347.098354 Y422.668513 Z-1.000000 I2676.587210 J-1521.096109
G03 X344.382800 Y417.807780 Z-1.000000 I657.477430 J-370.503023
G02 X343.364862 Y415.976846 Z-1.000000 I-562.056736 J311.286450
G02 X340.351550 Y410.585120 Z-1.000000 I-4570.435327 J2550.772958
G03 X337.350841 Y405.188405 Z-1.000000 I974.000683 J-545.101401
G03 X335.947260 Y402.610520 Z-1.000000 I210.477607 J-116.269794
G02 X334.530379 Y400.041413 Z-1.000000 I-112.252973 J60.233072
G02 X334.234370 Y399.590980 Z-1.000000 I-3.561637 J2.018102
G03 X333.666355 Y398.714054 Z-1.000000 I5.749973 J-4.346880
G03 X313.162100 Y361.219890 Z-1.000000 I10350.285711 J-5684.565069
G03 X312.007203 Y359.054376 Z-1.000000 I124.096538 J-67.573032
G03 X307.982410 Y351.303880 Z-1.000000 I1688.004598 J-881.492427
G02 X303.939374 Y343.562474 Z-1.000000 I-837.970068 J432.712835
G02 X303.236320 Y342.315590 Z-1.000000 I-23.028543 J12.162958
G02 X301.706836 Y340.422191 Z-1.000000 I-7.552419 J4.536375
G02 X294.880850 Y334.489420 Z-1.000000 I-83.043114 J88.652530
G03 X292.753057 Y332.749414 Z-1.000000 I119.738265 J-148.594768
G03 X292.525380 Y332.536300 Z-1.000000 I1.668976 J-2.011201
G02 X292.296186 Y332.325497 Z-1.000000 I-1.652165 J1.566304
G02 X290.376940 Y330.813640 Z-1.000000 I-95.867407 J119.725997
G03 X287.242516 Y328.303142 Z-1.000000 I76.593388 J-98.840852
G03 X282.255850 Y324.092940 Z-1.000000 I212.390386 J-256.618622
G03 X277.800633 Y320.052630 Z-1.000000 I76.573599 J-88.913593
G03 X271.999990 Y314.301920 Z-1.000000 I149.650804 J-156.751088
G02 X266.417488 Y308.698841 Z-1.000000 I-223.679857 J217.275865
G02 X266.318350 Y308.743330 Z-1.000000 I-0.040828 J0.041723
G02 X266.388849 Y309.033935 Z-1.000000 I0.788316 J-0.037385
G02 X266.949210 Y310.128090 Z-1.000000 I12.507274 J-5.714918
G03 X267.397147 Y311.463280 Z-1.000000 I-3.167776 J1.805478
G03 X267.144520 Y311.626140 Z-1.000000 I-0.164976 J0.021458
G03 X266.791462 Y311.262252 Z-1.000000 I0.549375 J-0.886244
G03 X265.191400 Y308.253090 Z-1.000000 I40.976124 J-23.718217
G02 X262.951080 Y304.458725 Z-1.000000 I-24.593806 J11.962444
G02 X258.003900 Y298.055830 Z-1.000000 I-75.458464 J53.190122
G03 X252.427083 Y290.882365 Z-1.000000 I84.961232 J-71.805329
G03 X245.847650 Y281.026530 Z-1.000000 I153.877049 J-109.847303
G03 X243.780405 Y277.531313 Z-1.000000 I74.377136 J-46.349270
G03 X241.617180 Y273.481610 Z-1.000000 I98.500406 J-55.218468
G02 X239.492839 Y269.413105 Z-1.000000 I-187.300940 J95.209004
G02 X239.169910 Y268.917160 Z-1.000000 I-3.070105 J1.645955
G03 X238.815431 Y268.359825 Z-1.000000 I2.724065 J-2.123968
G03 X235.384537 Y261.543819 Z-1.000000 I772.487503 J-393.109534
G03 X231.981452 Y254.630829 Z-1.000000 I769.670990 J-383.183236
G03 X231.916010 Y254.346840 Z-1.000000 I0.583476 J-0.283989
G02 X231.875673 Y254.151359 Z-1.000000 I-0.493844 J-0.000000
G02 X230.468740 Y250.985520 Z-1.000000 I-141.799626 J61.121759
G03 X224.368109 Y235.910324 Z-1.000000 I164.782254 J-75.456085
G03 X221.660150 Y226.055830 Z-1.000000 I67.462272 J-23.837565
G02 X221.181463 Y223.685752 Z-1.000000 I-457.720909 J91.212881
G02 X220.248040 Y219.157390 Z-1.000000 I-1616.662037 J330.879375
G03 X218.573475 Y207.389275 Z-1.000000 I91.942135 J-19.086268
G03 X218.017570 Y190.632000 Z-1.000000 I186.407324 J-14.571729
G03 X218.307716 Y176.123270 Z-1.000000 I873.337527 J10.207743
G03 X218.566400 Y171.229660 Z-1.000000 I99.940309 J2.829368
G02 X218.583664 Y166.445928 Z-1.000000 I-32.379904 J-2.508754
G02 X218.148430 Y165.264810 Z-1.000000 I-2.248784 J0.157913
G03 X216.559717 Y163.023694 Z-1.000000 I57.168639 J-42.210148
G03 X203.783190 Y144.147620 Z-1.000000 I4077.375116 J-2773.588834
G03 X185.705266 Y114.171845 Z-1.000000 I290.268487 J-195.495554
G03 X176.240220 Y92.837080 Z-1.000000 I137.052177 J-73.569353
G01 X174.628900 Y88.315590 Z-1.000000
G01 X174.923820 Y82.057780 Z-1.000000
G03 X176.321728 Y58.770328 Z-1.000000 I892.713464 J41.902442
G03 X176.685540 Y57.973800 Z-1.000000 I1.254792 J0.091774
G03 X176.828289 Y58.035293 Z-1.000000 I0.059195 J0.059020
G03 X176.458970 Y65.669110 Z-1.000000 I-203.817473 J-6.034711
G02 X176.062427 Y71.922321 Z-1.000000 I832.380375 J55.924066
G02 X175.630850 Y79.540200 Z-1.000000 I1277.234949 J76.180490
G01 X175.222650 Y87.159340 Z-1.000000
G01 X177.371080 Y92.258950 Z-1.000000
G02 X179.615460 Y97.311892 Z-1.000000 I131.629682 J-55.441425
G02 X181.166010 Y100.376140 Z-1.000000 I50.035566 J-23.394233
G02 X182.814285 Y103.393024 Z-1.000000 I3004.342919 J-1639.464661
G02 X184.941400 Y107.274580 Z-1.000000 I2515.690611 J-1376.089172
G03 X187.065917 Y111.158623 Z-1.000000 I-1246.760900 J684.483810
G03 X188.699210 Y114.173020 Z-1.000000 I-621.903714 J338.916218
G02 X190.332778 Y117.186217 Z-1.000000 I567.703919 J-305.824318
G02 X191.287100 Y118.915200 Z-1.000000 I176.940036 J-96.535212
G03 X192.244945 Y120.643160 Z-1.000000 I-280.075862 J156.381496
G03 X193.660150 Y123.227700 Z-1.000000 I-613.713547 J337.728066
G02 X199.565897 Y133.552063 Z-1.000000 I251.960890 J-137.275508
G02 X206.720690 Y144.999190 Z-1.000000 I316.299811 J-189.737190
G03 X209.920212 Y149.975381 Z-1.000000 I-450.063991 J292.892553
G03 X214.376940 Y157.053880 Z-1.000000 I-883.714966 J561.342332
G02 X218.587169 Y163.183400 Z-1.000000 I71.798014 J-44.805722
G02 X218.927720 Y163.090980 Z-1.000000 I0.151775 J-0.114380
G03 X220.168655 Y154.857341 Z-1.000000 I122.630467 J14.271945
G03 X220.775380 Y153.124190 Z-1.000000 I5.907385 J1.095227
G02 X221.062748 Y152.359345 Z-1.000000 I-2.764376 J-1.475042
G02 X221.179680 Y151.387860 Z-1.000000 I-4.385919 J-1.020685
G03 X222.182462 Y148.902638 Z-1.000000 I3.679919 J0.039919
G03 X233.068350 Y138.782390 Z-1.000000 I82.419792 J77.740348
G03 X238.039256 Y135.110076 Z-1.000000 I41.477724 J50.944440
G03 X244.673820 Y131.026530 Z-1.000000 I57.770410 J86.428577
G02 X251.447862 Y127.141489 Z-1.000000 I-297.109399 J-525.894577
G02 X253.193350 Y126.067550 Z-1.000000 I-21.144403 J-36.321755
G03 X254.940516 Y125.035015 Z-1.000000 I13.101916 J20.175453
G03 X255.341790 Y124.917160 Z-1.000000 I0.482782 J0.901722
G02 X255.755506 Y124.820334 Z-1.000000 I-0.113184 J-1.415876
G02 X258.214830 Y123.768720 Z-1.000000 I-20.640748 J-51.672369
G03 X262.254428 Y122.477453 Z-1.000000 I7.432341 J16.286957
G03 X271.009760 Y121.299970 Z-1.000000 I14.699200 J76.158386
G03 X287.338722 Y120.674142 Z-1.000000 I16.309813 J212.213255
G03 X305.923820 Y121.301970 Z-1.000000 I-0.024843 J276.129377
G03 X322.705162 Y123.425322 Z-1.000000 I-9.761771 J144.524640
G03 X339.378900 Y127.538300 Z-1.000000 I-27.348860 J146.724046
G02 X343.034712 Y128.663096 Z-1.000000 I607.628056 J-1968.409449
G02 X344.968740 Y129.253140 Z-1.000000 I206.239385 J-672.540196
G03 X354.648159 Y132.954504 Z-1.000000 I-21.345743 J70.328137
G03 X369.039050 Y140.460170 Z-1.000000 I-76.243082 J163.732602
G02 X373.142714 Y142.793838 Z-1.000000 I137.399118 J-236.836090
G02 X375.429680 Y144.022670 Z-1.000000 I41.052184 J-73.659233
G03 X377.639589 Y145.356937 Z-1.000000 I-9.063235 J17.508422
G03 X380.076160 Y147.262910 Z-1.000000 I-16.055005 J23.034934
G02 X382.456518 Y149.201384 Z-1.000000 I28.486747 J-32.549706
G02 X382.785150 Y149.311740 Z-1.000000 I0.328632 J-0.434143
G03 X384.572817 Y150.036537 Z-1.000000 I-0.000000 J2.566983
G03 X389.277330 Y155.612520 Z-1.000000 I-25.550995 J26.330247
G03 X391.691053 Y160.384009 Z-1.000000 I-16.636901 J11.412256
G03 X394.773430 Y171.378140 Z-1.000000 I-86.912836 J30.296537
G01 X395.521470 Y174.860570 Z-1.000000
G01 X403.029290 Y174.780470 Z-1.000000
G03 X416.394088 Y175.567203 Z-1.000000 I1.030631 J96.404034
G03 X416.511710 Y176.518750 Z-1.000000 I-0.063320 J0.490870
G03 X414.321579 Y176.929835 Z-1.000000 I-2.171102 J-5.527238
G03 X405.115220 Y176.483550 Z-1.000000 I0.326588 J-101.918669
G02 X396.351125 Y176.030995 Z-1.000000 I-9.756873 J103.861683
G02 X395.726550 Y176.393750 Z-1.000000 I-0.006733 J0.707468
G03 X395.073479 Y176.403990 Z-1.000000 I-0.329498 J-0.183848
G03 X394.220690 Y173.883980 Z-1.000000 I5.371748 J-3.222138
G02 X393.286255 Y169.157201 Z-1.000000 I-28.927830 J3.262977
G02 X390.222650 Y159.874220 Z-1.000000 I-115.383217 J32.932190
G02 X388.150901 Y156.262738 Z-1.000000 I-12.132955 J4.560169
G02 X384.085930 Y152.319530 Z-1.000000 I-18.596836 J15.104238
G03 X382.173560 Y150.815870 Z-1.000000 I50.552791 J-66.261476
G03 X379.142570 Y148.315620 Z-1.000000 I140.163279 J-173.003715
G02 X376.053766 Y145.907784 Z-1.000000 I-34.586219 J41.182555
G02 X374.437490 Y144.913280 Z-1.000000 I-7.504535 J10.385793
G01 X372.744130 Y144.036330 Z-1.000000
G01 X374.472650 Y146.133980 Z-1.000000
G03 X380.849631 Y155.839448 Z-1.000000 I-41.621914 J34.295425
G03 X383.832020 Y164.401560 Z-1.000000 I-29.275009 J14.997663
G03 X385.948230 Y180.356249 Z-1.000000 I-121.400261 J24.220069
G03 X385.835930 Y194.366410 Z-1.000000 I-93.490795 J6.256145
G03 X383.583715 Y209.377129 Z-1.000000 I-114.537930 J-9.510998
G03 X380.187490 Y220.235550 Z-1.000000 I-63.148088 J-13.790708
G03 X371.577597 Y239.060815 Z-1.000000 I-253.855937 J-104.721615
G03 X357.925770 Y264.426950 Z-1.000000 I-475.154727 J-239.367302
G02 X355.577129 Y268.522893 Z-1.000000 I12169.473040 J6980.912989
G02 X354.218740 Y270.893750 Z-1.000000 I6831.130383 J3915.415797
G03 X344.730911 Y286.170409 Z-1.000000 I-218.921283 J-125.380164
G03 X332.216790 Y303.653510 Z-1.000000 I-299.252592 J-200.979920
G03 X329.562424 Y306.962138 Z-1.000000 I-67.363562 J-51.323746
G03 X319.216790 Y319.050000 Z-1.000000 I-903.124883 J-762.486004
G02 X311.731037 Y327.746931 Z-1.000000 I1102.913829 J956.886727
G02 X308.886710 Y331.147650 Z-1.000000 I164.870445 J140.785782
G03 X306.605559 Y333.686398 Z-1.000000 I-28.900917 J-23.674232
G03 X306.236320 Y333.841010 Z-1.000000 I-0.369239 J-0.363596
G03 X303.564059 Y332.954222 Z-1.000000 I0.000000 J-4.469711
G03 X288.908190 Y320.917190 Z-1.000000 I121.254433 J-162.575907
G03 X278.475614 Y310.873847 Z-1.000000 I151.574419 J-167.888842
G03 X271.466790 Y303.014840 Z-1.000000 I85.520907 J-83.324120
G02 X267.868512 Y298.776442 Z-1.000000 I-109.188292 J89.051103
G02 X264.417960 Y295.038280 Z-1.000000 I-87.515625 J77.320655
G03 X255.222285 Y284.305283 Z-1.000000 I86.586785 J-83.490457
G03 X242.554680 Y266.255080 Z-1.000000 I232.994942 J-176.985642
G02 X241.371058 Y264.428199 Z-1.000000 I-1412.548021 J913.882002
G02 X240.318350 Y262.809760 Z-1.000000 I-704.000667 J456.763265
G03 X239.344108 Y261.150105 Z-1.000000 I17.145307 J-11.180322
G03 X238.214830 Y258.805860 Z-1.000000 I33.036729 J-17.358694
G02 X237.135814 Y256.430944 Z-1.000000 I-96.256206 J42.300345
G02 X234.269520 Y250.397650 Z-1.000000 I-649.942472 J305.076772
G03 X226.543123 Y231.560806 Z-1.000000 I155.811764 J-74.913053
G03 X220.351550 Y209.807810 Z-1.000000 I201.803424 J-69.197127
G03 X219.547523 Y205.836403 Z-1.000000 I80.598515 J-18.384578
G03 X219.435540 Y204.633980 Z-1.000000 I7.225440 J-1.279340
G02 X219.253952 Y204.059783 Z-1.000000 I-1.034909 J0.011475
G02 X219.046870 Y204.067580 Z-1.000000 I-0.101076 J0.069373
G02 X218.674905 Y206.035433 Z-1.000000 I2.600394 J1.510609
G02 X221.234370 Y218.294140 Z-1.000000 I116.395142 J-17.905306
G03 X222.534123 Y223.256683 Z-1.000000 I-865.211482 J229.261260
G03 X223.802720 Y228.212110 Z-1.000000 I-926.030769 J239.705506
G02 X227.191788 Y239.922035 Z-1.000000 I174.971785 J-44.294663
G02 X230.056630 Y247.372260 Z-1.000000 I73.556639 J-24.008882
G03 X231.976285 Y251.712886 Z-1.000000 I-938.418496 J417.613113
G03 X232.910150 Y253.864450 Z-1.000000 I-234.441621 J103.035564
G02 X240.949612 Y271.096858 Z-1.000000 I276.598016 J-118.550166
G02 X242.789050 Y273.407420 Z-1.000000 I6.497265 J-3.285002
G03 X243.358627 Y274.047392 Z-1.000000 I-1.841780 J2.212641
G03 X244.613270 Y276.202340 Z-1.000000 I-20.616634 J13.446016
G02 X248.543767 Y282.910005 Z-1.000000 I64.623377 J-33.362012
G02 X257.439440 Y295.628120 Z-1.000000 I241.306336 J-159.311386
G02 X271.791858 Y312.466792 Z-1.000000 I129.607890 J-95.935134
G02 X291.451160 Y330.389840 Z-1.000000 I166.745267 J-163.154929
G03 X294.827267 Y333.253178 Z-1.000000 I-65.780122 J80.982086
G03 X298.203110 Y336.368360 Z-1.000000 I-73.747606 J83.305159
G02 X301.557585 Y339.507243 Z-1.000000 I116.304455 J-120.930860
G02 X302.349600 Y340.141800 Z-1.000000 I5.421533 J-5.955275
G03 X303.251451 Y341.117546 Z-1.000000 I-1.812337 J2.579733
G03 X309.072260 Y351.518750 Z-1.000000 I-217.944252 J128.797147
G02 X312.883094 Y358.606781 Z-1.000000 I535.246733 J-283.203448
G02 X316.373040 Y364.883980 Z-1.000000 I422.186892 J-230.615315
G03 X319.903403 Y371.140147 Z-1.000000 I-2776.217812 J1570.747372
G03 X321.105460 Y373.292190 Z-1.000000 I-332.013026 J186.862776
G02 X332.788147 Y394.229796 Z-1.000000 I3758.868388 J-2083.631128
G02 X338.419910 Y404.118360 Z-1.000000 I830.643483 J-466.522463
G03 X341.734686 Y409.928446 Z-1.000000 I-554.944313 J320.458009
G03 X344.130850 Y414.251170 Z-1.000000 I-303.637511 J171.137227
G02 X346.052404 Y417.676407 Z-1.000000 I141.496991 J-77.128033
G02 X348.068350 Y421.073440 Z-1.000000 I140.793541 J-81.256275
G03 X350.064491 Y424.463954 Z-1.000000 I-107.385766 J65.505456
G03 X350.126940 Y424.700390 Z-1.000000 I-0.416354 J0.236436
G02 X350.187377 Y424.937057 Z-1.000000 I0.493608 J-0.000000
G02 X351.345690 Y426.930860 Z-1.000000 I38.540244 J-21.056853
G03 X352.545396 Y428.920588 Z-1.000000 I-99.232505 J61.188741
G03 X354.291010 Y431.926950 Z-1.000000 I-228.343439 J134.595327
G02 X356.035140 Y434.934602 Z-1.000000 I251.416291 J-143.786108
G02 X361.767570 Y444.645700 Z-1.000000 I2785.206025 J-1637.550884
G02 X367.942239 Y454.644453 Z-1.000000 I277.423820 J-164.415454
G02 X377.935540 Y469.788280 Z-1.000000 I643.564947 J-413.814641
G03 X380.068176 Y473.202138 Z-1.000000 I-45.336544 J30.694788
G03 X380.216790 Y473.758980 Z-1.000000 I-0.968912 J0.556842
G02 X380.561498 Y474.275253 Z-1.000000 I0.558969 J0.000000
G02 X382.979825 Y475.073359 Z-1.000000 I6.547515 J-15.776607
G02 X385.409246 Y475.472752 Z-1.000000 I3.668168 J-14.724160
G02 X385.791010 Y475.147650 Z-1.000000 I0.028895 J-0.352771
G02 X385.740617 Y474.836248 Z-1.000000 I-0.664648 J-0.052221
G02 X384.791010 Y472.776560 Z-1.000000 I-31.937122 J13.475671
G03 X383.800118 Y470.715300 Z-1.000000 I61.555136 J-30.859659
G03 X382.359370 Y467.497260 Z-1.000000 I151.787173 J-69.888172
G02 X380.932852 Y464.272230 Z-1.000000 I-266.849964 J116.106922
G02 X379.294910 Y460.680860 Z-1.000000 I-334.420237 J150.352278
G03 X377.681388 Y457.088545 Z-1.000000 I160.708462 J-74.342223
G03 X377.636710 Y456.874220 Z-1.000000 I0.491727 J-0.214325
G02 X377.588034 Y456.661390 Z-1.000000 I-0.489623 J-0.000000
G02 X371.560540 Y444.288280 Z-1.000000 I-1709.236081 J824.990452
G03 X365.505260 Y431.916649 Z-1.000000 I3504.689770 J-1723.034065
G03 X361.968740 Y424.598830 Z-1.000000 I1131.273831 J-551.229899
G02 X355.914015 Y412.293966 Z-1.000000 I-598.815535 J287.010799
G02 X350.646470 Y402.178910 Z-1.000000 I-406.623273 J205.325171
G03 X348.572142 Y398.293864 Z-1.000000 I874.688418 J-469.515336
G03 X346.410150 Y394.202340 Z-1.000000 I979.603544 J-520.246892
G02 X344.244438 Y390.113122 Z-1.000000 I-677.129378 J355.999929
G02 X342.960930 Y387.735550 Z-1.000000 I-241.935589 J129.071215
G03 X341.675047 Y385.359125 Z-1.000000 I299.801294 J-163.758477
G03 X339.376940 Y381.051950 Z-1.000000 I1131.798361 J-606.641390
G02 X337.078961 Y376.744940 Z-1.000000 I-1138.381152 J604.609866
G02 X335.009760 Y372.903510 Z-1.000000 I-926.483360 J496.575749
G03 X332.962657 Y369.058942 Z-1.000000 I278.222762 J-150.611551
G03 X332.931630 Y368.932810 Z-1.000000 I0.240865 J-0.126132
G02 X332.899552 Y368.807188 Z-1.000000 I-0.262017 J-0.000000
G02 X330.082020 Y363.716010 Z-1.000000 I-469.282267 J256.382428
G03 X327.274746 Y358.610461 Z-1.000000 I310.897312 J-174.270731
G03 X324.433580 Y353.243360 Z-1.000000 I347.621704 J-187.454986
G02 X321.587303 Y347.880266 Z-1.000000 I-308.054486 J160.052437
G02 X320.228510 Y345.483590 Z-1.000000 I-63.409114 J34.366219
G03 X318.859803 Y343.091908 Z-1.000000 I78.605633 J-46.571763
G03 X317.507800 Y340.559760 Z-1.000000 I87.979769 J-48.602506
G01 X316.191400 Y338.008980 Z-1.000000
G01 X317.374990 Y336.874220 Z-1.000000
G02 X318.496479 Y335.682699 Z-1.000000 I-11.008407 J-11.484923
G02 X321.980460 Y331.448440 Z-1.000000 I-137.668418 J-116.825115
G03 X325.426873 Y327.179720 Z-1.000000 I363.249663 J289.749293
G03 X326.191400 Y326.296090 Z-1.000000 I16.078773 J13.138983
G02 X329.603026 Y322.173402 Z-1.000000 I-39.398583 J-36.076243
G02 X337.453110 Y311.206250 Z-1.000000 I-270.847631 J-202.160766
G03 X346.441016 Y298.381559 Z-1.000000 I646.117497 J443.255585
G03 X356.740220 Y284.260940 Z-1.000000 I798.991814 J571.947076
G02 X373.241907 Y259.016408 Z-1.000000 I-201.482244 J-149.719275
G02 X385.792960 Y233.385940 Z-1.000000 I-195.345407 J-111.547530
G03 X388.037142 Y228.002765 Z-1.000000 I873.502900 J360.993721
G03 X388.607410 Y226.690620 Z-1.000000 I55.347450 J23.274403
G02 X392.348849 Y216.343734 Z-1.000000 I-67.055331 J-30.097135
G02 X397.001940 Y196.598830 Z-1.000000 I-240.603968 J-67.121544
G03 X397.714522 Y194.499295 Z-1.000000 I8.005605 J1.546410
G03 X398.132800 Y194.337110 Z-1.000000 I0.298430 J0.149192
G02 X398.788736 Y194.418415 Z-1.000000 I0.491209 J-1.276302
G02 X401.210930 Y193.964060 Z-1.000000 I-2.296397 J-18.925826
G03 X408.529599 Y192.682983 Z-1.000000 I11.978861 J46.888113
G03 X416.197260 Y192.514840 Z-1.000000 I4.959903 J51.267095
G01 X419.839830 Y192.706250 Z-1.000000
G01 X419.642570 Y191.165230 Z-1.000000
G02 X419.412116 Y189.629577 Z-1.000000 I-34.738393 J4.428037
G02 X418.966790 Y187.253120 Z-1.000000 I-84.417013 J14.589016
G03 X418.142048 Y180.512173 Z-1.000000 I42.934328 J-8.673862
G03 X418.175770 Y169.360550 Z-1.000000 I118.143295 J-5.218597
G03 X419.905265 Y156.073503 Z-1.000000 I84.523960 J4.245893
G03 X422.642570 Y148.270700 Z-1.000000 I31.511471 J6.673015
G03 X427.294563 Y140.580794 Z-1.000000 I51.560603 J25.939423
G03 X432.869130 Y134.005080 Z-1.000000 I43.188742 J30.962512
G03 X445.259049 Y124.700115 Z-1.000000 I38.678298 J38.600330
G03 X463.824210 Y117.018750 Z-1.000000 I44.190040 J80.527480
G03 X473.279950 Y114.632575 Z-1.000000 I38.294641 J131.822565
G03 X483.023430 Y112.893750 Z-1.000000 I29.658601 J138.023408
G02 X487.892458 Y112.178331 Z-1.000000 I-79.862923 J-560.460717
G02 X492.056630 Y111.526560 Z-1.000000 I-62.787018 J-414.775515
G03 X496.238864 Y111.147150 Z-1.000000 I4.804438 J29.719221
G03 X514.623040 Y111.059760 Z-1.000000 I11.937253 J577.454693
G03 X539.934986 Y112.874231 Z-1.000000 I-2.346237 J210.188707
G03 X562.691400 Y117.440620 Z-1.000000 I-23.127695 J174.241950
G03 X578.258254 Y122.474532 Z-1.000000 I-43.906817 J162.363707
G03 X594.285150 Y129.382030 Z-1.000000 I-67.804342 J179.367492
G03 X601.848897 Y133.725434 Z-1.000000 I-27.731781 J57.050622
G03 X607.105460 Y137.967970 Z-1.000000 I-21.147487 J31.579786
G03 X608.890654 Y139.809743 Z-1.000000 I-27.037145 J27.992625
G03 X608.844164 Y139.900490 Z-1.000000 I-0.040350 J0.036610
G03 X608.556815 Y139.794005 Z-1.000000 I0.072070 J-0.635428
G03 X605.759760 Y137.815620 Z-1.000000 I51.271698 J-75.454721
G02 X602.688083 Y135.805219 Z-1.000000 I-19.838828 J26.959802
G02 X593.640610 Y130.800000 Z-1.000000 I-133.810330 J231.196849
G01 X590.201160 Y128.983590 Z-1.000000
G01 X593.626940 Y132.307810 Z-1.000000
G02 X597.153977 Y135.506092 Z-1.000000 I49.010629 J-50.504548
G02 X599.369130 Y137.173050 Z-1.000000 I15.560325 J-18.372197
G03 X601.285718 Y139.209511 Z-1.000000 I-3.425843 J5.144302
G03 X606.144520 Y148.819530 Z-1.000000 I-79.249689 J46.101759
G03 X609.329832 Y161.009522 Z-1.000000 I-37.732927 J16.370988
G03 X609.787100 Y184.469920 Z-1.000000 I-141.914432 J14.500716
G03 X607.947079 Y204.060975 Z-1.000000 I-318.876864 J-20.067453
G03 X606.093740 Y213.997260 Z-1.000000 I-83.686966 J-10.468500
G03 X596.691514 Y239.343343 Z-1.000000 I-118.551738 J-29.560280
G03 X577.363270 Y271.110550 Z-1.000000 I-206.493922 J-103.874310
G03 X556.319733 Y298.367313 Z-1.000000 I-459.532544 J-333.029629
G03 X541.101550 Y315.245310 Z-1.000000 I-191.238530 J-157.131966
G02 X528.386722 Y328.533584 Z-1.000000 I401.090991 J396.509407
G02 X528.087880 Y329.296090 Z-1.000000 I0.823361 J0.762506
G03 X527.963421 Y329.834980 Z-1.000000 I-1.228890 J0.000000
G03 X527.765610 Y329.956250 Z-1.000000 I-0.194157 J-0.094736
G03 X526.797626 Y329.622749 Z-1.000000 I0.027024 J-1.649972
G03 X514.947260 Y320.268750 Z-1.000000 I216.792551 J-286.832967
G03 X496.319258 Y304.819640 Z-1.000000 I2421.969518 J-2939.282056
G03 X494.296870 Y303.030470 Z-1.000000 I30.119989 J-36.083711
G02 X493.814799 Y302.589907 Z-1.000000 I-17.766807 J18.956710
G02 X490.648430 Y299.780470 Z-1.000000 I-660.587275 J741.324115
G03 X471.757796 Y281.674791 Z-1.000000 I213.544553 J-241.710230
G03 X456.431630 Y264.212110 Z-1.000000 I183.234476 J-176.273065
G02 X453.668726 Y260.766132 Z-1.000000 I-1434.985757 J1147.707206
G02 X452.984370 Y259.923050 Z-1.000000 I-87.649988 J70.448927
G03 X441.100803 Y244.154389 Z-1.000000 I186.862614 J-153.185444
G03 X435.232410 Y234.247260 Z-1.000000 I67.538734 J-46.697529
G02 X432.961152 Y230.391809 Z-1.000000 I-29.535462 J14.802707
G02 X432.658190 Y230.485550 Z-1.000000 I-0.136978 J0.093741
G02 X432.701744 Y230.712275 Z-1.000000 I0.611898 J0.000000
G02 X434.187490 Y234.317580 Z-1.000000 I160.017785 J-63.834530
G02 X439.957447 Y245.915705 Z-1.000000 I100.348792 J-42.688264
G02 X449.773430 Y261.471870 Z-1.000000 I190.715182 J-109.466759
G02 X453.026799 Y265.937080 Z-1.000000 I91.180604 J-63.016725
G02 X457.812490 Y271.948440 Z-1.000000 I171.502621 J-131.623937
G03 X459.958945 Y274.567347 Z-1.000000 I-367.305010 J303.232064
G03 X462.439440 Y277.633980 Z-1.000000 I-527.529835 J429.237462
G02 X467.581818 Y283.535996 Z-1.000000 I77.236634 J-62.104390
G02 X483.736320 Y300.212110 Z-1.000000 I635.763561 J-599.714831
G02 X498.279480 Y314.383896 Z-1.000000 I463.339921 J-460.933792
G02 X507.326160 Y322.495310 Z-1.000000 I160.556255 J-169.968188
G03 X511.107244 Y325.714664 Z-1.000000 I-4331.046830 J5090.578387
G03 X512.398430 Y326.817580 Z-1.000000 I-450.855749 J529.125146
G02 X513.725753 Y327.872479 Z-1.000000 I15.066445 J-17.594802
G02 X516.697260 Y329.985550 Z-1.000000 I64.418819 J-87.443118
G03 X522.234930 Y334.754439 Z-1.000000 I-18.902696 J27.549589
G03 X523.912100 Y337.723830 Z-1.000000 I-5.332114 J4.970028
G03 X525.775101 Y346.089122 Z-1.000000 I-69.998466 J19.979182
G03 X530.460930 Y378.249220 Z-1.000000 I-1032.027502 J166.791107
G02 X532.174290 Y390.484053 Z-1.000000 I612.853379 J-79.586321
G02 X533.732410 Y400.022650 Z-1.000000 I373.690609 J-56.145403
G03 X534.569198 Y404.765839 Z-1.000000 I-27257.590053 J4811.338238
G03 X535.214830 Y408.430860 Z-1.000000 I-11219.681227 J1978.324441
G02 X535.876933 Y412.091742 Z-1.000000 I388.351736 J-68.346561
G02 X536.695300 Y416.405470 Z-1.000000 I561.791685 J-104.344246
G03 X538.491137 Y425.981558 Z-1.000000 I-804.871006 J155.896713
G03 X540.371080 Y436.669140 Z-1.000000 I-1003.585967 J182.039621
G02 X541.931613 Y445.720100 Z-1.000000 I2337.724963 J-398.401865
G02 X543.191400 Y452.837110 Z-1.000000 I1411.701665 J-246.216318
G03 X547.135779 Y477.387609 Z-1.000000 I-664.538516 J119.359468
G03 X546.738270 Y477.844920 Z-1.000000 I-0.397029 J0.056309
G03 X546.508141 Y477.663082 Z-1.000000 I0.000282 J-0.236898
G03 X545.166010 Y471.268750 Z-1.000000 I114.826962 J-27.439495
G02 X543.951596 Y464.698898 Z-1.000000 I-921.472084 J166.933643
G02 X542.261710 Y455.856640 Z-1.000000 I-1778.373989 J335.290992
G03 X540.597224 Y447.009165 Z-1.000000 I823.001667 J-159.412597
G03 X539.033190 Y438.178910 Z-1.000000 I834.781460 J-152.411944
G02 X537.507224 Y429.342452 Z-1.000000 I-4489.846601 J770.800793
G02 X536.486320 Y423.520700 Z-1.000000 I-1811.114971 J314.597120
G03 X532.042094 Y396.846952 Z-1.000000 I1317.424628 J-233.208782
G03 X529.615220 Y379.544140 Z-1.000000 I551.841010 J-86.222246
G02 X527.707709 Y365.359133 Z-1.000000 I-712.738299 J88.623812
G02 X525.249990 Y349.362500 Z-1.000000 I-908.884523 J131.453710
G02 X522.625710 Y336.228186 Z-1.000000 I-183.921990 J29.918906
G02 X521.943350 Y335.436720 Z-1.000000 I-1.104384 J0.262261
G03 X520.301274 Y334.473125 Z-1.000000 I2.372637 J-5.924184
G03 X507.630850 Y323.852730 Z-1.000000 I302.249771 J-373.460591
G02 X503.363581 Y320.162571 Z-1.000000 I-1019.784244 J1174.957466
G02 X499.716790 Y317.034370 Z-1.000000 I-717.704967 J832.995685
G03 X477.669782 Y296.627789 Z-1.000000 I244.179555 J-285.921390
G03 X459.310540 Y276.520700 Z-1.000000 I218.806739 J-218.221761
G02 X455.216178 Y271.640521 Z-1.000000 I-1142.593716 J954.453354
G02 X454.791010 Y271.155470 Z-1.000000 I-12.646612 J10.656413
G03 X450.013730 Y265.139451 Z-1.000000 I41.712668 J-38.028559
G03 X440.953110 Y251.061720 Z-1.000000 I221.327643 J-152.404131
G03 X431.499056 Y231.912849 Z-1.000000 I111.614547 J-67.013827
G03 X423.226550 Y206.223830 Z-1.000000 I193.327111 J-76.432647
G02 X420.995400 Y197.385246 Z-1.000000 I-6437.566332 J1620.353182
G02 X420.580070 Y195.766800 Z-1.000000 I-249.353619 J63.127234
G02 X419.761261 Y194.663944 Z-1.000000 I-1.773418 J0.461276
G02 X417.919910 Y194.143750 Z-1.000000 I-1.850929 J3.032757
G02 X404.961567 Y194.938020 Z-1.000000 I-0.283797 J101.473361
G02 X400.117180 Y196.383980 Z-1.000000 I1.924190 J15.284630
G02 X398.717691 Y197.583427 Z-1.000000 I1.613409 J3.298661
G02 X397.810540 Y199.696480 Z-1.000000 I4.678722 J3.259865
G03 X389.480016 Y227.517303 Z-1.000000 I-161.027941 J-33.059743
G03 X373.943350 Y259.559760 Z-1.000000 I-229.620078 J-91.549685
G03 X362.940319 Y277.653793 Z-1.000000 I-402.415354 J-232.317373
G03 X355.105460 Y289.003120 Z-1.000000 I-165.680942 J-105.996656
G02 X351.306994 Y294.258172 Z-1.000000 I194.203968 J144.375198
G02 X338.292960 Y312.930860 Z-1.000000 I2449.574514 J1721.116029
G03 X327.942735 Y326.744947 Z-1.000000 I-186.167050 J-128.701433
G03 X319.310540 Y336.348830 Z-1.000000 I-98.391751 J-79.755459
G02 X317.608264 Y338.272608 Z-1.000000 I15.497518 J15.428177
G02 X317.457020 Y338.710150 Z-1.000000 I0.557273 J0.437542
G02 X317.572609 Y339.178359 Z-1.000000 I1.006063 J-0.000000
G02 X319.765610 Y343.100780 Z-1.000000 I77.313190 J-40.651054
G03 X322.036625 Y347.012783 Z-1.000000 I-203.718880 J120.879067
G03 X325.646470 Y353.458200 Z-1.000000 I-545.192650 J309.576269
G02 X329.223613 Y359.923035 Z-1.000000 I4349.337837 J-2402.367277
G02 X330.906240 Y362.944530 Z-1.000000 I763.942598 J-423.449350
G03 X337.764454 Y375.358035 Z-1.000000 I-1157.588808 J647.645999
G03 X340.902330 Y381.268750 Z-1.000000 I-258.697981 J141.125668
G02 X342.611677 Y384.472465 Z-1.000000 I120.072442 J-62.006957
G02 X342.802720 Y384.717970 Z-1.000000 I0.867343 J-0.477852
G03 X342.993206 Y384.963855 Z-1.000000 I-0.666935 J0.713400
G03 X345.152330 Y389.028510 Z-1.000000 I-185.303581 J101.038080
G02 X347.288828 Y393.114972 Z-1.000000 I470.762507 J-243.523934
G02 X348.115220 Y394.633980 Z-1.000000 I62.859563 J-33.213439
G03 X349.339174 Y396.870132 Z-1.000000 I-115.867743 J64.873081
G03 X355.033190 Y407.567580 Z-1.000000 I-2579.343532 J1379.791755
G03 X366.467441 Y429.850843 Z-1.000000 I-853.490196 J452.028233
G03 X378.490220 Y454.778510 Z-1.000000 I-1055.759854 J524.563145
G03 X380.506089 Y459.090882 Z-1.000000 I-5779.325883 J2704.236166
G03 X383.826160 Y466.204300 Z-1.000000 I-15827.567117 J7391.610672
G02 X389.170646 Y475.400950 Z-1.000000 I53.640575 J-25.021106
G02 X391.607410 Y477.186720 Z-1.000000 I3.895188 J-2.759739
G03 X406.459495 Y483.270981 Z-1.000000 I-31.332855 J97.655174
G03 X416.669910 Y489.827340 Z-1.000000 I-26.397382 J52.338107
G02 X418.508018 Y491.089748 Z-1.000000 I9.586398 J-11.988741
G02 X418.769520 Y491.055860 Z-1.000000 I0.108828 J-0.186118
G02 X418.882083 Y490.759227 Z-1.000000 I-0.274753 J-0.273934
G02 X418.531240 Y486.991410 Z-1.000000 I-55.065934 J3.227263
G03 X418.002999 Y480.909169 Z-1.000000 I74.710698 J-9.552662
G03 X418.171490 Y480.635989 Z-1.000000 I0.284433 J-0.013120
G03 X418.395084 Y480.741675 Z-1.000000 I0.066389 J0.148911
G03 X419.705070 Y486.467970 Z-1.000000 I-65.230851 J17.935637
G03 X421.269091 Y497.525600 Z-1.000000 I-134.134165 J24.611723
G03 X421.390610 Y503.325390 Z-1.000000 I-36.755380 J3.671279
G02 X421.370222 Y506.566516 Z-1.000000 I31.517239 J1.818885
G02 X421.542960 Y506.731640 Z-1.000000 I0.172738 J-0.007790
G02 X421.879359 Y506.673380 Z-1.000000 I0.000000 J-1.000335
G02 X425.017570 Y505.491410 Z-1.000000 I-32.716312 J-91.621086
G03 X440.223866 Y500.167577 Z-1.000000 I73.020796 J184.188445
G03 X445.124990 Y499.356640 Z-1.000000 I5.501444 J18.033384
G03 X448.010588 Y499.855225 Z-1.000000 I0.231363 J7.260567
G03 X461.314440 Y505.712110 Z-1.000000 I-65.324919 J166.423084
G02 X467.295855 Y508.431556 Z-1.000000 I50.420285 J-102.961530
G02 X468.039050 Y508.540230 Z-1.000000 I0.581891 J-1.383806
G03 X468.521870 Y508.643380 Z-1.000000 I0.084799 J0.784630
G03 X468.574210 Y508.852730 Z-1.000000 I-0.076064 J0.130235
G02 X468.637376 Y509.117739 Z-1.000000 I0.163876 J0.100972
G02 X469.712880 Y509.551950 Z-1.000000 I1.826509 J-2.975039
G03 X475.593408 Y511.613476 Z-1.000000 I-5.583125 J25.343831
G03 X475.757800 Y512.528510 Z-1.000000 I-0.255108 J0.518116
G02 X475.805078 Y512.643288 Z-1.000000 I0.049436 J0.046763
G02 X476.503900 Y512.551910 Z-1.000000 I0.069409 J-2.187035
G03 X477.238023 Y512.439169 Z-1.000000 I0.769654 J2.565152
G03 X477.283190 Y512.541910 Z-1.000000 I0.000809 J0.060943
G02 X477.314519 Y512.800008 Z-1.000000 I0.123264 J0.115988
G02 X480.937490 Y514.905190 Z-1.000000 I23.800699 J-36.790344
G03 X484.853900 Y517.011465 Z-1.000000 I-68.793395 J132.608734
G03 X487.681630 Y518.664950 Z-1.000000 I-38.318742 J68.776008
G02 X498.736188 Y524.921771 Z-1.000000 I95.175423 J-155.262013
G02 X499.458970 Y524.797770 Z-1.000000 I0.279844 J-0.537324
G02 X499.555382 Y524.592553 Z-1.000000 I-0.270182 J-0.252188
G02 X500.335930 Y517.940340 Z-1.000000 I-312.398982 J-40.027742
G03 X502.730162 Y499.370725 Z-1.000000 I422.118460 J44.985760
G03 X504.482410 Y490.563390 Z-1.000000 I96.314627 J14.584129
G03 X507.784069 Y479.446049 Z-1.000000 I121.910076 J30.156260
G03 X509.058580 Y477.413000 Z-1.000000 I5.076895 J1.766669
G03 X509.228606 Y477.507103 Z-1.000000 I0.071505 J0.071458
G03 X507.019520 Y486.280190 Z-1.000000 I-212.551141 J-48.856253
G02 X503.989112 Y498.903975 Z-1.000000 I196.781649 J53.914126
G02 X504.234370 Y499.758700 Z-1.000000 I0.937114 J0.193651
G02 X504.370622 Y499.762675 Z-1.000000 I0.070138 J-0.066979
G02 X507.953110 Y496.293860 Z-1.000000 I-88.619714 J-95.108132
G03 X517.126866 Y487.847589 Z-1.000000 I99.809187 J99.200752
G03 X523.015610 Y483.612220 Z-1.000000 I30.646502 J36.398621
G02 X525.287213 Y482.037819 Z-1.000000 I-12.226506 J-20.066825
G02 X525.255850 Y481.856360 Z-1.000000 I-0.064515 J-0.082289
G02 X524.834876 Y481.813321 Z-1.000000 I-0.306381 J0.916446
G02 X521.414050 Y482.315340 Z-1.000000 I7.637765 J63.950791
G03 X518.011428 Y482.823463 Z-1.000000 I-12.147666 J-69.699475
G03 X517.818350 Y482.762610 Z-1.000000 I-0.030062 J-0.241349
G03 X517.923616 Y482.313328 Z-1.000000 I0.176635 J-0.195588
G03 X530.236320 Y479.270420 Z-1.000000 I53.759920 J191.099787
G03 X533.920830 Y478.808189 Z-1.000000 I4.537554 J21.253510
G03 X545.066400 Y478.686440 Z-1.000000 I7.720293 J196.533643
G02 X590.699569 Y478.249586 Z-1.000000 I14.725339 J-845.417847
G02 X603.685540 Y476.543860 Z-1.000000 I-2.549231 J-69.692758
G02 X618.305933 Y473.041291 Z-1.000000 I-159.625240 J-698.571686
G02 X618.972650 Y472.709870 Z-1.000000 I-0.422958 J-1.687189
G03 X619.441533 Y472.672053 Z-1.000000 I0.262289 J0.326364
G03 X623.490220 Y475.272370 Z-1.000000 I-21.633905 J38.135995
G02 X636.356255 Y483.803687 Z-1.000000 I112.226020 J-155.280215
G02 X650.812490 Y491.844640 Z-1.000000 I114.075344 J-188.072260
G02 X661.736961 Y497.037767 Z-1.000000 I104.336376 J-205.399059
G02 X680.472650 Y505.000890 Z-1.000000 I264.562486 J-596.442093
G03 X697.740604 Y512.167996 Z-1.000000 I-494.346940 J1215.432738
G03 X697.876940 Y512.370030 Z-1.000000 I-0.087155 J0.205832
G03 X696.999596 Y513.013205 Z-1.000000 I-0.666907 J0.010256
G03 X676.388660 Y505.227450 Z-1.000000 I86.502808 J-260.169787
G03 X645.377548 Y490.165954 Z-1.000000 I132.734059 J-312.751104
G03 X622.839830 Y475.772370 Z-1.000000 I98.504783 J-179.082228
G01 X619.798820 Y473.538000 Z-1.000000
G01 X617.242180 Y474.541910 Z-1.000000
G03 X612.688070 Y475.947621 Z-1.000000 I-11.615119 J-29.549865
G03 X600.949210 Y478.256750 Z-1.000000 I-44.297150 J-194.199419
G03 X587.830025 Y479.675550 Z-1.000000 I-19.110167 J-115.341705
G03 X558.177720 Y480.452060 Z-1.000000 I-30.301187 J-590.551277
G02 X534.762126 Y480.666441 Z-1.000000 I1.599016 J1453.533301
G02 X531.347650 Y480.914950 Z-1.000000 I0.531605 J30.885616
G02 X528.137216 Y482.127623 Z-1.000000 I0.949102 J7.368647
G02 X515.406240 Y491.684480 Z-1.000000 I89.680751 J132.724510
G02 X511.191086 Y495.349685 Z-1.000000 I80.883866 J97.276570
G02 X507.419910 Y498.946200 Z-1.000000 I73.359318 J80.697357
G01 X503.734370 Y502.635660 Z-1.000000
G01 X503.015610 Y507.592690 Z-1.000000
G02 X502.380156 Y512.560108 Z-1.000000 I150.895925 J21.827619
G02 X501.863270 Y517.940340 Z-1.000000 I178.684852 J19.881443
G03 X501.401885 Y523.327327 Z-1.000000 I-573.549083 J-46.410160
G03 X501.255850 Y524.659090 Z-1.000000 I-34.966286 J-3.160343
G02 X501.676726 Y525.743580 Z-1.000000 I1.206605 J0.155646
G02 X513.902330 Y535.356360 Z-1.000000 I140.308854 J-165.865139
G02 X535.225233 Y550.210528 Z-1.000000 I347.294609 J-475.804021
G02 X536.124990 Y550.120030 Z-1.000000 I0.394677 J-0.594075
G02 X536.591048 Y548.743961 Z-1.000000 I-1.165053 J-1.161548
G02 X534.275380 Y536.059480 Z-1.000000 I-128.399051 J16.886808
G02 X533.022835 Y531.611217 Z-1.000000 I-51.025264 J11.967249
G02 X531.941400 Y528.983310 Z-1.000000 I-18.803891 J6.201700
G03 X530.697264 Y526.419505 Z-1.000000 I122.334064 J-60.948765
G03 X530.666010 Y526.280190 Z-1.000000 I0.294876 J-0.139315
G03 X531.382246 Y525.657612 Z-1.000000 I0.628702 J0.000000
G03 X532.457020 Y526.532140 Z-1.000000 I-0.186576 J1.326996
G02 X532.665006 Y526.891985 Z-1.000000 I1.094525 J-0.392592
G02 X534.558580 Y529.010660 Z-1.000000 I42.327337 J-35.924695
G03 X541.586526 Y537.087279 Z-1.000000 I-100.342632 J94.410111
G03 X550.099600 Y548.336830 Z-1.000000 I-186.928432 J150.303598
G02 X557.152626 Y557.979039 Z-1.000000 I370.308664 J-263.470515
G02 X559.857410 Y561.317300 Z-1.000000 I47.351766 J-35.601291
G03 X561.295685 Y563.165895 Z-1.000000 I-15.763086 J13.748068
G03 X563.103510 Y566.008700 Z-1.000000 I-35.745961 J24.728165
G01 X564.802720 Y568.926670 Z-1.000000
G01 X565.542960 Y566.608310 Z-1.000000
G02 X566.282277 Y564.289156 Z-1.000000 R183340.030118
G02 X568.755850 Y556.528230 Z-1.000000 R76276.961866
G03 X572.745270 Y545.365640 Z-1.000000 I162.522911 J51.790199
G03 X575.068350 Y540.631750 Z-1.000000 I31.364561 J12.454697
G01 X576.820300 Y537.670810 Z-1.000000
G01 X577.982410 Y541.315340 Z-1.000000
G03 X578.983998 Y544.998950 Z-1.000000 I-42.073578 J13.417942
G03 X579.869130 Y549.666910 Z-1.000000 I-66.487606 J15.025186
G02 X580.683060 Y554.354540 Z-1.000000 I121.285998 J-18.644856
G02 X581.414050 Y557.647370 Z-1.000000 I61.003679 J-11.814917
G03 X584.027517 Y569.212035 Z-1.000000 I-246.357986 J61.751408
G03 X585.917960 Y579.983310 Z-1.000000 I-212.959461 J42.927580
G02 X586.847816 Y583.928598 Z-1.000000 I24.205998 J-3.622835
G02 X587.509760 Y584.881750 Z-1.000000 I1.912712 J-0.621909
G02 X588.489367 Y585.646281 Z-1.000000 I45.786447 J-57.657167
G02 X594.070300 Y589.913000 Z-1.000000 I1390.810676 J-1813.417818
G03 X602.334960 Y597.906505 Z-1.000000 I-29.717325 J38.994654
G03 X609.466790 Y608.776280 Z-1.000000 I-48.563270 J39.637664
G03 X613.537129 Y618.729147 Z-1.000000 I-54.003930 J27.894267
G03 X614.488270 Y625.030190 Z-1.000000 I-20.395760 J6.301043
G03 X612.478561 Y631.381678 Z-1.000000 I-11.041482 J-0.000000
G03 X607.203110 Y635.389560 Z-1.000000 I-8.932499 J-6.281675
G03 X599.331588 Y636.399705 Z-1.000000 I-6.261328 J-17.616830
G03 X592.351550 Y634.104410 Z-1.000000 I1.379228 J-15.955126
G02 X591.465588 Y633.637486 Z-1.000000 I-4.078663 J6.665039
G02 X590.525380 Y633.288000 Z-1.000000 I-3.153732 J7.044914
G02 X589.894898 Y633.452102 Z-1.000000 I-0.180044 J0.601479
G02 X589.556630 Y634.286050 Z-1.000000 I0.858852 J0.833948
G02 X589.756134 Y635.437376 Z-1.000000 I3.421866 J-0.000000
G02 X590.093740 Y635.789950 Z-1.000000 I0.562967 J-0.201144
G03 X590.282800 Y636.050536 Z-1.000000 I-0.114838 J0.282193
G03 X590.134740 Y636.366130 Z-1.000000 I-0.356370 J0.025338
G02 X589.866616 Y636.855487 Z-1.000000 I0.376283 J0.524303
G02 X589.594175 Y644.291165 Z-1.000000 I211.647531 J11.477519
G02 X589.579745 Y651.700760 Z-1.000000 I216.339037 J4.126124
G02 X589.826140 Y652.545810 Z-1.000000 I1.658647 J-0.025172
G02 X590.060111 Y652.544786 Z-1.000000 I0.116673 J-0.071891
G02 X591.611300 Y649.588780 Z-1.000000 I-23.740128 J-14.342829
G03 X595.864380 Y641.287822 Z-1.000000 I84.336557 J37.970655
G03 X596.679660 Y640.817300 Z-1.000000 I0.815280 J0.471063
G03 X596.875086 Y641.106687 Z-1.000000 I0.000000 J0.210680
G03 X595.550750 Y643.620030 Z-1.000000 I-12.929642 J-5.207332
G02 X592.681086 Y648.673196 Z-1.000000 I34.313364 J22.827776
G02 X590.501920 Y654.182530 Z-1.000000 I38.618800 J18.460952
G02 X589.955295 Y657.041427 Z-1.000000 I11.735361 J3.725523
G02 X589.361300 Y670.350500 Z-1.000000 I257.146515 J18.144454
G03 X587.878363 Y698.042153 Z-1.000000 I-399.113283 J-7.487688
G03 X584.593720 Y724.243080 Z-1.000000 I-360.692278 J-31.911339
G02 X583.591588 Y730.718357 Z-1.000000 I423.309633 J68.827758
G02 X582.882780 Y735.885660 Z-1.000000 I269.205568 J39.559674
G03 X581.113938 Y747.555108 Z-1.000000 I-247.045912 J-31.478158
G03 X579.318330 Y756.149330 Z-1.000000 I-135.824466 J-23.893389
G03 X577.539543 Y760.985521 Z-1.000000 I-21.889015 J-5.305721
G03 X571.746060 Y771.164950 Z-1.000000 I-103.954492 J-52.425924
G02 X570.311322 Y773.597952 Z-1.000000 I34.095707 J21.745734
G02 X570.212860 Y773.985270 Z-1.000000 I0.712566 J0.387318
G03 X570.118035 Y774.339053 Z-1.000000 I-0.707378 J-0.000000
G03 X569.890590 Y774.543860 Z-1.000000 I-0.429090 J-0.247824
G02 X569.627017 Y774.756942 Z-1.000000 I0.267556 J0.600510
G02 X567.427700 Y777.920810 Z-1.000000 I68.391266 J49.887541
G03 X563.002604 Y784.242624 Z-1.000000 I-123.704607 J-81.880184
G03 X558.634740 Y789.809480 Z-1.000000 I-99.571786 J-73.628995
G03 X535.160507 Y815.714524 Z-1.000000 I-317.423449 J-264.049606
G03 X522.574190 Y826.368080 Z-1.000000 I-65.441406 J-64.552103
G02 X519.435580 Y828.595534 Z-1.000000 I240.629090 J342.385112
G02 X516.917940 Y830.420810 Z-1.000000 I164.560705 J229.630850
G03 X514.003135 Y832.225432 Z-1.000000 I-12.934961 J-17.636112
G03 X502.296850 Y837.955970 Z-1.000000 I-144.426080 J-280.210115
G03 X487.397564 Y844.074388 Z-1.000000 I-75.532063 J-162.731910
G03 X476.933560 Y847.065344 Z-1.000000 I-27.740810 J-77.252685
G03 X458.916089 Y850.457307 Z-1.000000 I-74.260883 J-344.911172
G03 X449.339810 Y851.520422 Z-1.000000 I-15.510603 J-96.053768
G02 X445.252794 Y851.895263 Z-1.000000 I4.113609 J67.320520
G02 X445.130830 Y852.036047 Z-1.000000 I0.016886 J0.137851
G02 X445.532046 Y852.709536 Z-1.000000 I0.794702 J-0.017174
G02 X450.498020 Y855.092688 Z-1.000000 I19.375204 J-34.008149
G03 X465.445518 Y862.169440 Z-1.000000 I-46.749333 J118.068240
G03 X477.832000 Y870.288000 Z-1.000000 I-49.429784 J88.923291
G03 X479.476532 Y871.853278 Z-1.000000 I-6.418501 J8.390024
G03 X479.943330 Y872.782141 Z-1.000000 I-1.691669 J1.431870
G02 X481.113096 Y873.639782 Z-1.000000 I1.084592 J-0.252750
G02 X493.964810 Y871.705969 Z-1.000000 I-6.833287 J-89.084368
G02 X505.600740 Y867.468898 Z-1.000000 I-10.764774 J-47.658395
G02 X532.171850 Y851.995031 Z-1.000000 I-138.092725 J-267.677696
G03 X536.491336 Y849.223434 Z-1.000000 I176.979290 J271.067470
G03 X537.404270 Y848.696203 Z-1.000000 I7.241157 J11.484501
G02 X538.298999 Y848.151303 Z-1.000000 I-3.931220 J-7.462104
G02 X538.908170 Y847.647375 Z-1.000000 I-2.762554 J-3.959666
G03 X539.522204 Y847.145745 Z-1.000000 I3.145879 J3.224172
G03 X541.843720 Y845.653234 Z-1.000000 I30.426269 J44.774581
G02 X548.118879 Y841.535688 Z-1.000000 I-55.961290 J-92.125733
G02 X554.953090 Y836.383700 Z-1.000000 I-81.174505 J-114.788377
G02 X564.287961 Y827.722001 Z-1.000000 I-55.712215 J-69.403103
G02 X574.718720 Y815.215730 Z-1.000000 I-106.280200 J-99.245163
G03 X577.311002 Y811.794822 Z-1.000000 I184.663195 J137.240701
G03 X577.548800 Y811.551670 Z-1.000000 I1.157926 J0.894573
G02 X579.881104 Y809.102377 Z-1.000000 I-8.213510 J-10.156292
G02 X588.767550 Y796.202060 Z-1.000000 I-226.685563 J-165.664353
G02 X599.344512 Y779.124242 Z-1.000000 I-405.365921 J-262.873280
G02 X605.556610 Y767.789950 Z-1.000000 I-171.961008 J-101.617883
G02 X607.038195 Y764.749059 Z-1.000000 I-96.483321 J-48.890052
G02 X610.097630 Y758.088780 Z-1.000000 I-465.639391 J-217.926768
G03 X613.114443 Y751.408656 Z-1.000000 I4673.143440 J2106.418428
G03 X614.275360 Y748.854410 Z-1.000000 I757.828784 J342.895860
G02 X620.349224 Y732.119210 Z-1.000000 I-101.172153 J-46.189189
G02 X627.546850 Y700.530190 Z-1.000000 I-355.106936 J-97.526380
G02 X629.399755 Y689.051389 Z-1.000000 I-286.214286 J-52.089592
G02 X631.437470 Y672.938390 Z-1.000000 I-564.009596 J-79.512268
G02 X632.193737 Y663.433248 Z-1.000000 I-147.435873 J-16.513240
G02 X632.812470 Y643.834870 Z-1.000000 I-623.979922 J-29.508396
G02 X632.980478 Y608.032107 Z-1.000000 I-1602.154886 J-25.420042
G02 X632.515590 Y597.918860 Z-1.000000 I-128.323915 J0.831512
G02 X629.638203 Y575.788218 Z-1.000000 I-253.314675 J21.683151
G02 X626.740200 Y564.911050 Z-1.000000 I-63.670679 J11.139132
G03 X625.583081 Y561.700218 Z-1.000000 I960.118066 J-347.821153
G03 X623.580050 Y556.096590 Z-1.000000 I3037.048076 J-1088.760210
G02 X619.880556 Y548.219756 Z-1.000000 I-42.446234 J15.128437
G02 X608.769500 Y531.151280 Z-1.000000 I-212.294867 J126.046756
G03 X606.286180 Y527.632043 Z-1.000000 I460.325738 J-327.460721
G03 X605.330050 Y526.237220 Z-1.000000 I70.887548 J-49.617476
G02 X604.287911 Y525.071617 Z-1.000000 I-4.705710 J3.158591
G02 X603.804660 Y524.944250 Z-1.000000 I-0.375100 J0.442739
G02 X602.210982 Y526.125820 Z-1.000000 I0.424757 J2.238449
G02 X596.748020 Y538.420810 Z-1.000000 I92.839991 J48.612216
G02 X594.217223 Y545.325710 Z-1.000000 I1341.434784 J495.581464
G02 X594.003880 Y545.969640 Z-1.000000 I11.064173 J4.023021
G02 X593.989462 Y546.616964 Z-1.000000 I1.167563 J0.349828
G02 X595.304660 Y551.141520 Z-1.000000 I62.928586 J-15.838653
G03 X597.779673 Y559.817434 Z-1.000000 I-103.720750 J34.279819
G03 X599.203090 Y567.307530 Z-1.000000 I-75.993320 J18.322066
G03 X599.217853 Y568.099343 Z-1.000000 I-3.265594 J0.456928
G03 X599.093012 Y568.114147 Z-1.000000 I-0.064074 J-0.006541
G03 X598.690912 Y566.862945 Z-1.000000 I23.089764 J-8.110607
G03 X597.082000 Y561.270420 Z-1.000000 I703.952112 J-205.547437
G02 X593.128594 Y548.970657 Z-1.000000 I-178.455855 J50.574285
G02 X590.091770 Y541.870030 Z-1.000000 I-62.329539 J22.457624
G02 X579.463935 Y522.844187 Z-1.000000 I-207.722752 J103.552650
G02 X577.623020 Y521.821200 Z-1.000000 I-1.840915 J1.144913
G02 X574.674259 Y522.827592 Z-1.000000 I-0.000000 J4.823178
G02 X565.160130 Y531.450110 Z-1.000000 I50.062822 J64.799794
G02 X563.272809 Y534.193247 Z-1.000000 I7.927333 J7.474952
G02 X562.837860 Y536.264560 Z-1.000000 I3.973546 J1.915716
G03 X562.712091 Y536.294059 Z-1.000000 I-0.065800 J0.002317
G03 X561.665990 Y533.678630 Z-1.000000 I28.463840 J-12.901690
G02 X560.460247 Y530.228850 Z-1.000000 I-2047.121985 J713.560218
G02 X560.230440 Y529.580970 Z-1.000000 I-85.874125 J30.095370
G03 X560.001357 Y528.933260 Z-1.000000 I68.739938 J-24.676420
G03 X557.759740 Y522.491130 Z-1.000000 I8272.209014 J-2882.026118
G02 X555.327546 Y516.127989 Z-1.000000 I-105.073751 J36.516121
G02 X552.761690 Y510.526280 Z-1.000000 I-84.099805 J35.133309
G03 X550.823080 Y506.380677 Z-1.000000 I79.006423 J-39.471891
G03 X550.471276 Y505.326262 Z-1.000000 I5.700767 J-2.487947
G03 X550.642556 Y505.227391 Z-1.000000 I0.100444 J-0.023790
G03 X551.845670 Y506.659090 Z-1.000000 I-5.561610 J5.895006
G03 X554.597361 Y511.423243 Z-1.000000 I-38.640066 J25.494563
G03 X556.675750 Y516.303630 Z-1.000000 I-38.452746 J19.258453
G03 X561.406916 Y530.267648 Z-1.000000 I-488.568013 J173.315829
G03 X561.617160 Y531.602450 Z-1.000000 I-4.132094 J1.334802
G02 X562.236477 Y531.995274 Z-1.000000 I0.434240 J0.000000
G02 X564.843720 Y530.082920 Z-1.000000 I-3.600898 J-7.642844
G03 X567.305738 Y527.614160 Z-1.000000 I33.175702 J30.623074
G03 X570.326140 Y524.993080 Z-1.000000 I40.720756 J43.873749
G02 X573.412922 Y522.445885 Z-1.000000 I-146.609364 J-180.810432
G02 X573.652310 Y522.200110 Z-1.000000 I-1.104455 J-1.315223
G03 X575.565074 Y520.608708 Z-1.000000 I4.789785 J3.811805
G03 X577.595670 Y520.098550 Z-1.000000 I2.043646 J3.838081
G03 X578.215685 Y520.311033 Z-1.000000 I0.002236 J1.004304
G03 X579.744110 Y521.774330 Z-1.000000 I-6.449355 J8.266277
G03 X583.725353 Y527.322746 Z-1.000000 I-31.085863 J26.508101
G03 X590.908170 Y540.454020 Z-1.000000 I-168.242735 J100.559049
G02 X592.857266 Y544.096731 Z-1.000000 I63.849077 J-31.820761
G02 X593.070280 Y544.227450 Z-1.000000 I0.226112 J-0.129543
G02 X593.261606 Y544.102194 Z-1.000000 I0.009756 J-0.193850
G02 X594.687470 Y539.950110 Z-1.000000 I-67.517719 J-25.507070
G03 X598.494290 Y529.847095 Z-1.000000 I86.034338 J26.649058
G03 X600.724580 Y526.440340 Z-1.000000 I11.715435 J5.236283
G02 X602.617050 Y524.102094 Z-1.000000 I-18.996677 J-17.310009
G02 X602.955050 Y523.327060 Z-1.000000 I-1.643607 J-1.178013
G03 X603.327306 Y522.759213 Z-1.000000 I0.897603 J0.182489
G03 X603.972630 Y522.616130 Z-1.000000 I0.495411 J0.707578
G03 X604.788909 Y522.792308 Z-1.000000 I-1.898582 J10.775729
G01 X604.822240 Y522.832920 Z-1.000000
G02 X604.843864 Y522.893014 Z-1.000000 I0.111144 J-0.006057
G02 X606.144500 Y524.623940 Z-1.000000 I108.671137 J-80.302482
G03 X612.554484 Y533.539984 Z-1.000000 I-149.955250 J114.569041
G03 X617.867160 Y541.973550 Z-1.000000 I-128.783509 J87.016553
G03 X623.772654 Y552.827372 Z-1.000000 I-167.763759 J98.312651
G03 X626.933560 Y559.977450 Z-1.000000 I-69.475378 J34.987397
G03 X629.846050 Y569.062156 Z-1.000000 I-79.958631 J30.643366
G03 X632.710910 Y582.182530 Z-1.000000 I-164.445152 J42.779887
G03 X634.201661 Y594.283145 Z-1.000000 I-113.580816 J20.134873
G03 X634.878880 Y613.223550 Z-1.000000 I-278.364131 J19.435288
G03 X634.481005 Y643.814211 Z-1.000000 I-1035.333583 J1.831920
G03 X633.392550 Y666.686440 Z-1.000000 I-578.874076 J-16.085723
G03 X630.204294 Y694.898065 Z-1.000000 I-313.388020 J-21.130678
G03 X624.957000 Y719.717690 Z-1.000000 I-247.645957 J-39.392105
G03 X618.894205 Y740.187722 Z-1.000000 I-355.923862 J-94.284340
G03 X614.492160 Y751.621980 Z-1.000000 I-115.191706 J-37.782861
G02 X613.270050 Y754.434319 Z-1.000000 I172.627586 J76.687532
G02 X610.828090 Y760.245030 Z-1.000000 I729.557802 J310.016206
G03 X606.685447 Y769.323078 Z-1.000000 I-134.538905 J-55.910748
G03 X602.636690 Y776.680580 Z-1.000000 I-92.354709 J-46.029091
G02 X600.342893 Y780.550398 Z-1.000000 I221.175879 J133.714596
G02 X600.304660 Y780.692300 Z-1.000000 I0.244221 J0.141902
G03 X600.142876 Y781.268754 Z-1.000000 I-1.107872 J0.000000
G03 X590.443330 Y796.879800 Z-1.000000 I-899.823415 J-548.264674
G03 X581.628270 Y809.918698 Z-1.000000 I-223.098103 J-141.328203
G03 X579.253880 Y812.413000 Z-1.000000 I-10.267354 J-7.396487
G02 X579.014488 Y812.657409 Z-1.000000 I0.875077 J1.096558
G02 X577.935520 Y814.137610 Z-1.000000 I31.754580 J24.280321
G03 X576.863199 Y815.627743 Z-1.000000 I-44.862815 J-31.153051
G03 X576.167940 Y816.508700 Z-1.000000 I-16.332300 J-12.174749
G02 X575.457073 Y817.378344 Z-1.000000 I41.450725 J34.608113
G02 X572.027310 Y821.682530 Z-1.000000 I1042.731054 J834.412258
G03 X563.433819 Y831.082273 Z-1.000000 I-71.455177 J-56.698126
G03 X553.664030 Y839.145420 Z-1.000000 I-62.120710 J-65.318746
G02 X549.799342 Y841.909847 Z-1.000000 I1096.473839 J1536.961621
G02 X546.142550 Y844.539950 Z-1.000000 I980.248731 J1366.756554
G03 X526.222608 Y857.867798 Z-1.000000 I-199.212032 J-276.194200
G03 X509.628880 Y867.151281 Z-1.000000 I-112.789425 J-182.133106
G03 X496.711074 Y872.284840 Z-1.000000 I-35.746144 J-71.130030
G03 X482.845670 Y875.168859 Z-1.000000 I-23.704098 J-79.189275
G02 X481.272388 Y875.826420 Z-1.000000 I0.371620 J3.100038
G02 X480.812470 Y876.788000 Z-1.000000 I0.759803 J0.954187
G02 X480.882988 Y878.158412 Z-1.000000 I15.319925 J-0.101303
G02 X481.216770 Y880.965734 Z-1.000000 I63.585230 J-6.136590
G03 X481.554364 Y883.774647 Z-1.000000 I-67.175103 J9.498290
G03 X482.072240 Y889.588781 Z-1.000000 I-292.682843 J28.999967
G02 X482.688886 Y895.382325 Z-1.000000 I107.094192 J-8.469168
G02 X483.167940 Y897.780188 Z-1.000000 I18.938512 J-2.536822
G03 X483.186343 Y901.570161 Z-1.000000 I-7.220085 J1.930091
G03 X481.290990 Y905.088781 Z-1.000000 I-8.056886 J-2.070165
G01 X479.281250 Y907.305828 Z-1.000000
G00 Z5.000000

(End cutting path id: path1)


(Start cutting path id: path1)
(Change tool to Default tool)

G00 Z5.000000
G00 X479.281250 Y907.305828

G01 Z-2.000000 F100.0(Penetrate)
G01 X474.996090 Y904.610516 Z-2.000000 F400.000000
G03 X470.296402 Y901.305355 Z-2.000000 I29.710563 J-47.240055
G03 X464.898440 Y896.702312 Z-2.000000 I52.511639 J-67.046686
G02 X459.045485 Y891.513723 Z-2.000000 I-118.507174 J127.785763
G02 X457.160160 Y890.145672 Z-2.000000 I-10.029196 J11.838223
G03 X455.732046 Y889.125193 Z-2.000000 I6.794461 J-11.018074
G03 X454.367190 Y887.848797 Z-2.000000 I9.333051 J-11.347791
G02 X453.022011 Y886.537804 Z-2.000000 I-15.900866 J14.969878
G02 X449.964840 Y883.913250 Z-2.000000 I-66.783251 J74.698608
G03 X446.925635 Y881.269867 Z-2.000000 I48.231143 J-58.522148
G03 X444.083980 Y878.516766 Z-2.000000 I49.256842 J-53.684276
G02 X441.186560 Y876.141213 Z-2.000000 I-12.205390 J11.931957
G02 X440.169920 Y875.971844 Z-2.000000 I-0.702264 J1.079468
G03 X430.996861 Y877.033771 Z-2.000000 I-8.605353 J-34.184130
G03 X417.828120 Y875.612469 Z-2.000000 I1.168438 J-72.542476
G02 X414.868173 Y875.172359 Z-2.000000 I-5.764419 J28.594884
G02 X414.525390 Y875.292156 Z-2.000000 I-0.041645 J0.431152
G02 X414.282232 Y875.614507 Z-2.000000 I0.904685 J0.935315
G02 X412.255860 Y879.542156 Z-2.000000 I137.460971 J73.406078
G03 X407.828928 Y884.867355 Z-2.000000 I-13.512535 J-6.730516
G03 X396.400390 Y891.491375 Z-2.000000 I-33.058388 J-43.865278
G02 X391.773943 Y893.497375 Z-2.000000 I226.879930 J529.592378
G02 X386.097660 Y896.012859 Z-2.000000 I342.188710 J779.823451
G03 X376.706291 Y899.802773 Z-2.000000 I-55.573908 J-124.180764
G03 X371.599610 Y901.245281 Z-2.000000 I-12.689643 J-35.162689
G03 X367.077711 Y901.862218 Z-2.000000 I-6.745900 J-32.564414
G03 X360.531250 Y901.987469 Z-2.000000 I-4.582523 J-68.369711
G03 X354.074893 Y901.456719 Z-2.000000 I1.740704 J-60.709815
G03 X352.792970 Y900.932781 Z-2.000000 I0.373907 J-2.745056
G03 X352.122248 Y898.836346 Z-2.000000 I1.131239 J-1.517433
G03 X354.947270 Y894.227703 Z-2.000000 I10.869174 J3.492456
G03 X364.668434 Y885.161989 Z-2.000000 I149.416146 J150.474052
G03 X373.552730 Y877.936688 Z-2.000000 I103.650851 J118.375279
G02 X385.106291 Y868.344985 Z-2.000000 I-97.278387 J-128.929610
G02 X385.804690 Y866.762859 Z-2.000000 I-1.442843 J-1.582126
G02 X385.675775 Y866.569516 Z-2.000000 I-0.209443 J0.000000
G02 X382.759770 Y865.493328 Z-2.000000 I-14.542933 J34.916436
G03 X374.352900 Y862.084995 Z-2.000000 I19.190617 J-59.407088
G03 X356.144530 Y852.378094 Z-2.000000 I143.053193 J-290.272836
G03 X345.665348 Y846.098737 Z-2.000000 I167.403895 J-291.252385
G03 X340.455080 Y842.583170 Z-2.000000 I46.835223 J-75.031169
G03 X327.101184 Y831.954040 Z-2.000000 I116.371993 J-159.906978
G03 X315.091800 Y820.542160 Z-2.000000 I122.255916 J-140.682019
G03 X300.088360 Y803.441312 Z-2.000000 I177.097712 J-170.508851
G03 X297.177730 Y798.110520 Z-2.000000 I13.698861 J-10.939627
G02 X296.520877 Y796.779471 Z-2.000000 I-5.312030 J1.793812
G02 X294.914060 Y794.737470 Z-2.000000 I-14.298759 J9.598266
G03 X291.249877 Y789.324737 Z-2.000000 I16.431924 J-15.070304
G03 X287.144530 Y778.569500 Z-2.000000 I62.320298 J-29.949220
G02 X285.265238 Y772.105041 Z-2.000000 I-1996.345306 J576.854793
G02 X283.757810 Y766.989420 Z-2.000000 I-1262.008849 J369.098337
G03 X278.385272 Y744.288054 Z-2.000000 I199.046833 J-59.093132
G03 X270.429690 Y692.124190 Z-2.000000 I1046.050148 J-186.223119
G03 X268.039598 Y657.120434 Z-2.000000 I298.481765 J-37.964114
G03 X269.722660 Y620.339030 Z-2.000000 I331.473903 J-3.261460
G03 X273.273001 Y596.776957 Z-2.000000 I245.688963 J24.971977
G03 X279.402340 Y572.049970 Z-2.000000 I276.618256 J55.445116
G03 X286.089956 Y552.789359 Z-2.000000 I212.344189 J62.938231
G03 X291.121090 Y542.731610 Z-2.000000 I62.537790 J24.995719
G03 X296.855428 Y534.091270 Z-2.000000 I114.996993 J70.097085
G03 X297.253910 Y534.219890 Z-2.000000 I0.178483 J0.128620
G03 X297.154410 Y534.606077 Z-2.000000 I-0.799198 J-0.000000
G03 X296.457030 Y535.667160 Z-2.000000 I-7.214758 J-3.982071
G02 X292.658316 Y541.513368 Z-2.000000 I33.517004 J25.935739
G02 X287.662110 Y552.001140 Z-2.000000 I103.802398 J55.883730
G02 X279.333972 Y576.949219 Z-2.000000 I166.180679 J69.338319
G02 X272.363280 Y612.145670 Z-2.000000 I324.716277 J82.598884
G02 X270.667447 Y626.742191 Z-2.000000 I276.685012 J39.542212
G02 X269.503910 Y644.051920 Z-2.000000 I388.274971 J34.793297
G02 X269.430688 Y662.926301 Z-2.000000 I230.099293 J10.329987
G02 X271.039060 Y685.415200 Z-2.000000 I328.576133 J-12.197302
G02 X274.851073 Y716.789493 Z-2.000000 I1032.541824 J-109.536315
G02 X277.451170 Y732.219890 Z-2.000000 I251.645652 J-34.469247
G03 X278.381099 Y737.117794 Z-2.000000 I-241.631844 J48.414109
G03 X280.505860 Y749.251140 Z-2.000000 I-1459.170606 J261.778955
G02 X283.183975 Y762.196354 Z-2.000000 I187.270036 J-31.992928
G02 X286.275390 Y772.950360 Z-2.000000 I132.241702 J-32.193697
G03 X290.001956 Y784.652191 Z-2.000000 I-457.657181 J152.189822
G03 X290.611330 Y787.190590 Z-2.000000 I-20.834067 J6.343822
G02 X291.658574 Y789.530807 Z-2.000000 I5.200876 J-0.922956
G02 X298.755860 Y797.555830 Z-2.000000 I72.395885 J-56.875610
G02 X308.600579 Y806.809953 Z-2.000000 I141.079897 J-140.220014
G02 X317.664060 Y814.157390 Z-2.000000 I97.949946 J-111.562950
G03 X320.225481 Y816.088699 Z-2.000000 I-231.294514 J309.421244
G03 X320.886720 Y816.608560 Z-2.000000 I-15.855872 J20.848396
G02 X321.542343 Y817.136499 Z-2.000000 I60.292592 J-74.203408
G02 X322.400390 Y817.817550 Z-2.000000 I129.879039 J-162.751992
G03 X322.467359 Y818.000370 Z-2.000000 I-0.115145 J0.145855
G03 X322.351590 Y818.057780 Z-2.000000 I-0.080191 J-0.016277
G03 X316.174363 Y814.118583 Z-2.000000 I13.540576 J-28.046555
G03 X300.371120 Y800.079270 Z-2.000000 I164.101944 J-200.634130
G02 X298.118708 Y798.122599 Z-2.000000 I-19.961411 J20.703721
G02 X297.914090 Y798.159340 Z-2.000000 I-0.085876 J0.109887
G02 X298.084172 Y800.469401 Z-2.000000 I1.683475 J1.037344
G02 X317.457060 Y821.397620 Z-2.000000 I229.370977 J-192.894048
G02 X325.710800 Y829.200241 Z-2.000000 I208.724781 J-212.525679
G02 X330.568390 Y833.327310 Z-2.000000 I63.142571 J-69.397032
G03 X332.697158 Y835.053246 Z-2.000000 I-77.511276 J97.778073
G03 X333.285190 Y835.579270 Z-2.000000 I-6.708779 J8.091314
G02 X333.885074 Y836.090404 Z-2.000000 I4.441280 J-4.604845
G02 X336.724640 Y838.161300 Z-2.000000 I75.738233 J-100.868345
G03 X339.574427 Y840.214999 Z-2.000000 I-122.906469 J173.553495
G03 X339.808620 Y840.423020 Z-2.000000 I-0.991216 J1.351768
G02 X340.044044 Y840.629612 Z-2.000000 I1.151889 J-1.075212
G02 X342.603550 Y842.421060 Z-2.000000 I90.513107 J-126.595160
G02 X367.528808 Y857.291982 Z-2.000000 I130.886114 J-191.054976
G02 X385.210970 Y864.346844 Z-2.000000 I45.627243 J-88.672660
G01 X387.839870 Y865.114422 Z-2.000000
G01 X391.013700 Y862.432781 Z-2.000000
G03 X396.010632 Y858.617111 Z-2.000000 I40.915968 J48.403023
G03 X401.064480 Y855.520672 Z-2.000000 I31.803909 J46.236170
G02 X407.914365 Y851.492086 Z-2.000000 I-54.472606 J-100.458641
G02 X407.834010 Y851.215984 Z-2.000000 I-0.080355 J-0.126358
G03 X399.860256 Y850.569768 Z-2.000000 I0.000000 J-49.517770
G03 X385.160190 Y847.516766 Z-2.000000 I28.092717 J-172.181733
G03 X368.602341 Y842.455952 Z-2.000000 I43.522541 J-172.013185
G03 X352.884800 Y835.901530 Z-2.000000 I58.093411 J-161.430921
G02 X347.006094 Y833.186559 Z-2.000000 I-115.262564 J241.855137
G02 X346.640650 Y833.108560 Z-2.000000 I-0.365444 J0.817093
G03 X346.374462 Y832.991700 Z-2.000000 I-0.000000 J-0.361598
G03 X346.257840 Y832.692550 Z-2.000000 I0.325370 J-0.299150
G03 X346.486947 Y832.536104 Z-2.000000 I0.167968 J0.000000
G03 X353.349640 Y835.464030 Z-2.000000 I-44.221781 J113.156956
G02 X367.793542 Y841.275511 Z-2.000000 I63.653593 J-137.349922
G02 X386.582060 Y846.887859 Z-2.000000 I78.119742 J-227.266862
G02 X390.183761 Y847.641964 Z-2.000000 I10.549460 J-41.407394
G02 X399.908230 Y849.083172 Z-2.000000 I49.372680 J-299.611167
G03 X409.640121 Y850.480663 Z-2.000000 I-54.960854 J417.322442
G03 X412.240260 Y851.001141 Z-2.000000 I-4.712018 J30.294679
G02 X414.832616 Y851.439107 Z-2.000000 I4.271711 J-17.393457
G02 X416.753940 Y851.426922 Z-2.000000 I0.900091 J-9.557190
G03 X418.692650 Y851.284622 Z-2.000000 I3.104119 J29.013084
G03 X426.746120 Y851.026531 Z-2.000000 I20.330578 J508.616100
G02 X438.313302 Y849.818201 Z-2.000000 I-1.755843 J-72.778170
G02 X442.947300 Y848.010906 Z-2.000000 I-2.437657 J-13.094831
G03 X444.504236 Y847.092766 Z-2.000000 I17.867008 J28.518814
G03 X448.564480 Y844.897625 Z-2.000000 I108.272932 J195.414540
G02 X471.434004 Y831.635604 Z-2.000000 I-153.392694 J-290.865618
G02 X490.904330 Y818.014810 Z-2.000000 I-142.458556 J-224.364633
G03 X493.508552 Y816.067704 Z-2.000000 I75.396621 J98.126632
G03 X495.632840 Y814.575360 Z-2.000000 I46.391695 J63.778504
G02 X497.758598 Y813.089824 Z-2.000000 I-52.042436 J-76.734875
G02 X497.998080 Y812.872230 Z-2.000000 I-0.833663 J-1.158107
G03 X498.237671 Y812.655269 Z-2.000000 I1.056489 J0.925916
G03 X500.146510 Y811.337080 Z-2.000000 I41.629598 J58.241675
G02 X502.062708 Y810.020857 Z-2.000000 I-47.072242 J-70.582158
G02 X505.126980 Y807.815590 Z-2.000000 I-132.442914 J-187.264223
G03 X508.204824 Y805.630103 Z-2.000000 I76.464795 J104.426161
G03 X514.154330 Y801.600750 Z-2.000000 I269.111035 J390.946488
G02 X530.391097 Y789.822308 Z-2.000000 I-139.581982 J-209.496488
G02 X532.890650 Y786.835120 Z-2.000000 I-5.876232 J-7.456338
G02 X533.618668 Y784.417643 Z-2.000000 I-5.671728 J-3.026389
G02 X534.537140 Y769.514810 Z-2.000000 I-223.171031 J-21.233900
G03 X535.049039 Y756.156674 Z-2.000000 I664.282147 J18.767182
G03 X535.570340 Y748.173020 Z-2.000000 I237.241151 J11.482056
G02 X536.538202 Y733.185019 Z-2.000000 I-426.235649 J-35.049753
G02 X537.303140 Y713.112270 Z-2.000000 I-1135.397831 J-53.319015
G02 X537.640216 Y692.078310 Z-2.000000 I-794.745216 J-23.255744
G02 X537.218780 Y691.842940 Z-2.000000 I-0.276014 J-0.000771
G03 X537.030900 Y691.750521 Z-2.000000 I-0.065051 J-0.104938
G03 X537.105500 Y690.727700 Z-2.000000 I2.940193 J-0.299686
G02 X538.179582 Y682.433956 Z-2.000000 I-34.322304 J-8.661335
G02 X537.347690 Y667.284340 Z-2.000000 I-116.355667 J-1.208352
G03 X535.939435 Y650.712281 Z-2.000000 I233.767688 J-28.210900
G03 X534.289090 Y605.464030 Z-2.000000 I1740.382160 J-86.131391
G03 X534.288594 Y594.043149 Z-2.000000 I243.768706 J-5.721036
G03 X534.939480 Y577.655440 Z-2.000000 I502.379375 J11.746705
G02 X536.114408 Y551.435836 Z-2.000000 I-1166.219912 J-65.395687
G02 X535.828150 Y551.139810 Z-2.000000 I-0.286258 J-0.009606
G03 X534.604886 Y550.773031 Z-2.000000 I0.000000 J-2.223278
G03 X519.705110 Y540.516770 Z-2.000000 I245.736452 J-372.944394
G02 X516.623609 Y538.350539 Z-2.000000 I-105.766129 J147.179281
G02 X503.156280 Y529.137860 Z-2.000000 I-1948.492844 J2833.906742
G02 X495.963951 Y524.725648 Z-2.000000 I-50.173275 J73.719051
G02 X479.513700 Y516.132000 Z-2.000000 I-207.852928 J377.837463
G03 X464.689211 Y508.775459 Z-2.000000 I4903.133616 J-9899.136590
G03 X455.871120 Y504.376140 Z-2.000000 I1591.061776 J-3200.195893
G02 X447.017109 Y500.131307 Z-2.000000 I-128.609663 J256.901821
G02 X446.199250 Y499.942550 Z-2.000000 I-0.867117 J1.890891
G02 X439.057707 Y501.204992 Z-2.000000 I-0.436103 J18.363814
G02 X403.806670 Y516.563640 Z-2.000000 I188.623622 J481.060575
G02 X390.532331 Y523.562879 Z-2.000000 I87.600086 J182.224383
G02 X375.480500 Y532.870280 Z-2.000000 I140.353315 J243.802428
G02 X372.085103 Y535.546128 Z-2.000000 I14.548934 J21.953357
G02 X368.824250 Y539.067550 Z-2.000000 I22.054630 J23.693183
G02 X364.072300 Y546.185824 Z-2.000000 I39.810570 J31.721630
G02 X359.343780 Y556.237470 Z-2.000000 I75.141461 J41.486257
G03 X355.221156 Y565.070942 Z-2.000000 I-73.548325 J-28.946598
G03 X343.466830 Y585.415200 Z-2.000000 I-403.907671 J-219.798429
G02 X339.522323 Y591.891890 Z-2.000000 I1330.777770 J814.924843
G02 X336.886750 Y596.278480 Z-2.000000 I611.675104 J370.494757
G03 X334.216995 Y600.642838 Z-2.000000 I-190.292933 J-113.406828
G03 X331.880890 Y604.251140 Z-2.000000 I-129.808551 J-81.480908
G02 X329.786884 Y607.916986 Z-2.000000 I25.248170 J16.853261
G02 X329.492220 Y609.206220 Z-2.000000 I2.673039 J1.289234
G03 X329.387374 Y610.572132 Z-2.000000 I-8.949826 J-0.000000
G03 X328.851590 Y613.354660 Z-2.000000 I-37.845168 J-5.844351
G02 X328.311329 Y616.144163 Z-2.000000 I38.539675 J8.911295
G02 X327.318390 Y623.135910 Z-2.000000 I243.737150 J38.180926
G01 X326.423860 Y630.145670 Z-2.000000
G01 X327.492220 Y631.278480 Z-2.000000
G03 X330.679285 Y635.614276 Z-2.000000 I-16.027347 J15.120280
G03 X336.318390 Y647.007000 Z-2.000000 I-106.973840 J60.041265
G02 X337.419915 Y648.972728 Z-2.000000 I10.061092 J-4.346393
G02 X339.634800 Y651.714030 Z-2.000000 I21.897470 J-15.427028
G03 X344.773131 Y657.840734 Z-2.000000 I-61.841068 J57.082787
G03 X347.834010 Y662.491380 Z-2.000000 I-32.478217 J24.708533
G03 X351.115196 Y668.912236 Z-2.000000 I-75.863639 J42.816639
G03 X351.418000 Y670.284340 Z-2.000000 I-3.008083 J1.383306
G02 X351.518341 Y670.754907 Z-2.000000 I1.171405 J-0.003801
G02 X352.220730 Y672.098800 Z-2.000000 I10.726079 J-4.750517
G02 X353.641378 Y673.238436 Z-2.000000 I2.278925 J-1.385569
G02 X367.468780 Y677.280440 Z-2.000000 I53.623999 J-157.771540
G03 X375.565097 Y679.396746 Z-2.000000 I-68.840500 J279.907058
G03 X375.568390 Y679.522620 Z-2.000000 I-0.017570 J0.063440
G03 X372.402134 Y679.701429 Z-2.000000 I-1.910960 J-5.715673
G03 X357.003940 Y675.569500 Z-2.000000 I31.739912 J-149.040780
G02 X353.874516 Y674.716583 Z-2.000000 I-10.365807 J31.865498
G02 X353.664090 Y674.831220 Z-2.000000 I-0.039397 J0.178129
G02 X353.661743 Y675.141010 Z-2.000000 I0.425957 J0.158131
G02 X355.689480 Y680.551920 Z-2.000000 I149.365916 J-52.889428
G03 X357.698409 Y686.006604 Z-2.000000 I-113.049019 J44.732588
G03 X359.580110 Y691.952310 Z-2.000000 I-131.380018 J44.849851
G02 X361.385693 Y697.926181 Z-2.000000 I316.211700 J-92.314176
G02 X364.959010 Y709.153480 Z-2.000000 I1093.159135 J-341.737868
G03 X370.849446 Y730.090686 Z-2.000000 I-265.152320 J85.894683
G03 X372.656280 Y741.274580 Z-2.000000 I-73.467798 J17.607122
G03 X372.655331 Y742.160936 Z-2.000000 I-5.129424 J0.437689
G01 X372.569155 Y742.170557 Z-2.000000
G03 X372.363569 Y741.419091 Z-2.000000 I8.715078 J-2.788127
G03 X371.621120 Y738.040200 Z-2.000000 I206.490496 J-47.143478
G02 X367.941552 Y723.150568 Z-2.000000 I-219.813996 J46.421588
G02 X363.677760 Y710.032390 Z-2.000000 I-175.349128 J49.741585
G03 X361.075330 Y702.586505 Z-2.000000 I233.329953 J-85.729465
G03 X359.634800 Y697.848800 Z-2.000000 I93.260690 J-30.944378
G02 X357.646044 Y691.216431 Z-2.000000 I-156.307384 J43.255368
G02 X353.392610 Y678.542160 Z-2.000000 I-572.382048 J185.038229
G02 X351.634089 Y674.454360 Z-2.000000 I-29.472760 J10.256671
G02 X350.896510 Y673.717940 Z-2.000000 I-1.523959 J0.788778
G02 X346.558894 Y672.036191 Z-2.000000 I-10.059160 J19.510151
G02 X345.697300 Y672.313640 Z-2.000000 I-0.216840 J0.803150
G02 X345.626663 Y672.532557 Z-2.000000 I0.245156 J0.199958
G02 X345.890650 Y675.524580 Z-2.000000 I53.469949 J-3.210013
G03 X346.833362 Y688.737563 Z-2.000000 I-146.832423 J17.116237
G03 X346.275420 Y690.104660 Z-2.000000 I-1.835069 J0.048471
G03 X346.026191 Y690.024652 Z-2.000000 I-0.103239 J-0.106589
G03 X345.935580 Y688.243330 Z-2.000000 I6.805876 J-1.239160
G02 X345.898099 Y681.104661 Z-2.000000 I-42.570797 J-3.345916
G02 X344.578150 Y673.012860 Z-2.000000 I-56.166798 J5.008468
G02 X344.004537 Y671.480103 Z-2.000000 I-6.453017 J1.541240
G02 X343.394560 Y670.749190 Z-2.000000 I-1.989035 J1.039950
G03 X343.245737 Y670.483083 Z-2.000000 I0.240954 J-0.309425
G03 X343.355460 Y670.395670 Z-2.000000 I0.082387 J-0.009156
G02 X343.903852 Y670.371321 Z-2.000000 I0.243752 J-0.697830
G02 X344.107410 Y670.055830 Z-2.000000 I-0.142708 J-0.315491
G02 X343.699815 Y667.500349 Z-2.000000 I-8.214787 J-0.000000
G02 X340.900380 Y660.257000 Z-2.000000 I-70.363086 J23.031528
G02 X335.346989 Y648.143581 Z-2.000000 I-707.948475 J317.228955
G02 X332.896470 Y643.188640 Z-2.000000 I-120.090833 J56.308765
G02 X331.998463 Y641.464435 Z-2.000000 I-19945.390056 J10386.433664
G02 X329.644520 Y636.946450 Z-2.000000 I-20982.293704 J10929.454092
G02 X326.647834 Y631.944858 Z-2.000000 I-43.574353 J22.708894
G02 X326.201160 Y631.903480 Z-2.000000 I-0.240466 J0.164214
G02 X326.148081 Y632.014993 Z-2.000000 I0.130999 J0.130742
G02 X325.425770 Y639.317550 Z-2.000000 I664.203867 J69.384814
G03 X324.715227 Y646.635233 Z-2.000000 I-988.909690 J-92.329216
G03 X324.339830 Y650.087080 Z-2.000000 I-220.616446 J-22.246270
G02 X324.040395 Y653.544249 Z-2.000000 I57.918340 J6.758015
G02 X323.441400 Y665.952310 Z-2.000000 I738.225588 J41.856101
G02 X323.306748 Y694.568540 Z-2.000000 I407.037058 J16.223720
G02 X324.539050 Y702.040200 Z-2.000000 I28.532400 J-0.868400
G03 X324.965257 Y704.010497 Z-2.000000 I-11.559024 J3.531650
G03 X325.410150 Y708.723800 Z-2.000000 I-66.262581 J8.632233
G02 X325.786705 Y713.456147 Z-2.000000 I114.376331 J-6.719817
G02 X326.318350 Y717.774580 Z-2.000000 I96.762122 J-9.720507
G03 X326.901283 Y722.088617 Z-2.000000 I-204.050693 J29.768694
G03 X327.580070 Y727.905440 Z-2.000000 I-382.978580 J47.639231
G02 X330.385865 Y744.041624 Z-2.000000 I128.132571 J-13.967940
G02 X335.490220 Y760.842940 Z-2.000000 I144.273014 J-34.655106
G02 X339.165803 Y769.062351 Z-2.000000 I63.681322 J-23.545688
G02 X341.882800 Y772.917160 Z-2.000000 I16.441534 J-8.703617
G03 X344.287686 Y775.614623 Z-2.000000 I-103.002672 J94.251385
G03 X346.429680 Y778.153480 Z-2.000000 I-87.316736 J75.840763
G02 X353.628329 Y786.024612 Z-2.000000 I75.938523 J-62.223213
G02 X384.730460 Y815.714030 Z-2.000000 I1116.826999 J-1138.833297
G03 X408.328952 Y838.665329 Z-2.000000 I-491.184134 J528.642424
G03 X417.195300 Y848.760906 Z-2.000000 I-85.891725 J84.374803
G03 X417.961465 Y849.958669 Z-2.000000 I-5.851962 J4.587212
G03 X417.925770 Y850.186688 Z-2.000000 I-0.174675 J0.089459
G03 X417.693932 Y850.210808 Z-2.000000 I-0.130735 J-0.130352
G03 X412.826160 Y846.850750 Z-2.000000 I65.774171 J-100.494190
G02 X407.941748 Y843.300562 Z-2.000000 I-6448.420068 J8867.066201
G03 X403.427720 Y840.020670 Z-2.000000 I13914.260421 J-19156.345801
G02 X398.871740 Y836.801423 Z-2.000000 I-122.993177 J169.230317
G02 X388.394520 Y829.698410 Z-2.000000 I-593.720361 J864.481938
G03 X372.828170 Y818.876588 Z-2.000000 I296.746495 J-443.453188
G03 X363.343740 Y811.614420 Z-2.000000 I123.975971 J-171.737712
G03 X334.038640 Y785.714194 Z-2.000000 I292.567884 J-360.558105
G03 X325.259760 Y774.985520 Z-2.000000 I40.441504 J-42.047853
G03 X323.350359 Y771.178576 Z-2.000000 I17.680301 J-11.249994
G03 X320.888660 Y763.477700 Z-2.000000 I70.400457 J-26.748447
G03 X320.272127 Y759.987238 Z-2.000000 I21.226225 J-5.548945
G03 X319.689440 Y750.758950 Z-2.000000 I148.958444 J-14.037989
G03 X319.373863 Y726.513678 Z-2.000000 I633.225553 J-20.366758
G03 X319.935540 Y710.663250 Z-2.000000 I270.694568 J1.657181
G02 X321.079724 Y690.162181 Z-2.000000 I-1142.397931 J-74.040766
G02 X321.775380 Y671.364420 Z-2.000000 I-959.229466 J-44.910331
G03 X322.348686 Y655.141246 Z-2.000000 I998.301277 J27.156940
G03 X322.626940 Y651.747230 Z-2.000000 I44.368741 J1.929104
G02 X323.029005 Y648.362009 Z-2.000000 I-873.234062 J-105.431146
G02 X324.105460 Y639.092940 Z-2.000000 I-6990.362003 J-816.516657
G03 X325.839675 Y624.969450 Z-2.000000 I978.315305 J112.958536
G03 X327.134760 Y615.811690 Z-2.000000 I413.684373 J53.832548
G02 X327.759512 Y610.994896 Z-2.000000 I-106.282853 J-16.234114
G02 X330.773430 Y581.751140 Z-2.000000 I-3957.220922 J-422.615961
G03 X332.820477 Y566.087844 Z-2.000000 I253.993114 J25.229126
G03 X338.353510 Y535.049970 Z-2.000000 I1003.210195 J162.827289
G02 X340.571803 Y523.076006 Z-2.000000 I-683.765430 J-132.866652
G02 X340.517570 Y522.762860 Z-2.000000 I-0.461533 J-0.081337
G03 X340.514217 Y522.489464 Z-2.000000 I0.245496 J-0.139729
G03 X341.082020 Y521.714030 Z-2.000000 I3.052830 J1.639800
G03 X341.403915 Y521.804974 Z-2.000000 I0.136352 J0.132527
