%
(Header)
(Generated by gcodetools from Inkscape.)
(Using default header. To add your own header create file "header" in the output dir.)
M3
(Header end.)
G21 (All units in mm)

(Start cutting path id: path1)
(Change tool to Default tool)

G00 Z5.000000
G00 X128.470700 Y184.134766

G01 Z-1.000000 F100.0(Penetrate)
G03 X127.943933 Y183.985826 Z-1.000000 I0.205973 J-1.734481 F400.000000
G03 X127.015620 Y183.500000 Z-1.000000 I4.464646 J-9.660831
G03 X125.216688 Y181.345538 Z-1.000000 I2.110440 J-3.590441
G03 X124.132810 Y175.654297 Z-1.000000 I16.672281 J-6.124013
G01 X124.011720 Y170.732422 Z-1.000000
G01 X124.314450 Y175.404297 Z-1.000000
G02 X125.583292 Y181.084999 Z-1.000000 I18.805104 J-1.218254
G02 X127.324220 Y183.056641 Z-1.000000 I3.583586 J-1.409821
G02 X128.640288 Y183.392817 Z-1.000000 I1.319547 J-2.421618
G02 X130.355470 Y183.060541 Z-1.000000 I0.005757 J-4.563241
G02 X135.243243 Y179.780664 Z-1.000000 I-5.362925 J-13.273890
G02 X144.888670 Y168.152338 Z-1.000000 I-67.461708 J-65.772413
G02 X150.901239 Y159.010357 Z-1.000000 I-147.132827 J-103.315639
G02 X153.173830 Y154.681635 Z-1.000000 I-30.701823 J-18.879464
G03 X154.323143 Y153.175714 Z-1.000000 I3.701299 J1.633281
G03 X155.849610 Y152.505853 Z-1.000000 I1.977890 J2.433005
G02 X163.625343 Y150.867675 Z-1.000000 I-9.061426 J-62.283878
G02 X166.250000 Y149.619134 Z-1.000000 I-2.255770 J-8.125051
G02 X166.348792 Y149.384978 Z-1.000000 I-0.139721 J-0.196867
G02 X166.130860 Y148.855464 Z-1.000000 I-1.213042 J0.189647
G03 X166.313055 Y148.647065 Z-1.000000 I0.115120 J-0.083198
G03 X167.388670 Y149.529294 Z-1.000000 I-1.694192 J3.162371
G02 X168.472130 Y150.698226 Z-1.000000 I10.482999 J-8.629896
G02 X172.380860 Y154.316400 Z-1.000000 I103.645259 J-108.048069
G03 X176.337163 Y157.889840 Z-1.000000 I-318.758192 J356.887219
G03 X178.312500 Y159.736322 Z-1.000000 I-79.083685 J86.582277
G02 X187.037936 Y165.482162 Z-1.000000 I20.071523 J-20.981932
G02 X196.242190 Y167.347650 Z-1.000000 I9.168687 J-21.598510
G02 X200.382212 Y166.839879 Z-1.000000 I-0.026233 J-17.345232
G02 X203.558590 Y165.537103 Z-1.000000 I-2.821590 J-11.403146
G03 X204.301079 Y165.238774 Z-1.000000 I1.333274 J2.245162
G03 X204.382810 Y165.345697 Z-1.000000 I0.016707 J0.071928
G03 X204.069824 Y165.709891 Z-1.000000 I-0.985588 J-0.530422
G03 X202.355470 Y166.869135 Z-1.000000 I-12.416738 J-16.515296
G03 X200.460874 Y167.578839 Z-1.000000 I-2.832476 J-4.677737
G03 X196.242190 Y167.933588 Z-1.000000 I-4.109096 J-23.603777
G03 X191.986069 Y167.564023 Z-1.000000 I0.119253 J-26.066097
G03 X188.634770 Y166.638666 Z-1.000000 I2.901027 J-17.037708
G03 X185.412972 Y165.235503 Z-1.000000 I15.664527 J-40.367631
G03 X182.927730 Y163.871088 Z-1.000000 I12.190359 J-25.149988
G03 X176.977563 Y159.584288 Z-1.000000 I26.952719 J-43.683807
G03 X169.197270 Y152.406244 Z-1.000000 I68.789126 J-82.366199
G01 X166.798830 Y149.964834 Z-1.000000
G01 X164.833980 Y150.847650 Z-1.000000
G03 X160.692244 Y152.364598 Z-1.000000 I-12.774916 J-28.466875
G03 X156.423830 Y153.269525 Z-1.000000 I-8.457531 J-29.373781
G01 X154.470700 Y153.539056 Z-1.000000
G01 X152.349610 Y157.371088 Z-1.000000
G03 X145.602191 Y168.195019 Z-1.000000 I-107.878391 J-59.734134
G03 X138.298830 Y177.511713 Z-1.000000 I-87.238796 J-60.865632
G03 X133.584408 Y181.898316 Z-1.000000 I-24.024217 J-21.092920
G03 X129.935550 Y183.847650 Z-1.000000 I-7.947563 J-10.486912
G03 X129.012986 Y184.107913 Z-1.000000 I-2.708621 J-7.836099
G03 X128.470700 Y184.134760 Z-1.000000 I-0.350458 J-1.588657
G01 X128.470700 Y184.134766 Z-1.000000
G00 Z5.000000

(End cutting path id: path1)


(Start cutting path id: path1)
(Change tool to Default tool)

G00 Z5.000000
G00 X128.470700 Y184.134766

G01 Z-2.000000 F100.0(Penetrate)
G03 X127.943933 Y183.985826 Z-2.000000 I0.205973 J-1.734481 F400.000000
G03 X127.015620 Y183.500000 Z-2.000000 I4.464646 J-9.660831
G03 X125.216688 Y181.345538 Z-2.000000 I2.110440 J-3.590441
G03 X124.132810 Y175.654297 Z-2.000000 I16.672281 J-6.124013
G01 X124.011720 Y170.732422 Z-2.000000
G01 X124.314450 Y175.404297 Z-2.000000
G02 X125.583292 Y181.084999 Z-2.000000 I18.805104 J-1.218254
G02 X127.324220 Y183.056641 Z-2.000000 I3.583586 J-1.409821
G02 X128.640288 Y183.392817 Z-2.000000 I1.319547 J-2.421618
G02 X130.355470 Y183.060541 Z-2.000000 I0.005757 J-4.563241
G02 X135.243243 Y179.780664 Z-2.000000 I-5.362925 J-13.273890
G02 X144.888670 Y168.152338 Z-2.000000 I-67.461708 J-65.772413
G02 X150.901239 Y159.010357 Z-2.000000 I-147.132827 J-103.315639
G02 X153.173830 Y154.681635 Z-2.000000 I-30.701823 J-18.879464
G03 X154.323143 Y153.175714 Z-2.000000 I3.701299 J1.633281
G03 X155.849610 Y152.505853 Z-2.000000 I1.977890 J2.433005
G02 X163.625343 Y150.867675 Z-2.000000 I-9.061426 J-62.283878
G02 X166.250000 Y149.619134 Z-2.000000 I-2.255770 J-8.125051
G02 X166.348792 Y149.384978 Z-2.000000 I-0.139721 J-0.196867
G02 X166.130860 Y148.855464 Z-2.000000 I-1.213042 J0.189647
G03 X166.313055 Y148.647065 Z-2.000000 I0.115120 J-0.083198
G03 X167.388670 Y149.529294 Z-2.000000 I-1.694192 J3.162371
G02 X168.472130 Y150.698226 Z-2.000000 I10.482999 J-8.629896
G02 X172.380860 Y154.316400 Z-2.000000 I103.645259 J-108.048069
G03 X176.337163 Y157.889840 Z-2.000000 I-318.758192 J356.887219
G03 X178.312500 Y159.736322 Z-2.000000 I-79.083685 J86.582277
G02 X187.037936 Y165.482162 Z-2.000000 I20.071523 J-20.981932
G02 X196.242190 Y167.347650 Z-2.000000 I9.168687 J-21.598510
G02 X200.382212 Y166.839879 Z-2.000000 I-0.026233 J-17.345232
G02 X203.558590 Y165.537103 Z-2.000000 I-2.821590 J-11.403146
G03 X204.301079 Y165.238774 Z-2.000000 I1.333274 J2.245162
G03 X204.382810 Y165.345697 Z-2.000000 I0.016707 J0.071928
G03 X204.069824 Y165.709891 Z-2.000000 I-0.985588 J-0.530422
G03 X202.355470 Y166.869135 Z-2.000000 I-12.416738 J-16.515296
G03 X200.460874 Y167.578839 Z-2.000000 I-2.832476 J-4.677737
G03 X196.242190 Y167.933588 Z-2.000000 I-4.109096 J-23.603777
G03 X191.986069 Y167.564023 Z-2.000000 I0.119253 J-26.066097
G03 X188.634770 Y166.638666 Z-2.000000 I2.901027 J-17.037708
G03 X185.412972 Y165.235503 Z-2.000000 I15.664527 J-40.367631
G03 X182.927730 Y163.871088 Z-2.000000 I12.190359 J-25.149988
G03 X176.977563 Y159.584288 Z-2.000000 I26.952719 J-43.683807
G03 X169.197270 Y152.406244 Z-2.000000 I68.789126 J-82.366199
G01 X166.798830 Y149.964834 Z-2.000000
G01 X164.833980 Y150.847650 Z-2.000000
G03 X160.692244 Y152.364598 Z-2.000000 I-12.774916 J-28.466875
G03 X156.423830 Y153.269525 Z-2.000000 I-8.457531 J-29.373781
G01 X154.470700 Y153.539056 Z-2.000000
G01 X152.349610 Y157.371088 Z-2.000000
G03 X145.602191 Y168.195019 Z-2.000000 I-107.878391 J-59.734134
G03 X138.298830 Y177.511713 Z-2.000000 I-87.238796 J-60.865632
G03 X133.584408 Y181.898316 Z-2.000000 I-24.024217 J-21.092920
G03 X129.935550 Y183.847650 Z-2.000000 I-7.947563 J-10.486912
G03 X129.012986 Y184.107913 Z-2.000000 I-2.708621 J-7.836099
G03 X128.470700 Y184.134760 Z-2.000000 I-0.350458 J-1.588657
G01 X128.470700 Y184.134766 Z-2.000000
G00 Z5.000000

(End cutting path id: path1)


(Start cutting path id: path1)
(Change tool to Default tool)

G00 Z5.000000
G00 X128.470700 Y184.134766

G01 Z-3.000000 F100.0(Penetrate)
G03 X127.943933 Y183.985826 Z-3.000000 I0.205973 J-1.734481 F400.000000
G03 X127.015620 Y183.500000 Z-3.000000 I4.464646 J-9.660831
G03 X125.216688 Y181.345538 Z-3.000000 I2.110440 J-3.590441
G03 X124.132810 Y175.654297 Z-3.000000 I16.672281 J-6.124013
G01 X124.011720 Y170.732422 Z-3.000000
G01 X124.314450 Y175.404297 Z-3.000000
G02 X125.583292 Y181.084999 Z-3.000000 I18.805104 J-1.218254
G02 X127.324220 Y183.056641 Z-3.000000 I3.583586 J-1.409821
G02 X128.640288 Y183.392817 Z-3.000000 I1.319547 J-2.421618
G02 X130.355470 Y183.060541 Z-3.000000 I0.005757 J-4.563241
G02 X135.243243 Y179.780664 Z-3.000000 I-5.362925 J-13.273890
G02 X144.888670 Y168.152338 Z-3.000000 I-67.461708 J-65.772413
G02 X150.901239 Y159.010357 Z-3.000000 I-147.132827 J-103.315639
G02 X153.173830 Y154.681635 Z-3.000000 I-30.701823 J-18.879464
G03 X154.323143 Y153.175714 Z-3.000000 I3.701299 J1.633281
G03 X155.849610 Y152.505853 Z-3.000000 I1.977890 J2.433005
G02 X163.625343 Y150.867675 Z-3.000000 I-9.061426 J-62.283878
G02 X166.250000 Y149.619134 Z-3.000000 I-2.255770 J-8.125051
G02 X166.348792 Y149.384978 Z-3.000000 I-0.139721 J-0.196867
G02 X166.130860 Y148.855464 Z-3.000000 I-1.213042 J0.189647
G03 X166.313055 Y148.647065 Z-3.000000 I0.115120 J-0.083198
G03 X167.388670 Y149.529294 Z-3.000000 I-1.694192 J3.162371
G02 X168.472130 Y150.698226 Z-3.000000 I10.482999 J-8.629896
G02 X172.380860 Y154.316400 Z-3.000000 I103.645259 J-108.048069
G03 X176.337163 Y157.889840 Z-3.000000 I-318.758192 J356.887219
G03 X178.312500 Y159.736322 Z-3.000000 I-79.083685 J86.582277
G02 X187.037936 Y165.482162 Z-3.000000 I20.071523 J-20.981932
G02 X196.242190 Y167.347650 Z-3.000000 I9.168687 J-21.598510
G02 X200.382212 Y166.839879 Z-3.000000 I-0.026233 J-17.345232
G02 X203.558590 Y165.537103 Z-3.000000 I-2.821590 J-11.403146
G03 X204.301079 Y165.238774 Z-3.000000 I1.333274 J2.245162
G03 X204.382810 Y165.345697 Z-3.000000 I0.016707 J0.071928
G03 X204.069824 Y165.709891 Z-3.000000 I-0.985588 J-0.530422
G03 X202.355470 Y166.869135 Z-3.000000 I-12.416738 J-16.515296
G03 X200.460874 Y167.578839 Z-3.000000 I-2.832476 J-4.677737
G03 X196.242190 Y167.933588 Z-3.000000 I-4.109096 J-23.603777
G03 X191.986069 Y167.564023 Z-3.000000 I0.119253 J-26.066097
G03 X188.634770 Y166.638666 Z-3.000000 I2.901027 J-17.037708
G03 X185.412972 Y165.235503 Z-3.000000 I15.664527 J-40.367631
G03 X182.927730 Y163.871088 Z-3.000000 I12.190359 J-25.149988
G03 X176.977563 Y159.584288 Z-3.000000 I26.952719 J-43.683807
G03 X169.197270 Y152.406244 Z-3.000000 I68.789126 J-82.366199
G01 X166.798830 Y149.964834 Z-3.000000
G01 X164.833980 Y150.847650 Z-3.000000
G03 X160.692244 Y152.364598 Z-3.000000 I-12.774916 J-28.466875
G03 X156.423830 Y153.269525 Z-3.000000 I-8.457531 J-29.373781
G01 X154.470700 Y153.539056 Z-3.000000
G01 X152.349610 Y157.371088 Z-3.000000
G03 X145.602191 Y168.195019 Z-3.000000 I-107.878391 J-59.734134
G03 X138.298830 Y177.511713 Z-3.000000 I-87.238796 J-60.865632
G03 X133.584408 Y181.898316 Z-3.000000 I-24.024217 J-21.092920
G03 X129.935550 Y183.847650 Z-3.000000 I-7.947563 J-10.486912
G03 X129.012986 Y184.107913 Z-3.000000 I-2.708621 J-7.836099
G03 X128.470700 Y184.134760 Z-3.000000 I-0.350458 J-1.588657
G01 X128.470700 Y184.134766 Z-3.000000
G00 Z5.000000

(End cutting path id: path1)


(Start cutting path id: path1)
(Change tool to Default tool)

G00 Z5.000000
G00 X130.837890 Y172.851562

G01 Z-1.000000 F100.0(Penetrate)
G03 X130.626934 Y172.799458 Z-1.000000 I-0.066812 J-0.182602 F400.000000
G03 X130.537110 Y172.566406 Z-1.000000 I0.257422 J-0.233052
G03 X130.659199 Y172.306342 Z-1.000000 I0.338027 J0.000000
G03 X131.201170 Y172.015625 Z-1.000000 I0.985813 J1.187262
G02 X134.041842 Y169.599414 Z-1.000000 I-1.335902 J-4.448539
G02 X140.037110 Y153.855469 Z-1.000000 I-85.190703 J-41.453942
G03 X141.417182 Y149.333427 Z-1.000000 I106.361462 J29.988607
G03 X141.722660 Y148.730470 Z-1.000000 I2.129606 J0.700068
G03 X142.021733 Y148.605607 Z-1.000000 I0.250235 J0.178762
G03 X142.230470 Y148.812470 Z-1.000000 I-0.040082 J0.249191
G03 X142.100267 Y150.730574 Z-1.000000 I-4.048820 J0.688633
G03 X137.949220 Y162.453095 Z-1.000000 I-163.444249 J-51.280817
G02 X137.497768 Y163.713505 Z-1.000000 I19.047002 J7.533287
G02 X137.453120 Y163.998017 Z-1.000000 I0.884548 J0.284569
G03 X136.373088 Y167.613120 Z-1.000000 I-6.590284 J0.000000
G03 X132.240230 Y171.943329 Z-1.000000 I-13.867181 J-9.097822
G03 X131.167243 Y172.685520 Z-1.000000 I-17.306627 J-23.873508
G03 X130.837890 Y172.851532 Z-1.000000 I-0.876243 J-1.328682
G01 X130.837890 Y172.851562 Z-1.000000
G00 Z5.000000

(End cutting path id: path1)


(Start cutting path id: path1)
(Change tool to Default tool)

G00 Z5.000000
G00 X130.837890 Y172.851562

G01 Z-2.000000 F100.0(Penetrate)
G03 X130.626934 Y172.799458 Z-2.000000 I-0.066812 J-0.182602 F400.000000
G03 X130.537110 Y172.566406 Z-2.000000 I0.257422 J-0.233052
G03 X130.659199 Y172.306342 Z-2.000000 I0.338027 J0.000000
G03 X131.201170 Y172.015625 Z-2.000000 I0.985813 J1.187262
G02 X134.041842 Y169.599414 Z-2.000000 I-1.335902 J-4.448539
G02 X140.037110 Y153.855469 Z-2.000000 I-85.190703 J-41.453942
G03 X141.417182 Y149.333427 Z-2.000000 I106.361462 J29.988607
G03 X141.722660 Y148.730470 Z-2.000000 I2.129606 J0.700068
G03 X142.021733 Y148.605607 Z-2.000000 I0.250235 J0.178762
G03 X142.230470 Y148.812470 Z-2.000000 I-0.040082 J0.249191
G03 X142.100267 Y150.730574 Z-2.000000 I-4.048820 J0.688633
G03 X137.949220 Y162.453095 Z-2.000000 I-163.444249 J-51.280817
G02 X137.497768 Y163.713505 Z-2.000000 I19.047002 J7.533287
G02 X137.453120 Y163.998017 Z-2.000000 I0.884548 J0.284569
G03 X136.373088 Y167.613120 Z-2.000000 I-6.590284 J0.000000
G03 X132.240230 Y171.943329 Z-2.000000 I-13.867181 J-9.097822
G03 X131.167243 Y172.685520 Z-2.000000 I-17.306627 J-23.873508
G03 X130.837890 Y172.851532 Z-2.000000 I-0.876243 J-1.328682
G01 X130.837890 Y172.851562 Z-2.000000
G00 Z5.000000

(End cutting path id: path1)


(Start cutting path id: path1)
(Change tool to Default tool)

G00 Z5.000000
G00 X130.837890 Y172.851562

G01 Z-3.000000 F100.0(Penetrate)
G03 X130.626934 Y172.799458 Z-3.000000 I-0.066812 J-0.182602 F400.000000
G03 X130.537110 Y172.566406 Z-3.000000 I0.257422 J-0.233052
G03 X130.659199 Y172.306342 Z-3.000000 I0.338027 J0.000000
G03 X131.201170 Y172.015625 Z-3.000000 I0.985813 J1.187262
G02 X134.041842 Y169.599414 Z-3.000000 I-1.335902 J-4.448539
G02 X140.037110 Y153.855469 Z-3.000000 I-85.190703 J-41.453942
G03 X141.417182 Y149.333427 Z-3.000000 I106.361462 J29.988607
G03 X141.722660 Y148.730470 Z-3.000000 I2.129606 J0.700068
G03 X142.021733 Y148.605607 Z-3.000000 I0.250235 J0.178762
G03 X142.230470 Y148.812470 Z-3.000000 I-0.040082 J0.249191
G03 X142.100267 Y150.730574 Z-3.000000 I-4.048820 J0.688633
G03 X137.949220 Y162.453095 Z-3.000000 I-163.444249 J-51.280817
G02 X137.497768 Y163.713505 Z-3.000000 I19.047002 J7.533287
G02 X137.453120 Y163.998017 Z-3.000000 I0.884548 J0.284569
G03 X136.373088 Y167.613120 Z-3.000000 I-6.590284 J0.000000
G03 X132.240230 Y171.943329 Z-3.000000 I-13.867181 J-9.097822
G03 X131.167243 Y172.685520 Z-3.000000 I-17.306627 J-23.873508
G03 X130.837890 Y172.851532 Z-3.000000 I-0.876243 J-1.328682
G01 X130.837890 Y172.851562 Z-3.000000
G00 Z5.000000

(End cutting path id: path1)


(Start cutting path id: path1)
(Change tool to Default tool)

G00 Z5.000000
G00 X138.759772 Y154.458984

G01 Z-1.000000 F100.0(Penetrate)
G03 X138.664235 Y154.466736 Z-1.000000 I-0.050397 J-0.028516 F400.000000
G03 X138.300782 Y153.949219 Z-1.000000 I3.820363 J-3.069431
G03 X137.972105 Y153.031602 Z-1.000000 I2.056262 J-1.254196
G03 X137.986332 Y151.722656 Z-1.000000 I4.306367 J-0.607743
G02 X137.996508 Y150.300895 Z-1.000000 I-4.551045 J-0.743489
G02 X137.799837 Y150.105121 Z-1.000000 I-0.229791 J0.034171
G02 X137.511635 Y150.221638 Z-1.000000 I-0.044040 J0.305757
G02 X136.750002 Y151.544922 Z-1.000000 I4.415165 J3.422029
G03 X136.275292 Y152.511178 Z-1.000000 I-6.983909 J-2.831376
G01 X136.210789 Y152.502032 Z-1.000000
G03 X136.207697 Y152.300847 Z-1.000000 I0.425997 J-0.107163
G03 X136.582032 Y150.876953 Z-1.000000 I17.387464 J3.809923
G02 X136.475865 Y150.780130 Z-1.000000 I-0.075931 J-0.023358
G02 X136.097662 Y151.076172 Z-1.000000 I0.338144 J0.821594
G03 X135.715852 Y151.372445 Z-1.000000 I-0.710127 J-0.520991
G03 X135.607422 Y151.273438 Z-1.000000 I-0.030375 J-0.075612
G03 X136.652289 Y148.993777 Z-1.000000 I8.696371 J2.606636
G03 X137.121092 Y148.902340 Z-1.000000 I0.277937 J0.177492
G02 X137.361999 Y148.916590 Z-1.000000 I0.131864 J-0.185787
G02 X137.677732 Y148.599610 Z-1.000000 I-0.376588 J-0.690842
G03 X138.228323 Y148.667644 Z-1.000000 I0.262019 J0.141464
G03 X138.810552 Y153.050781 Z-1.000000 I-18.337030 J4.666017
G03 X138.808674 Y154.279747 Z-1.000000 I-37.310992 J0.557462
G03 X138.759752 Y154.458984 Z-1.000000 I-0.377706 J-0.006798
G01 X138.759772 Y154.458984 Z-1.000000
G00 Z5.000000

(End cutting path id: path1)


(Start cutting path id: path1)
(Change tool to Default tool)

G00 Z5.000000
G00 X138.759772 Y154.458984

G01 Z-2.000000 F100.0(Penetrate)
G03 X138.664235 Y154.466736 Z-2.000000 I-0.050397 J-0.028516 F400.000000
G03 X138.300782 Y153.949219 Z-2.000000 I3.820363 J-3.069431
G03 X137.972105 Y153.031602 Z-2.000000 I2.056262 J-1.254196
G03 X137.986332 Y151.722656 Z-2.000000 I4.306367 J-0.607743
G02 X137.996508 Y150.300895 Z-2.000000 I-4.551045 J-0.743489
G02 X137.799837 Y150.105121 Z-2.000000 I-0.229791 J0.034171
G02 X137.511635 Y150.221638 Z-2.000000 I-0.044040 J0.305757
G02 X136.750002 Y151.544922 Z-2.000000 I4.415165 J3.422029
G03 X136.275292 Y152.511178 Z-2.000000 I-6.983909 J-2.831376
G01 X136.210789 Y152.502032 Z-2.000000
G03 X136.207697 Y152.300847 Z-2.000000 I0.425997 J-0.107163
G03 X136.582032 Y150.876953 Z-2.000000 I17.387464 J3.809923
G02 X136.475865 Y150.780130 Z-2.000000 I-0.075931 J-0.023358
G02 X136.097662 Y151.076172 Z-2.000000 I0.338144 J0.821594
G03 X135.715852 Y151.372445 Z-2.000000 I-0.710127 J-0.520991
G03 X135.607422 Y151.273438 Z-2.000000 I-0.030375 J-0.075612
G03 X136.652289 Y148.993777 Z-2.000000 I8.696371 J2.606636
G03 X137.121092 Y148.902340 Z-2.000000 I0.277937 J0.177492
G02 X137.361999 Y148.916590 Z-2.000000 I0.131864 J-0.185787
G02 X137.677732 Y148.599610 Z-2.000000 I-0.376588 J-0.690842
G03 X138.228323 Y148.667644 Z-2.000000 I0.262019 J0.141464
G03 X138.810552 Y153.050781 Z-2.000000 I-18.337030 J4.666017
G03 X138.808674 Y154.279747 Z-2.000000 I-37.310992 J0.557462
G03 X138.759752 Y154.458984 Z-2.000000 I-0.377706 J-0.006798
G01 X138.759772 Y154.458984 Z-2.000000
G00 Z5.000000

(End cutting path id: path1)


(Start cutting path id: path1)
(Change tool to Default tool)

G00 Z5.000000
G00 X138.759772 Y154.458984

G01 Z-3.000000 F100.0(Penetrate)
G03 X138.664235 Y154.466736 Z-3.000000 I-0.050397 J-0.028516 F400.000000
G03 X138.300782 Y153.949219 Z-3.000000 I3.820363 J-3.069431
G03 X137.972105 Y153.031602 Z-3.000000 I2.056262 J-1.254196
G03 X137.986332 Y151.722656 Z-3.000000 I4.306367 J-0.607743
G02 X137.996508 Y150.300895 Z-3.000000 I-4.551045 J-0.743489
G02 X137.799837 Y150.105121 Z-3.000000 I-0.229791 J0.034171
G02 X137.511635 Y150.221638 Z-3.000000 I-0.044040 J0.305757
G02 X136.750002 Y151.544922 Z-3.000000 I4.415165 J3.422029
G03 X136.275292 Y152.511178 Z-3.000000 I-6.983909 J-2.831376
G01 X136.210789 Y152.502032 Z-3.000000
G03 X136.207697 Y152.300847 Z-3.000000 I0.425997 J-0.107163
G03 X136.582032 Y150.876953 Z-3.000000 I17.387464 J3.809923
G02 X136.475865 Y150.780130 Z-3.000000 I-0.075931 J-0.023358
G02 X136.097662 Y151.076172 Z-3.000000 I0.338144 J0.821594
G03 X135.715852 Y151.372445 Z-3.000000 I-0.710127 J-0.520991
G03 X135.607422 Y151.273438 Z-3.000000 I-0.030375 J-0.075612
G03 X136.652289 Y148.993777 Z-3.000000 I8.696371 J2.606636
G03 X137.121092 Y148.902340 Z-3.000000 I0.277937 J0.177492
G02 X137.361999 Y148.916590 Z-3.000000 I0.131864 J-0.185787
G02 X137.677732 Y148.599610 Z-3.000000 I-0.376588 J-0.690842
G03 X138.228323 Y148.667644 Z-3.000000 I0.262019 J0.141464
G03 X138.810552 Y153.050781 Z-3.000000 I-18.337030 J4.666017
G03 X138.808674 Y154.279747 Z-3.000000 I-37.310992 J0.557462
G03 X138.759752 Y154.458984 Z-3.000000 I-0.377706 J-0.006798
G01 X138.759772 Y154.458984 Z-3.000000
G00 Z5.000000

(End cutting path id: path1)


(Start cutting path id: path2)
(Change tool to Default tool)

G00 Z5.000000
G00 X137.677330 Y148.600160

G01 Z-1.000000 F100.0(Penetrate)
G03 X137.362153 Y148.915893 Z-1.000000 I-0.687675 J-0.371287 F400.000000
G03 X137.121730 Y148.901400 Z-1.000000 I-0.108577 J-0.200254
G02 X136.652764 Y148.992960 Z-1.000000 I-0.190905 J0.268984
G02 X135.607690 Y151.274210 Z-1.000000 I7.668374 J4.893001
G02 X135.716056 Y151.372882 Z-1.000000 I0.077857 J0.023336
G02 X136.098000 Y151.075652 Z-1.000000 I-0.332691 J-0.821528
G03 X136.475911 Y150.780193 Z-1.000000 I0.713989 J0.523823
G03 X136.582040 Y150.877094 Z-1.000000 I0.030164 J0.073532
G02 X136.207685 Y152.301045 Z-1.000000 I17.015294 J5.234483
G02 X136.210737 Y152.502397 Z-1.000000 I0.429815 J0.094184
G01 X136.275245 Y152.511559 Z-1.000000
G02 X136.749890 Y151.545511 Z-1.000000 I-6.504871 J-3.795643
G03 X137.511636 Y150.221895 Z-1.000000 I5.179625 J2.099891
G03 X137.800060 Y150.105036 Z-1.000000 I0.244720 J0.189639
G03 X137.996850 Y150.300593 Z-1.000000 I-0.032762 J0.229762
G03 X137.986890 Y151.721898 Z-1.000000 I-4.555185 J0.678767
G02 X137.972791 Y153.031113 Z-1.000000 I4.290185 J0.700883
G02 X138.301640 Y153.948918 Z-1.000000 I2.386607 J-0.337303
G02 X138.581950 Y153.944346 Z-1.000000 I0.138812 J-0.084667
G02 X138.810290 Y153.050313 Z-1.000000 I-1.532873 J-0.867678
G02 X138.227903 Y148.668155 Z-1.000000 I-18.904795 J0.282663
G02 X137.677330 Y148.600160 Z-1.000000 I-0.288558 J0.073466
G01 X137.677330 Y148.600160 Z-1.000000
G00 Z5.000000

(End cutting path id: path2)


(Start cutting path id: path2)
(Change tool to Default tool)

G00 Z5.000000
G00 X137.677330 Y148.600160

G01 Z-2.000000 F100.0(Penetrate)
G03 X137.362153 Y148.915893 Z-2.000000 I-0.687675 J-0.371287 F400.000000
G03 X137.121730 Y148.901400 Z-2.000000 I-0.108577 J-0.200254
G02 X136.652764 Y148.992960 Z-2.000000 I-0.190905 J0.268984
G02 X135.607690 Y151.274210 Z-2.000000 I7.668374 J4.893001
G02 X135.716056 Y151.372882 Z-2.000000 I0.077857 J0.023336
G02 X136.098000 Y151.075652 Z-2.000000 I-0.332691 J-0.821528
G03 X136.475911 Y150.780193 Z-2.000000 I0.713989 J0.523823
G03 X136.582040 Y150.877094 Z-2.000000 I0.030164 J0.073532
G02 X136.207685 Y152.301045 Z-2.000000 I17.015294 J5.234483
G02 X136.210737 Y152.502397 Z-2.000000 I0.429815 J0.094184
G01 X136.275245 Y152.511559 Z-2.000000
G02 X136.749890 Y151.545511 Z-2.000000 I-6.504871 J-3.795643
G03 X137.511636 Y150.221895 Z-2.000000 I5.179625 J2.099891
G03 X137.800060 Y150.105036 Z-2.000000 I0.244720 J0.189639
G03 X137.996850 Y150.300593 Z-2.000000 I-0.032762 J0.229762
G03 X137.986890 Y151.721898 Z-2.000000 I-4.555185 J0.678767
G02 X137.972791 Y153.031113 Z-2.000000 I4.290185 J0.700883
G02 X138.301640 Y153.948918 Z-2.000000 I2.386607 J-0.337303
G02 X138.581950 Y153.944346 Z-2.000000 I0.138812 J-0.084667
G02 X138.810290 Y153.050313 Z-2.000000 I-1.532873 J-0.867678
G02 X138.227903 Y148.668155 Z-2.000000 I-18.904795 J0.282663
G02 X137.677330 Y148.600160 Z-2.000000 I-0.288558 J0.073466
G01 X137.677330 Y148.600160 Z-2.000000
G00 Z5.000000

(End cutting path id: path2)


(Start cutting path id: path2)
(Change tool to Default tool)

G00 Z5.000000
G00 X137.677330 Y148.600160

G01 Z-3.000000 F100.0(Penetrate)
G03 X137.362153 Y148.915893 Z-3.000000 I-0.687675 J-0.371287 F400.000000
G03 X137.121730 Y148.901400 Z-3.000000 I-0.108577 J-0.200254
G02 X136.652764 Y148.992960 Z-3.000000 I-0.190905 J0.268984
G02 X135.607690 Y151.274210 Z-3.000000 I7.668374 J4.893001
G02 X135.716056 Y151.372882 Z-3.000000 I0.077857 J0.023336
G02 X136.098000 Y151.075652 Z-3.000000 I-0.332691 J-0.821528
G03 X136.475911 Y150.780193 Z-3.000000 I0.713989 J0.523823
G03 X136.582040 Y150.877094 Z-3.000000 I0.030164 J0.073532
G02 X136.207685 Y152.301045 Z-3.000000 I17.015294 J5.234483
G02 X136.210737 Y152.502397 Z-3.000000 I0.429815 J0.094184
G01 X136.275245 Y152.511559 Z-3.000000
G02 X136.749890 Y151.545511 Z-3.000000 I-6.504871 J-3.795643
G03 X137.511636 Y150.221895 Z-3.000000 I5.179625 J2.099891
G03 X137.800060 Y150.105036 Z-3.000000 I0.244720 J0.189639
G03 X137.996850 Y150.300593 Z-3.000000 I-0.032762 J0.229762
G03 X137.986890 Y151.721898 Z-3.000000 I-4.555185 J0.678767
G02 X137.972791 Y153.031113 Z-3.000000 I4.290185 J0.700883
G02 X138.301640 Y153.948918 Z-3.000000 I2.386607 J-0.337303
G02 X138.581950 Y153.944346 Z-3.000000 I0.138812 J-0.084667
G02 X138.810290 Y153.050313 Z-3.000000 I-1.532873 J-0.867678
G02 X138.227903 Y148.668155 Z-3.000000 I-18.904795 J0.282663
G02 X137.677330 Y148.600160 Z-3.000000 I-0.288558 J0.073466
G01 X137.677330 Y148.600160 Z-3.000000
G00 Z5.000000

(End cutting path id: path2)


(Start cutting path id: path2)
(Change tool to Default tool)

G00 Z5.000000
G00 X134.576530 Y148.532160

G01 Z-1.000000 F100.0(Penetrate)
G02 X133.385250 Y150.216859 Z-1.000000 I26.313010 J19.869934 F400.000000
G01 X133.419960 Y150.281420 Z-1.000000
G02 X133.573242 Y150.242138 Z-1.000000 I-0.000000 J-0.318702
G02 X134.984680 Y149.423060 Z-1.000000 I-16.302964 J-29.718957
G02 X136.421446 Y147.959910 Z-1.000000 I-2.212614 J-3.609719
G02 X136.309170 Y147.171290 Z-1.000000 I-0.550668 J-0.323904
G02 X135.928661 Y147.154068 Z-1.000000 I-0.200252 J0.212278
G02 X134.576530 Y148.532160 Z-1.000000 I4.631061 J5.896197
G01 X134.576530 Y148.532160 Z-1.000000
G00 Z5.000000

(End cutting path id: path2)


(Start cutting path id: path2)
(Change tool to Default tool)

G00 Z5.000000
G00 X134.576530 Y148.532160

G01 Z-2.000000 F100.0(Penetrate)
G02 X133.385250 Y150.216859 Z-2.000000 I26.313010 J19.869934 F400.000000
G01 X133.419960 Y150.281420 Z-2.000000
G02 X133.573242 Y150.242138 Z-2.000000 I-0.000000 J-0.318702
G02 X134.984680 Y149.423060 Z-2.000000 I-16.302964 J-29.718957
G02 X136.421446 Y147.959910 Z-2.000000 I-2.212614 J-3.609719
G02 X136.309170 Y147.171290 Z-2.000000 I-0.550668 J-0.323904
G02 X135.928661 Y147.154068 Z-2.000000 I-0.200252 J0.212278
G02 X134.576530 Y148.532160 Z-2.000000 I4.631061 J5.896197
G01 X134.576530 Y148.532160 Z-2.000000
G00 Z5.000000

(End cutting path id: path2)


(Start cutting path id: path2)
(Change tool to Default tool)

G00 Z5.000000
G00 X134.576530 Y148.532160

G01 Z-3.000000 F100.0(Penetrate)
G02 X133.385250 Y150.216859 Z-3.000000 I26.313010 J19.869934 F400.000000
G01 X133.419960 Y150.281420 Z-3.000000
G02 X133.573242 Y150.242138 Z-3.000000 I-0.000000 J-0.318702
G02 X134.984680 Y149.423060 Z-3.000000 I-16.302964 J-29.718957
G02 X136.421446 Y147.959910 Z-3.000000 I-2.212614 J-3.609719
G02 X136.309170 Y147.171290 Z-3.000000 I-0.550668 J-0.323904
G02 X135.928661 Y147.154068 Z-3.000000 I-0.200252 J0.212278
G02 X134.576530 Y148.532160 Z-3.000000 I4.631061 J5.896197
G01 X134.576530 Y148.532160 Z-3.000000
G00 Z5.000000

(End cutting path id: path2)


(Start cutting path id: path1)
(Change tool to Default tool)

G00 Z5.000000
G00 X133.419922 Y150.281250

G01 Z-1.000000 F100.0(Penetrate)
G01 X133.385165 Y150.216649 Z-1.000000 F400.000000
G03 X134.576172 Y148.531250 Z-1.000000 I27.256065 J17.997297
G03 X135.928138 Y147.154495 Z-1.000000 I5.960399 J4.500892
G03 X136.308592 Y147.171880 Z-1.000000 I0.180126 J0.229735
G03 X136.420965 Y147.960553 Z-1.000000 I-0.438481 J0.464819
G03 X134.984382 Y149.423830 Z-1.000000 I-3.648207 J-2.144828
G03 X133.573176 Y150.242039 Z-1.000000 I-17.425632 J-28.428770
G03 X133.419922 Y150.281250 Z-1.000000 I-0.153254 J-0.279886
G01 X133.419922 Y150.281250 Z-1.000000
G00 Z5.000000

(End cutting path id: path1)


(Start cutting path id: path1)
(Change tool to Default tool)

G00 Z5.000000
G00 X133.419922 Y150.281250

G01 Z-2.000000 F100.0(Penetrate)
G01 X133.385165 Y150.216649 Z-2.000000 F400.000000
G03 X134.576172 Y148.531250 Z-2.000000 I27.256065 J17.997297
G03 X135.928138 Y147.154495 Z-2.000000 I5.960399 J4.500892
G03 X136.308592 Y147.171880 Z-2.000000 I0.180126 J0.229735
G03 X136.420965 Y147.960553 Z-2.000000 I-0.438481 J0.464819
G03 X134.984382 Y149.423830 Z-2.000000 I-3.648207 J-2.144828
G03 X133.573176 Y150.242039 Z-2.000000 I-17.425632 J-28.428770
G03 X133.419922 Y150.281250 Z-2.000000 I-0.153254 J-0.279886
G01 X133.419922 Y150.281250 Z-2.000000
G00 Z5.000000

(End cutting path id: path1)


(Start cutting path id: path1)
(Change tool to Default tool)

G00 Z5.000000
G00 X133.419922 Y150.281250

G01 Z-3.000000 F100.0(Penetrate)
G01 X133.385165 Y150.216649 Z-3.000000 F400.000000
G03 X134.576172 Y148.531250 Z-3.000000 I27.256065 J17.997297
G03 X135.928138 Y147.154495 Z-3.000000 I5.960399 J4.500892
G03 X136.308592 Y147.171880 Z-3.000000 I0.180126 J0.229735
G03 X136.420965 Y147.960553 Z-3.000000 I-0.438481 J0.464819
G03 X134.984382 Y149.423830 Z-3.000000 I-3.648207 J-2.144828
G03 X133.573176 Y150.242039 Z-3.000000 I-17.425632 J-28.428770
G03 X133.419922 Y150.281250 Z-3.000000 I-0.153254 J-0.279886
G01 X133.419922 Y150.281250 Z-3.000000
G00 Z5.000000

(End cutting path id: path1)


(Start cutting path id: path2)
(Change tool to Default tool)

G00 Z5.000000
G00 X141.723320 Y148.730390

G01 Z-1.000000 F100.0(Penetrate)
G02 X141.417730 Y149.333354 Z-1.000000 I1.825994 J1.304358 F400.000000
G02 X140.036930 Y153.855463 Z-1.000000 I104.280043 J34.313177
G03 X134.042263 Y169.599641 Z-1.000000 I-91.225076 J-25.721022
G03 X131.201740 Y172.015912 Z-1.000000 I-4.176282 J-2.031791
G02 X130.659555 Y172.306324 Z-1.000000 I0.445192 J1.482474
G02 X130.537350 Y172.566228 Z-1.000000 I0.215277 J0.259904
G02 X130.767308 Y172.726956 Z-1.000000 I0.171149 J0.000000
G02 X132.240410 Y171.943095 Z-1.000000 I-2.080311 J-5.685631
G02 X136.373481 Y167.612842 Z-1.000000 I-9.735714 J-13.429950
G02 X137.453610 Y163.997689 Z-1.000000 I-5.509830 J-3.615153
G03 X137.498071 Y163.713309 Z-1.000000 I0.931707 J0.000000
G03 X137.948550 Y162.453472 Z-1.000000 I19.175873 J6.146250
G02 X142.100776 Y150.731318 Z-1.000000 I-159.730225 J-63.176189
G02 X142.231150 Y148.813270 Z-1.000000 I-3.916529 J-1.229669
G02 X142.022404 Y148.605911 Z-1.000000 I-0.249524 J0.042443
G02 X141.723320 Y148.730370 Z-1.000000 I-0.049430 J0.302805
G01 X141.723320 Y148.730390 Z-1.000000
G00 Z5.000000

(End cutting path id: path2)


(Start cutting path id: path2)
(Change tool to Default tool)

G00 Z5.000000
G00 X141.723320 Y148.730390

G01 Z-2.000000 F100.0(Penetrate)
G02 X141.417730 Y149.333354 Z-2.000000 I1.825994 J1.304358 F400.000000
G02 X140.036930 Y153.855463 Z-2.000000 I104.280043 J34.313177
G03 X134.042263 Y169.599641 Z-2.000000 I-91.225076 J-25.721022
G03 X131.201740 Y172.015912 Z-2.000000 I-4.176282 J-2.031791
G02 X130.659555 Y172.306324 Z-2.000000 I0.445192 J1.482474
G02 X130.537350 Y172.566228 Z-2.000000 I0.215277 J0.259904
G02 X130.767308 Y172.726956 Z-2.000000 I0.171149 J0.000000
G02 X132.240410 Y171.943095 Z-2.000000 I-2.080311 J-5.685631
G02 X136.373481 Y167.612842 Z-2.000000 I-9.735714 J-13.429950
G02 X137.453610 Y163.997689 Z-2.000000 I-5.509830 J-3.615153
G03 X137.498071 Y163.713309 Z-2.000000 I0.931707 J0.000000
G03 X137.948550 Y162.453472 Z-2.000000 I19.175873 J6.146250
G02 X142.100776 Y150.731318 Z-2.000000 I-159.730225 J-63.176189
G02 X142.231150 Y148.813270 Z-2.000000 I-3.916529 J-1.229669
G02 X142.022404 Y148.605911 Z-2.000000 I-0.249524 J0.042443
G02 X141.723320 Y148.730370 Z-2.000000 I-0.049430 J0.302805
G01 X141.723320 Y148.730390 Z-2.000000
G00 Z5.000000

(End cutting path id: path2)


(Start cutting path id: path2)
(Change tool to Default tool)

G00 Z5.000000
G00 X141.723320 Y148.730390

G01 Z-3.000000 F100.0(Penetrate)
G02 X141.417730 Y149.333354 Z-3.000000 I1.825994 J1.304358 F400.000000
G02 X140.036930 Y153.855463 Z-3.000000 I104.280043 J34.313177
G03 X134.042263 Y169.599641 Z-3.000000 I-91.225076 J-25.721022
G03 X131.201740 Y172.015912 Z-3.000000 I-4.176282 J-2.031791
G02 X130.659555 Y172.306324 Z-3.000000 I0.445192 J1.482474
G02 X130.537350 Y172.566228 Z-3.000000 I0.215277 J0.259904
G02 X130.767308 Y172.726956 Z-3.000000 I0.171149 J0.000000
G02 X132.240410 Y171.943095 Z-3.000000 I-2.080311 J-5.685631
G02 X136.373481 Y167.612842 Z-3.000000 I-9.735714 J-13.429950
G02 X137.453610 Y163.997689 Z-3.000000 I-5.509830 J-3.615153
G03 X137.498071 Y163.713309 Z-3.000000 I0.931707 J0.000000
G03 X137.948550 Y162.453472 Z-3.000000 I19.175873 J6.146250
G02 X142.100776 Y150.731318 Z-3.000000 I-159.730225 J-63.176189
G02 X142.231150 Y148.813270 Z-3.000000 I-3.916529 J-1.229669
G02 X142.022404 Y148.605911 Z-3.000000 I-0.249524 J0.042443
G02 X141.723320 Y148.730370 Z-3.000000 I-0.049430 J0.302805
G01 X141.723320 Y148.730390 Z-3.000000
G00 Z5.000000

(End cutting path id: path2)


(Start cutting path id: path1)
(Change tool to Default tool)

G00 Z5.000000
G00 X141.664060 Y141.771480

G01 Z-1.000000 F100.0(Penetrate)
G03 X139.761014 Y141.832507 Z-1.000000 I-1.369898 J-13.015939 F400.000000
G03 X138.835940 Y141.605470 Z-1.000000 I0.097693 J-2.396205
G03 X138.847351 Y141.388757 Z-1.000000 I0.049995 J-0.106024
G03 X140.072270 Y141.173830 Z-1.000000 I1.271163 J3.646634
G02 X144.051907 Y140.331115 Z-1.000000 I-0.124708 J-10.407004
G02 X146.826170 Y138.277340 Z-1.000000 I-2.961431 J-6.900974
G02 X150.401659 Y132.676495 Z-1.000000 I-19.068997 J-16.115030
G02 X151.285160 Y128.675780 Z-1.000000 I-8.616373 J-4.000715
G03 X151.438896 Y127.400248 Z-1.000000 I5.368345 J-0.000000
G03 X151.632810 Y127.248050 Z-1.000000 I0.193914 J0.047433
G03 X152.152591 Y127.855908 Z-1.000000 I0.000000 J0.526162
G03 X150.769530 Y132.746090 Z-1.000000 I-21.016199 J-3.303214
G03 X147.592786 Y138.331375 Z-1.000000 I-24.405600 J-10.185118
G03 X144.638670 Y140.996090 Z-1.000000 I-8.120305 J-6.032377
G03 X143.536400 Y141.446130 Z-1.000000 I-2.056468 J-3.461953
G03 X141.664060 Y141.771480 Z-1.000000 I-3.353442 J-13.748342
G01 X141.664060 Y141.771480 Z-1.000000
G00 Z5.000000

(End cutting path id: path1)


(Start cutting path id: path1)
(Change tool to Default tool)

G00 Z5.000000
G00 X141.664060 Y141.771480

G01 Z-2.000000 F100.0(Penetrate)
G03 X139.761014 Y141.832507 Z-2.000000 I-1.369898 J-13.015939 F400.000000
G03 X138.835940 Y141.605470 Z-2.000000 I0.097693 J-2.396205
G03 X138.847351 Y141.388757 Z-2.000000 I0.049995 J-0.106024
G03 X140.072270 Y141.173830 Z-2.000000 I1.271163 J3.646634
G02 X144.051907 Y140.331115 Z-2.000000 I-0.124708 J-10.407004
G02 X146.826170 Y138.277340 Z-2.000000 I-2.961431 J-6.900974
G02 X150.401659 Y132.676495 Z-2.000000 I-19.068997 J-16.115030
G02 X151.285160 Y128.675780 Z-2.000000 I-8.616373 J-4.000715
G03 X151.438896 Y127.400248 Z-2.000000 I5.368345 J-0.000000
G03 X151.632810 Y127.248050 Z-2.000000 I0.193914 J0.047433
G03 X152.152591 Y127.855908 Z-2.000000 I0.000000 J0.526162
G03 X150.769530 Y132.746090 Z-2.000000 I-21.016199 J-3.303214
G03 X147.592786 Y138.331375 Z-2.000000 I-24.405600 J-10.185118
G03 X144.638670 Y140.996090 Z-2.000000 I-8.120305 J-6.032377
G03 X143.536400 Y141.446130 Z-2.000000 I-2.056468 J-3.461953
G03 X141.664060 Y141.771480 Z-2.000000 I-3.353442 J-13.748342
G01 X141.664060 Y141.771480 Z-2.000000
G00 Z5.000000

(End cutting path id: path1)


(Start cutting path id: path1)
(Change tool to Default tool)

G00 Z5.000000
G00 X141.664060 Y141.771480

G01 Z-3.000000 F100.0(Penetrate)
G03 X139.761014 Y141.832507 Z-3.000000 I-1.369898 J-13.015939 F400.000000
G03 X138.835940 Y141.605470 Z-3.000000 I0.097693 J-2.396205
G03 X138.847351 Y141.388757 Z-3.000000 I0.049995 J-0.106024
G03 X140.072270 Y141.173830 Z-3.000000 I1.271163 J3.646634
G02 X144.051907 Y140.331115 Z-3.000000 I-0.124708 J-10.407004
G02 X146.826170 Y138.277340 Z-3.000000 I-2.961431 J-6.900974
G02 X150.401659 Y132.676495 Z-3.000000 I-19.068997 J-16.115030
G02 X151.285160 Y128.675780 Z-3.000000 I-8.616373 J-4.000715
G03 X151.438896 Y127.400248 Z-3.000000 I5.368345 J-0.000000
G03 X151.632810 Y127.248050 Z-3.000000 I0.193914 J0.047433
G03 X152.152591 Y127.855908 Z-3.000000 I0.000000 J0.526162
G03 X150.769530 Y132.746090 Z-3.000000 I-21.016199 J-3.303214
G03 X147.592786 Y138.331375 Z-3.000000 I-24.405600 J-10.185118
G03 X144.638670 Y140.996090 Z-3.000000 I-8.120305 J-6.032377
G03 X143.536400 Y141.446130 Z-3.000000 I-2.056468 J-3.461953
G03 X141.664060 Y141.771480 Z-3.000000 I-3.353442 J-13.748342
G01 X141.664060 Y141.771480 Z-3.000000
G00 Z5.000000

(End cutting path id: path1)


(Start cutting path id: path1)
(Change tool to Default tool)

G00 Z5.000000
G00 X140.113280 Y133.181690

G01 Z-1.000000 F100.0(Penetrate)
G03 X138.896922 Y133.087334 Z-1.000000 I-0.194418 J-5.381033 F400.000000
G03 X138.035160 Y132.761770 Z-1.000000 I0.515921 J-2.668949
G03 X135.032316 Y130.256717 Z-1.000000 I6.077228 J-10.337166
G03 X134.910160 Y129.140670 Z-1.000000 I0.749839 J-0.646782
G03 X135.136589 Y129.098115 Z-1.000000 I0.130405 J0.070189
G03 X136.619140 Y130.595750 Z-1.000000 I-8.049676 J9.451229
G02 X138.309572 Y132.036723 Z-1.000000 I5.054147 J-4.217090
G02 X139.675780 Y132.412160 Z-1.000000 I1.366208 J-2.298081
G02 X141.119782 Y132.249616 Z-1.000000 I-0.000000 J-6.495359
G02 X141.429690 Y132.013720 Z-1.000000 I-0.104666 J-0.459023
G02 X141.406623 Y131.758378 Z-1.000000 I-0.204787 J-0.110213
G02 X141.113280 Y131.617240 Z-1.000000 I-0.293343 J0.234275
G03 X140.158954 Y130.986205 Z-1.000000 I0.000000 J-1.037140
G03 X139.529300 Y127.898490 Z-1.000000 I7.255981 J-3.087715
G03 X139.795422 Y126.637407 Z-1.000000 I3.121037 J-0.000000
G03 X140.591800 Y125.496140 Z-1.000000 I3.313402 J1.463608
G03 X142.412216 Y124.741755 Z-1.000000 I1.867356 J1.932511
G03 X144.466800 Y125.427740 Z-1.000000 I0.056773 J3.249778
G02 X145.679230 Y126.198815 Z-1.000000 I4.629706 J-5.940955
G02 X145.898440 Y126.156260 Z-1.000000 I0.082339 J-0.161727
G02 X145.670987 Y124.800169 Z-1.000000 I-0.671246 J-0.584535
G02 X141.058590 Y123.373060 Z-1.000000 I-5.468695 J9.507596
G02 X138.769523 Y123.610967 Z-1.000000 I-0.497113 J6.348235
G02 X137.339840 Y124.462900 Z-1.000000 I0.938720 J3.200913
G03 X136.198270 Y125.431312 Z-1.000000 I-6.187434 J-6.136735
G03 X136.070310 Y125.365240 Z-1.000000 I-0.046922 J-0.066072
G03 X136.495785 Y124.432194 Z-1.000000 I1.235798 J-0.000000
G03 X138.726560 Y123.058600 Z-1.000000 I5.286231 J6.086827
G03 X141.777311 Y122.502489 Z-1.000000 I2.840190 J6.934846
G03 X144.542970 Y123.222670 Z-1.000000 I-0.178676 J6.356629
G03 X145.917798 Y125.273775 Z-1.000000 I-1.194743 J2.287137
G03 X145.121090 Y129.519540 Z-1.000000 I-7.862604 J0.722233
G03 X143.663073 Y131.756367 Z-1.000000 I-10.405124 J-5.188709
G03 X142.566410 Y132.597670 Z-1.000000 I-2.397459 J-1.989740
G03 X141.330362 Y133.020067 Z-1.000000 I-2.693235 J-5.861433
G03 X140.113280 Y133.181650 Z-1.000000 I-1.448621 J-6.246893
G01 X140.113280 Y133.181690 Z-1.000000
G00 Z5.000000

(End cutting path id: path1)


(Start cutting path id: path1)
(Change tool to Default tool)

G00 Z5.000000
G00 X140.113280 Y133.181690

G01 Z-2.000000 F100.0(Penetrate)
G03 X138.896922 Y133.087334 Z-2.000000 I-0.194418 J-5.381033 F400.000000
G03 X138.035160 Y132.761770 Z-2.000000 I0.515921 J-2.668949
G03 X135.032316 Y130.256717 Z-2.000000 I6.077228 J-10.337166
G03 X134.910160 Y129.140670 Z-2.000000 I0.749839 J-0.646782
G03 X135.136589 Y129.098115 Z-2.000000 I0.130405 J0.070189
G03 X136.619140 Y130.595750 Z-2.000000 I-8.049676 J9.451229
G02 X138.309572 Y132.036723 Z-2.000000 I5.054147 J-4.217090
G02 X139.675780 Y132.412160 Z-2.000000 I1.366208 J-2.298081
G02 X141.119782 Y132.249616 Z-2.000000 I-0.000000 J-6.495359
G02 X141.429690 Y132.013720 Z-2.000000 I-0.104666 J-0.459023
G02 X141.406623 Y131.758378 Z-2.000000 I-0.204787 J-0.110213
G02 X141.113280 Y131.617240 Z-2.000000 I-0.293343 J0.234275
G03 X140.158954 Y130.986205 Z-2.000000 I0.000000 J-1.037140
G03 X139.529300 Y127.898490 Z-2.000000 I7.255981 J-3.087715
G03 X139.795422 Y126.637407 Z-2.000000 I3.121037 J-0.000000
G03 X140.591800 Y125.496140 Z-2.000000 I3.313402 J1.463608
G03 X142.412216 Y124.741755 Z-2.000000 I1.867356 J1.932511
G03 X144.466800 Y125.427740 Z-2.000000 I0.056773 J3.249778
G02 X145.679230 Y126.198815 Z-2.000000 I4.629706 J-5.940955
G02 X145.898440 Y126.156260 Z-2.000000 I0.082339 J-0.161727
G02 X145.670987 Y124.800169 Z-2.000000 I-0.671246 J-0.584535
G02 X141.058590 Y123.373060 Z-2.000000 I-5.468695 J9.507596
G02 X138.769523 Y123.610967 Z-2.000000 I-0.497113 J6.348235
G02 X137.339840 Y124.462900 Z-2.000000 I0.938720 J3.200913
G03 X136.198270 Y125.431312 Z-2.000000 I-6.187434 J-6.136735
G03 X136.070310 Y125.365240 Z-2.000000 I-0.046922 J-0.066072
G03 X136.495785 Y124.432194 Z-2.000000 I1.235798 J-0.000000
G03 X138.726560 Y123.058600 Z-2.000000 I5.286231 J6.086827
G03 X141.777311 Y122.502489 Z-2.000000 I2.840190 J6.934846
G03 X144.542970 Y123.222670 Z-2.000000 I-0.178676 J6.356629
G03 X145.917798 Y125.273775 Z-2.000000 I-1.194743 J2.287137
G03 X145.121090 Y129.519540 Z-2.000000 I-7.862604 J0.722233
G03 X143.663073 Y131.756367 Z-2.000000 I-10.405124 J-5.188709
G03 X142.566410 Y132.597670 Z-2.000000 I-2.397459 J-1.989740
G03 X141.330362 Y133.020067 Z-2.000000 I-2.693235 J-5.861433
G03 X140.113280 Y133.181650 Z-2.000000 I-1.448621 J-6.246893
G01 X140.113280 Y133.181690 Z-2.000000
G00 Z5.000000

(End cutting path id: path1)


(Start cutting path id: path1)
(Change tool to Default tool)

G00 Z5.000000
G00 X140.113280 Y133.181690

G01 Z-3.000000 F100.0(Penetrate)
G03 X138.896922 Y133.087334 Z-3.000000 I-0.194418 J-5.381033 F400.000000
G03 X138.035160 Y132.761770 Z-3.000000 I0.515921 J-2.668949
G03 X135.032316 Y130.256717 Z-3.000000 I6.077228 J-10.337166
G03 X134.910160 Y129.140670 Z-3.000000 I0.749839 J-0.646782
G03 X135.136589 Y129.098115 Z-3.000000 I0.130405 J0.070189
G03 X136.619140 Y130.595750 Z-3.000000 I-8.049676 J9.451229
G02 X138.309572 Y132.036723 Z-3.000000 I5.054147 J-4.217090
G02 X139.675780 Y132.412160 Z-3.000000 I1.366208 J-2.298081
G02 X141.119782 Y132.249616 Z-3.000000 I-0.000000 J-6.495359
G02 X141.429690 Y132.013720 Z-3.000000 I-0.104666 J-0.459023
G02 X141.406623 Y131.758378 Z-3.000000 I-0.204787 J-0.110213
G02 X141.113280 Y131.617240 Z-3.000000 I-0.293343 J0.234275
G03 X140.158954 Y130.986205 Z-3.000000 I0.000000 J-1.037140
G03 X139.529300 Y127.898490 Z-3.000000 I7.255981 J-3.087715
G03 X139.795422 Y126.637407 Z-3.000000 I3.121037 J-0.000000
G03 X140.591800 Y125.496140 Z-3.000000 I3.313402 J1.463608
G03 X142.412216 Y124.741755 Z-3.000000 I1.867356 J1.932511
G03 X144.466800 Y125.427740 Z-3.000000 I0.056773 J3.249778
G02 X145.679230 Y126.198815 Z-3.000000 I4.629706 J-5.940955
G02 X145.898440 Y126.156260 Z-3.000000 I0.082339 J-0.161727
G02 X145.670987 Y124.800169 Z-3.000000 I-0.671246 J-0.584535
G02 X141.058590 Y123.373060 Z-3.000000 I-5.468695 J9.507596
G02 X138.769523 Y123.610967 Z-3.000000 I-0.497113 J6.348235
G02 X137.339840 Y124.462900 Z-3.000000 I0.938720 J3.200913
G03 X136.198270 Y125.431312 Z-3.000000 I-6.187434 J-6.136735
G03 X136.070310 Y125.365240 Z-3.000000 I-0.046922 J-0.066072
G03 X136.495785 Y124.432194 Z-3.000000 I1.235798 J-0.000000
G03 X138.726560 Y123.058600 Z-3.000000 I5.286231 J6.086827
G03 X141.777311 Y122.502489 Z-3.000000 I2.840190 J6.934846
G03 X144.542970 Y123.222670 Z-3.000000 I-0.178676 J6.356629
G03 X145.917798 Y125.273775 Z-3.000000 I-1.194743 J2.287137
G03 X145.121090 Y129.519540 Z-3.000000 I-7.862604 J0.722233
G03 X143.663073 Y131.756367 Z-3.000000 I-10.405124 J-5.188709
G03 X142.566410 Y132.597670 Z-3.000000 I-2.397459 J-1.989740
G03 X141.330362 Y133.020067 Z-3.000000 I-2.693235 J-5.861433
G03 X140.113280 Y133.181650 Z-3.000000 I-1.448621 J-6.246893
G01 X140.113280 Y133.181690 Z-3.000000
G00 Z5.000000

(End cutting path id: path1)


(Start cutting path id: path1)
(Change tool to Default tool)

G00 Z5.000000
G00 X141.578120 Y130.996140

G01 Z-1.000000 F100.0(Penetrate)
G02 X142.022459 Y131.043209 Z-1.000000 I0.404109 J-1.693991 F400.000000
G02 X142.601560 Y130.970740 Z-1.000000 I-0.066597 J-2.882206
G02 X144.959841 Y128.571781 Z-1.000000 I-0.699670 J-3.046432
G02 X143.720700 Y125.685590 Z-1.000000 I-2.666014 J-0.564487
G02 X141.481232 Y125.789256 Z-1.000000 I-1.043534 J1.697961
G02 X140.220700 Y128.310590 Z-1.000000 I1.891338 J2.521334
G02 X140.698755 Y130.303581 Z-1.000000 I4.393378 J-0.000000
G02 X141.578120 Y130.996130 Z-1.000000 I1.189074 J-0.605266
G01 X141.578120 Y130.996140 Z-1.000000
G00 Z5.000000

(End cutting path id: path1)


(Start cutting path id: path1)
(Change tool to Default tool)

G00 Z5.000000
G00 X141.578120 Y130.996140

G01 Z-2.000000 F100.0(Penetrate)
G02 X142.022459 Y131.043209 Z-2.000000 I0.404109 J-1.693991 F400.000000
G02 X142.601560 Y130.970740 Z-2.000000 I-0.066597 J-2.882206
G02 X144.959841 Y128.571781 Z-2.000000 I-0.699670 J-3.046432
G02 X143.720700 Y125.685590 Z-2.000000 I-2.666014 J-0.564487
G02 X141.481232 Y125.789256 Z-2.000000 I-1.043534 J1.697961
G02 X140.220700 Y128.310590 Z-2.000000 I1.891338 J2.521334
G02 X140.698755 Y130.303581 Z-2.000000 I4.393378 J-0.000000
G02 X141.578120 Y130.996130 Z-2.000000 I1.189074 J-0.605266
G01 X141.578120 Y130.996140 Z-2.000000
G00 Z5.000000

(End cutting path id: path1)


(Start cutting path id: path1)
(Change tool to Default tool)

G00 Z5.000000
G00 X141.578120 Y130.996140

G01 Z-3.000000 F100.0(Penetrate)
G02 X142.022459 Y131.043209 Z-3.000000 I0.404109 J-1.693991 F400.000000
G02 X142.601560 Y130.970740 Z-3.000000 I-0.066597 J-2.882206
G02 X144.959841 Y128.571781 Z-3.000000 I-0.699670 J-3.046432
G02 X143.720700 Y125.685590 Z-3.000000 I-2.666014 J-0.564487
G02 X141.481232 Y125.789256 Z-3.000000 I-1.043534 J1.697961
G02 X140.220700 Y128.310590 Z-3.000000 I1.891338 J2.521334
G02 X140.698755 Y130.303581 Z-3.000000 I4.393378 J-0.000000
G02 X141.578120 Y130.996130 Z-3.000000 I1.189074 J-0.605266
G01 X141.578120 Y130.996140 Z-3.000000
G00 Z5.000000

(End cutting path id: path1)


(Start cutting path id: path1)
(Change tool to Default tool)

G00 Z5.000000
G00 X143.195310 Y129.835990

G01 Z-1.000000 F100.0(Penetrate)
G03 X142.693187 Y129.913875 Z-1.000000 I-0.383751 J-0.816501 F400.000000
G03 X142.017580 Y129.673880 Z-1.000000 I0.225906 J-1.706887
G03 X140.978387 Y128.324470 Z-1.000000 I1.254182 J-2.040709
G03 X141.136720 Y126.753960 Z-1.000000 I1.972002 J-0.594426
G03 X141.371349 Y126.576381 Z-1.000000 I0.311260 J0.167464
G03 X142.476560 Y126.455130 Z-1.000000 I1.105211 J4.976411
G03 X143.778448 Y127.154691 Z-1.000000 I-0.000000 J1.561191
G03 X143.992190 Y128.746140 Z-1.000000 I-1.535622 J1.016322
G03 X143.601299 Y129.502883 Z-1.000000 I-2.552483 J-0.839141
G03 X143.195310 Y129.835990 Z-1.000000 I-0.861517 J-0.636050
G01 X143.195310 Y129.835990 Z-1.000000
G00 Z5.000000

(End cutting path id: path1)


(Start cutting path id: path1)
(Change tool to Default tool)

G00 Z5.000000
G00 X143.195310 Y129.835990

G01 Z-2.000000 F100.0(Penetrate)
G03 X142.693187 Y129.913875 Z-2.000000 I-0.383751 J-0.816501 F400.000000
G03 X142.017580 Y129.673880 Z-2.000000 I0.225906 J-1.706887
G03 X140.978387 Y128.324470 Z-2.000000 I1.254182 J-2.040709
G03 X141.136720 Y126.753960 Z-2.000000 I1.972002 J-0.594426
G03 X141.371349 Y126.576381 Z-2.000000 I0.311260 J0.167464
G03 X142.476560 Y126.455130 Z-2.000000 I1.105211 J4.976411
G03 X143.778448 Y127.154691 Z-2.000000 I-0.000000 J1.561191
G03 X143.992190 Y128.746140 Z-2.000000 I-1.535622 J1.016322
G03 X143.601299 Y129.502883 Z-2.000000 I-2.552483 J-0.839141
G03 X143.195310 Y129.835990 Z-2.000000 I-0.861517 J-0.636050
G01 X143.195310 Y129.835990 Z-2.000000
G00 Z5.000000

(End cutting path id: path1)


(Start cutting path id: path1)
(Change tool to Default tool)

G00 Z5.000000
G00 X143.195310 Y129.835990

G01 Z-3.000000 F100.0(Penetrate)
G03 X142.693187 Y129.913875 Z-3.000000 I-0.383751 J-0.816501 F400.000000
G03 X142.017580 Y129.673880 Z-3.000000 I0.225906 J-1.706887
G03 X140.978387 Y128.324470 Z-3.000000 I1.254182 J-2.040709
G03 X141.136720 Y126.753960 Z-3.000000 I1.972002 J-0.594426
G03 X141.371349 Y126.576381 Z-3.000000 I0.311260 J0.167464
G03 X142.476560 Y126.455130 Z-3.000000 I1.105211 J4.976411
G03 X143.778448 Y127.154691 Z-3.000000 I-0.000000 J1.561191
G03 X143.992190 Y128.746140 Z-3.000000 I-1.535622 J1.016322
G03 X143.601299 Y129.502883 Z-3.000000 I-2.552483 J-0.839141
G03 X143.195310 Y129.835990 Z-3.000000 I-0.861517 J-0.636050
G01 X143.195310 Y129.835990 Z-3.000000
G00 Z5.000000

(End cutting path id: path1)


(Start cutting path id: path2)
(Change tool to Default tool)

G00 Z5.000000
G00 X141.136860 Y126.754560

G01 Z-1.000000 F100.0(Penetrate)
G02 X140.978956 Y128.324831 Z-1.000000 I1.812231 J0.975310 F400.000000
G02 X142.018520 Y129.674010 Z-1.000000 I2.294621 J-0.692953
G02 X143.116391 Y129.735388 Z-1.000000 I0.605755 J-0.985644
G02 X143.991500 Y128.746680 Z-1.000000 I-0.709573 J-1.509680
G02 X143.778074 Y127.154479 Z-1.000000 I-1.751063 J-0.575685
G02 X142.476140 Y126.454460 Z-1.000000 I-1.301934 J0.860696
G02 X141.371408 Y126.576719 Z-1.000000 I0.000000 J5.052324
G02 X141.136860 Y126.754560 Z-1.000000 I0.077482 J0.345776
G01 X141.136860 Y126.754560 Z-1.000000
G00 Z5.000000

(End cutting path id: path2)


(Start cutting path id: path2)
(Change tool to Default tool)

G00 Z5.000000
G00 X141.136860 Y126.754560

G01 Z-2.000000 F100.0(Penetrate)
G02 X140.978956 Y128.324831 Z-2.000000 I1.812231 J0.975310 F400.000000
G02 X142.018520 Y129.674010 Z-2.000000 I2.294621 J-0.692953
G02 X143.116391 Y129.735388 Z-2.000000 I0.605755 J-0.985644
G02 X143.991500 Y128.746680 Z-2.000000 I-0.709573 J-1.509680
G02 X143.778074 Y127.154479 Z-2.000000 I-1.751063 J-0.575685
G02 X142.476140 Y126.454460 Z-2.000000 I-1.301934 J0.860696
G02 X141.371408 Y126.576719 Z-2.000000 I0.000000 J5.052324
G02 X141.136860 Y126.754560 Z-2.000000 I0.077482 J0.345776
G01 X141.136860 Y126.754560 Z-2.000000
G00 Z5.000000

(End cutting path id: path2)


(Start cutting path id: path2)
(Change tool to Default tool)

G00 Z5.000000
G00 X141.136860 Y126.754560

G01 Z-3.000000 F100.0(Penetrate)
G02 X140.978956 Y128.324831 Z-3.000000 I1.812231 J0.975310 F400.000000
G02 X142.018520 Y129.674010 Z-3.000000 I2.294621 J-0.692953
G02 X143.116391 Y129.735388 Z-3.000000 I0.605755 J-0.985644
G02 X143.991500 Y128.746680 Z-3.000000 I-0.709573 J-1.509680
G02 X143.778074 Y127.154479 Z-3.000000 I-1.751063 J-0.575685
G02 X142.476140 Y126.454460 Z-3.000000 I-1.301934 J0.860696
G02 X141.371408 Y126.576719 Z-3.000000 I0.000000 J5.052324
G02 X141.136860 Y126.754560 Z-3.000000 I0.077482 J0.345776
G01 X141.136860 Y126.754560 Z-3.000000
G00 Z5.000000

(End cutting path id: path2)


(Start cutting path id: path2)
(Change tool to Default tool)

G00 Z5.000000
G00 X143.720490 Y125.686190

G01 Z-1.000000 F100.0(Penetrate)
G03 X144.959404 Y128.572100 Z-1.000000 I-1.426652 J2.321344 F400.000000
G03 X142.601210 Y130.970820 Z-1.000000 I-3.057850 J-0.647651
G03 X141.048338 Y130.477692 Z-1.000000 I-0.358730 J-1.561929
G03 X140.220120 Y128.310490 Z-1.000000 I2.421354 J-2.167202
G03 X141.480864 Y125.789566 Z-1.000000 I3.150731 J0.000000
G03 X143.720490 Y125.686190 Z-1.000000 I1.195821 J1.595024
G01 X143.720490 Y125.686190 Z-1.000000
G00 Z5.000000

(End cutting path id: path2)


(Start cutting path id: path2)
(Change tool to Default tool)

G00 Z5.000000
G00 X143.720490 Y125.686190

G01 Z-2.000000 F100.0(Penetrate)
G03 X144.959404 Y128.572100 Z-2.000000 I-1.426652 J2.321344 F400.000000
G03 X142.601210 Y130.970820 Z-2.000000 I-3.057850 J-0.647651
G03 X141.048338 Y130.477692 Z-2.000000 I-0.358730 J-1.561929
G03 X140.220120 Y128.310490 Z-2.000000 I2.421354 J-2.167202
G03 X141.480864 Y125.789566 Z-2.000000 I3.150731 J0.000000
G03 X143.720490 Y125.686190 Z-2.000000 I1.195821 J1.595024
G01 X143.720490 Y125.686190 Z-2.000000
G00 Z5.000000

(End cutting path id: path2)


(Start cutting path id: path2)
(Change tool to Default tool)

G00 Z5.000000
G00 X143.720490 Y125.686190

G01 Z-3.000000 F100.0(Penetrate)
G03 X144.959404 Y128.572100 Z-3.000000 I-1.426652 J2.321344 F400.000000
G03 X142.601210 Y130.970820 Z-3.000000 I-3.057850 J-0.647651
G03 X141.048338 Y130.477692 Z-3.000000 I-0.358730 J-1.561929
G03 X140.220120 Y128.310490 Z-3.000000 I2.421354 J-2.167202
G03 X141.480864 Y125.789566 Z-3.000000 I3.150731 J0.000000
G03 X143.720490 Y125.686190 Z-3.000000 I1.195821 J1.595024
G01 X143.720490 Y125.686190 Z-3.000000
G00 Z5.000000

(End cutting path id: path2)


(Start cutting path id: path2)
(Change tool to Default tool)

G00 Z5.000000
G00 X148.173820 Y123.674650

G01 Z-1.000000 F100.0(Penetrate)
G02 X149.493981 Y125.173043 Z-1.000000 I17.252450 J-13.869535 F400.000000
G02 X149.706020 Y125.263120 Z-1.000000 I0.212039 J-0.204528
G02 X149.757496 Y125.167108 Z-1.000000 I0.000000 J-0.061805
G02 X148.650440 Y123.674650 Z-1.000000 I-14.976839 J9.952503
G02 X147.302736 Y122.164566 Z-1.000000 I-20.158595 J16.634504
G02 X147.118240 Y122.086190 Z-1.000000 I-0.184496 J0.177961
G02 X147.072981 Y122.170606 Z-1.000000 I0.000000 J0.054341
G02 X148.173820 Y123.674650 Z-1.000000 I17.136861 J-11.387916
G01 X148.173820 Y123.674650 Z-1.000000
G00 Z5.000000

(End cutting path id: path2)


(Start cutting path id: path2)
(Change tool to Default tool)

G00 Z5.000000
G00 X148.173820 Y123.674650

G01 Z-2.000000 F100.0(Penetrate)
G02 X149.493981 Y125.173043 Z-2.000000 I17.252450 J-13.869535 F400.000000
G02 X149.706020 Y125.263120 Z-2.000000 I0.212039 J-0.204528
G02 X149.757496 Y125.167108 Z-2.000000 I0.000000 J-0.061805
G02 X148.650440 Y123.674650 Z-2.000000 I-14.976839 J9.952503
G02 X147.302736 Y122.164566 Z-2.000000 I-20.158595 J16.634504
G02 X147.118240 Y122.086190 Z-2.000000 I-0.184496 J0.177961
G02 X147.072981 Y122.170606 Z-2.000000 I0.000000 J0.054341
G02 X148.173820 Y123.674650 Z-2.000000 I17.136861 J-11.387916
G01 X148.173820 Y123.674650 Z-2.000000
G00 Z5.000000

(End cutting path id: path2)


(Start cutting path id: path2)
(Change tool to Default tool)

G00 Z5.000000
G00 X148.173820 Y123.674650

G01 Z-3.000000 F100.0(Penetrate)
G02 X149.493981 Y125.173043 Z-3.000000 I17.252450 J-13.869535 F400.000000
G02 X149.706020 Y125.263120 Z-3.000000 I0.212039 J-0.204528
G02 X149.757496 Y125.167108 Z-3.000000 I0.000000 J-0.061805
G02 X148.650440 Y123.674650 Z-3.000000 I-14.976839 J9.952503
G02 X147.302736 Y122.164566 Z-3.000000 I-20.158595 J16.634504
G02 X147.118240 Y122.086190 Z-3.000000 I-0.184496 J0.177961
G02 X147.072981 Y122.170606 Z-3.000000 I0.000000 J0.054341
G02 X148.173820 Y123.674650 Z-3.000000 I17.136861 J-11.387916
G01 X148.173820 Y123.674650 Z-3.000000
G00 Z5.000000

(End cutting path id: path2)


(Start cutting path id: path1)
(Change tool to Default tool)

G00 Z5.000000
G00 X149.705080 Y125.263720

G01 Z-1.000000 F100.0(Penetrate)
G03 X149.493141 Y125.173503 Z-1.000000 I0.000000 J-0.294055 F400.000000
G03 X148.173830 Y123.673880 Z-1.000000 I16.218529 J-15.598588
G03 X147.073869 Y122.170387 Z-1.000000 I15.955267 J-12.827037
G03 X147.119140 Y122.085990 Z-1.000000 I0.045271 J-0.030057
G03 X147.303526 Y122.164348 Z-1.000000 I0.000000 J0.256122
G03 X148.650390 Y123.673880 Z-1.000000 I-18.869076 J18.191355
G03 X149.756711 Y125.167584 Z-1.000000 I-13.684405 J11.291992
G03 X149.705080 Y125.263720 Z-1.000000 I-0.051631 J0.034204
G01 X149.705080 Y125.263720 Z-1.000000
G00 Z5.000000

(End cutting path id: path1)


(Start cutting path id: path1)
(Change tool to Default tool)

G00 Z5.000000
G00 X149.705080 Y125.263720

G01 Z-2.000000 F100.0(Penetrate)
G03 X149.493141 Y125.173503 Z-2.000000 I0.000000 J-0.294055 F400.000000
G03 X148.173830 Y123.673880 Z-2.000000 I16.218529 J-15.598588
G03 X147.073869 Y122.170387 Z-2.000000 I15.955267 J-12.827037
G03 X147.119140 Y122.085990 Z-2.000000 I0.045271 J-0.030057
G03 X147.303526 Y122.164348 Z-2.000000 I0.000000 J0.256122
G03 X148.650390 Y123.673880 Z-2.000000 I-18.869076 J18.191355
G03 X149.756711 Y125.167584 Z-2.000000 I-13.684405 J11.291992
G03 X149.705080 Y125.263720 Z-2.000000 I-0.051631 J0.034204
G01 X149.705080 Y125.263720 Z-2.000000
G00 Z5.000000

(End cutting path id: path1)


(Start cutting path id: path1)
(Change tool to Default tool)

G00 Z5.000000
G00 X149.705080 Y125.263720

G01 Z-3.000000 F100.0(Penetrate)
G03 X149.493141 Y125.173503 Z-3.000000 I0.000000 J-0.294055 F400.000000
G03 X148.173830 Y123.673880 Z-3.000000 I16.218529 J-15.598588
G03 X147.073869 Y122.170387 Z-3.000000 I15.955267 J-12.827037
G03 X147.119140 Y122.085990 Z-3.000000 I0.045271 J-0.030057
G03 X147.303526 Y122.164348 Z-3.000000 I0.000000 J0.256122
G03 X148.650390 Y123.673880 Z-3.000000 I-18.869076 J18.191355
G03 X149.756711 Y125.167584 Z-3.000000 I-13.684405 J11.291992
G03 X149.705080 Y125.263720 Z-3.000000 I-0.051631 J0.034204
G01 X149.705080 Y125.263720 Z-3.000000
G00 Z5.000000

(End cutting path id: path1)


(Start cutting path id: path2)
(Change tool to Default tool)

G00 Z5.000000
G00 X151.286130 Y128.676750

G01 Z-1.000000 F100.0(Penetrate)
G03 X150.402312 Y132.677472 Z-1.000000 I-9.496811 J-0.000000 F400.000000
G03 X146.826240 Y138.278300 Z-1.000000 I-22.656624 J-10.523967
G03 X144.051826 Y140.331164 Z-1.000000 I-5.729215 J-4.841724
G03 X140.072060 Y141.172930 Z-1.000000 I-4.104696 J-9.577695
G02 X138.848120 Y141.388718 Z-1.000000 I0.045983 J3.839777
G02 X138.836870 Y141.605760 Z-1.000000 I0.038836 J0.110826
G02 X141.459111 Y142.050160 Z-1.000000 I2.105529 J-4.465313
G02 X144.637910 Y140.995220 Z-1.000000 I-0.819397 J-7.785776
G02 X147.592397 Y138.331088 Z-1.000000 I-5.170458 J-8.704280
G02 X150.769830 Y132.746820 Z-1.000000 I-21.191975 J-15.754282
G02 X152.151943 Y127.856582 Z-1.000000 I-19.602623 J-8.180661
G02 X151.631950 Y127.248700 Z-1.000000 I-0.519993 J-0.081535
G02 X151.438403 Y127.400971 Z-1.000000 I0.000000 J0.199141
G02 X151.286130 Y128.676750 Z-1.000000 I5.268242 J1.275779
G01 X151.286130 Y128.676750 Z-1.000000
G00 Z5.000000

(End cutting path id: path2)


(Start cutting path id: path2)
(Change tool to Default tool)

G00 Z5.000000
G00 X151.286130 Y128.676750

G01 Z-2.000000 F100.0(Penetrate)
G03 X150.402312 Y132.677472 Z-2.000000 I-9.496811 J-0.000000 F400.000000
G03 X146.826240 Y138.278300 Z-2.000000 I-22.656624 J-10.523967
G03 X144.051826 Y140.331164 Z-2.000000 I-5.729215 J-4.841724
G03 X140.072060 Y141.172930 Z-2.000000 I-4.104696 J-9.577695
G02 X138.848120 Y141.388718 Z-2.000000 I0.045983 J3.839777
G02 X138.836870 Y141.605760 Z-2.000000 I0.038836 J0.110826
G02 X141.459111 Y142.050160 Z-2.000000 I2.105529 J-4.465313
G02 X144.637910 Y140.995220 Z-2.000000 I-0.819397 J-7.785776
G02 X147.592397 Y138.331088 Z-2.000000 I-5.170458 J-8.704280
G02 X150.769830 Y132.746820 Z-2.000000 I-21.191975 J-15.754282
G02 X152.151943 Y127.856582 Z-2.000000 I-19.602623 J-8.180661
G02 X151.631950 Y127.248700 Z-2.000000 I-0.519993 J-0.081535
G02 X151.438403 Y127.400971 Z-2.000000 I0.000000 J0.199141
G02 X151.286130 Y128.676750 Z-2.000000 I5.268242 J1.275779
G01 X151.286130 Y128.676750 Z-2.000000
G00 Z5.000000

(End cutting path id: path2)


(Start cutting path id: path2)
(Change tool to Default tool)

G00 Z5.000000
G00 X151.286130 Y128.676750

G01 Z-3.000000 F100.0(Penetrate)
G03 X150.402312 Y132.677472 Z-3.000000 I-9.496811 J-0.000000 F400.000000
G03 X146.826240 Y138.278300 Z-3.000000 I-22.656624 J-10.523967
G03 X144.051826 Y140.331164 Z-3.000000 I-5.729215 J-4.841724
G03 X140.072060 Y141.172930 Z-3.000000 I-4.104696 J-9.577695
G02 X138.848120 Y141.388718 Z-3.000000 I0.045983 J3.839777
G02 X138.836870 Y141.605760 Z-3.000000 I0.038836 J0.110826
G02 X141.459111 Y142.050160 Z-3.000000 I2.105529 J-4.465313
G02 X144.637910 Y140.995220 Z-3.000000 I-0.819397 J-7.785776
G02 X147.592397 Y138.331088 Z-3.000000 I-5.170458 J-8.704280
G02 X150.769830 Y132.746820 Z-3.000000 I-21.191975 J-15.754282
G02 X152.151943 Y127.856582 Z-3.000000 I-19.602623 J-8.180661
G02 X151.631950 Y127.248700 Z-3.000000 I-0.519993 J-0.081535
G02 X151.438403 Y127.400971 Z-3.000000 I0.000000 J0.199141
G02 X151.286130 Y128.676750 Z-3.000000 I5.268242 J1.275779
G01 X151.286130 Y128.676750 Z-3.000000
G00 Z5.000000

(End cutting path id: path2)


(Start cutting path id: path2)
(Change tool to Default tool)

G00 Z5.000000
G00 X152.618750 Y129.631390

G01 Z-1.000000 F100.0(Penetrate)
G02 X152.826639 Y133.456082 Z-1.000000 I5.234423 J1.633482 F400.000000
G02 X154.869240 Y134.793900 Z-1.000000 I2.042601 J-0.890428
G02 X154.946604 Y134.666187 Z-1.000000 I0.000000 J-0.087289
G02 X154.282330 Y133.670610 Z-1.000000 I-4.971326 J2.597595
G03 X153.544741 Y132.457250 Z-1.000000 I3.669899 J-3.061759
G03 X153.074910 Y130.791520 Z-1.000000 I6.547682 J-2.745946
G02 X152.760336 Y129.626281 Z-1.000000 I-5.387057 J0.829237
G02 X152.618750 Y129.631390 Z-1.000000 I-0.069894 J0.027482
G01 X152.618750 Y129.631390 Z-1.000000
G00 Z5.000000

(End cutting path id: path2)


(Start cutting path id: path2)
(Change tool to Default tool)

G00 Z5.000000
G00 X152.618750 Y129.631390

G01 Z-2.000000 F100.0(Penetrate)
G02 X152.826639 Y133.456082 Z-2.000000 I5.234423 J1.633482 F400.000000
G02 X154.869240 Y134.793900 Z-2.000000 I2.042601 J-0.890428
G02 X154.946604 Y134.666187 Z-2.000000 I0.000000 J-0.087289
G02 X154.282330 Y133.670610 Z-2.000000 I-4.971326 J2.597595
G03 X153.544741 Y132.457250 Z-2.000000 I3.669899 J-3.061759
G03 X153.074910 Y130.791520 Z-2.000000 I6.547682 J-2.745946
G02 X152.760336 Y129.626281 Z-2.000000 I-5.387057 J0.829237
G02 X152.618750 Y129.631390 Z-2.000000 I-0.069894 J0.027482
G01 X152.618750 Y129.631390 Z-2.000000
G00 Z5.000000

(End cutting path id: path2)


(Start cutting path id: path2)
(Change tool to Default tool)

G00 Z5.000000
G00 X152.618750 Y129.631390

G01 Z-3.000000 F100.0(Penetrate)
G02 X152.826639 Y133.456082 Z-3.000000 I5.234423 J1.633482 F400.000000
G02 X154.869240 Y134.793900 Z-3.000000 I2.042601 J-0.890428
G02 X154.946604 Y134.666187 Z-3.000000 I0.000000 J-0.087289
G02 X154.282330 Y133.670610 Z-3.000000 I-4.971326 J2.597595
G03 X153.544741 Y132.457250 Z-3.000000 I3.669899 J-3.061759
G03 X153.074910 Y130.791520 Z-3.000000 I6.547682 J-2.745946
G02 X152.760336 Y129.626281 Z-3.000000 I-5.387057 J0.829237
G02 X152.618750 Y129.631390 Z-3.000000 I-0.069894 J0.027482
G01 X152.618750 Y129.631390 Z-3.000000
G00 Z5.000000

(End cutting path id: path2)


(Start cutting path id: path2)
(Change tool to Default tool)

G00 Z5.000000
G00 X154.439460 Y128.129550

G01 Z-1.000000 F100.0(Penetrate)
G02 X155.056524 Y128.994789 Z-1.000000 I1.935193 J-0.727470 F400.000000
G02 X156.437360 Y129.783020 Z-1.000000 I2.950477 J-3.565091
G02 X159.549520 Y130.614390 Z-1.000000 I6.433810 J-17.843667
G02 X159.727680 Y130.368260 Z-1.000000 I0.029553 J-0.166153
G02 X159.471818 Y130.150714 Z-1.000000 I-0.406379 J0.218717
G02 X158.742930 Y130.028510 Z-1.000000 I-0.728888 J2.112633
G03 X156.449470 Y129.470378 Z-1.000000 I0.000000 J-4.991173
G03 X154.648330 Y127.910140 Z-1.000000 I2.337481 J-4.518129
G02 X154.486388 Y127.898764 Z-1.000000 I-0.085672 J0.061230
G02 X154.439460 Y128.129550 Z-1.000000 I0.160515 J0.152803
G01 X154.439460 Y128.129550 Z-1.000000
G00 Z5.000000

(End cutting path id: path2)


(Start cutting path id: path2)
(Change tool to Default tool)

G00 Z5.000000
G00 X154.439460 Y128.129550

G01 Z-2.000000 F100.0(Penetrate)
G02 X155.056524 Y128.994789 Z-2.000000 I1.935193 J-0.727470 F400.000000
G02 X156.437360 Y129.783020 Z-2.000000 I2.950477 J-3.565091
G02 X159.549520 Y130.614390 Z-2.000000 I6.433810 J-17.843667
G02 X159.727680 Y130.368260 Z-2.000000 I0.029553 J-0.166153
G02 X159.471818 Y130.150714 Z-2.000000 I-0.406379 J0.218717
G02 X158.742930 Y130.028510 Z-2.000000 I-0.728888 J2.112633
G03 X156.449470 Y129.470378 Z-2.000000 I0.000000 J-4.991173
G03 X154.648330 Y127.910140 Z-2.000000 I2.337481 J-4.518129
G02 X154.486388 Y127.898764 Z-2.000000 I-0.085672 J0.061230
G02 X154.439460 Y128.129550 Z-2.000000 I0.160515 J0.152803
G01 X154.439460 Y128.129550 Z-2.000000
G00 Z5.000000

(End cutting path id: path2)


(Start cutting path id: path2)
(Change tool to Default tool)

G00 Z5.000000
G00 X154.439460 Y128.129550

G01 Z-3.000000 F100.0(Penetrate)
G02 X155.056524 Y128.994789 Z-3.000000 I1.935193 J-0.727470 F400.000000
G02 X156.437360 Y129.783020 Z-3.000000 I2.950477 J-3.565091
G02 X159.549520 Y130.614390 Z-3.000000 I6.433810 J-17.843667
G02 X159.727680 Y130.368260 Z-3.000000 I0.029553 J-0.166153
G02 X159.471818 Y130.150714 Z-3.000000 I-0.406379 J0.218717
G02 X158.742930 Y130.028510 Z-3.000000 I-0.728888 J2.112633
G03 X156.449470 Y129.470378 Z-3.000000 I0.000000 J-4.991173
G03 X154.648330 Y127.910140 Z-3.000000 I2.337481 J-4.518129
G02 X154.486388 Y127.898764 Z-3.000000 I-0.085672 J0.061230
G02 X154.439460 Y128.129550 Z-3.000000 I0.160515 J0.152803
G01 X154.439460 Y128.129550 Z-3.000000
G00 Z5.000000

(End cutting path id: path2)


(Start cutting path id: path1)
(Change tool to Default tool)

G00 Z5.000000
G00 X154.593750 Y126.472710

G01 Z-1.000000 F100.0(Penetrate)
G03 X154.469540 Y126.437881 Z-1.000000 I-0.038838 J-0.100393 F400.000000
G03 X154.398440 Y126.228570 Z-1.000000 I0.272547 J-0.209311
G03 X154.572466 Y125.748715 Z-1.000000 I0.748584 J-0.000000
G03 X155.263670 Y125.191460 Z-1.000000 I1.745563 J1.457847
G02 X156.010927 Y124.667653 Z-1.000000 I-1.640280 J-3.134920
G02 X156.126950 Y124.404350 Z-1.000000 I-0.240758 J-0.263303
G02 X155.724600 Y124.116677 Z-1.000000 I-0.304016 J0.000000
G02 X154.193360 Y125.064500 Z-1.000000 I1.306029 J3.820728
G03 X153.135998 Y125.930192 Z-1.000000 I-5.164695 J-5.229612
G03 X152.722660 Y126.056690 Z-1.000000 I-0.414091 J-0.614514
G03 X152.642777 Y125.902273 Z-1.000000 I-0.000103 J-0.097817
G03 X153.707030 Y124.668020 Z-1.000000 I7.040902 J4.995160
G03 X155.193984 Y123.372808 Z-1.000000 I14.195572 J14.795929
G03 X155.468750 Y123.277390 Z-1.000000 I0.274766 J0.347898
G02 X155.664311 Y123.155219 Z-1.000000 I-0.000000 J-0.217604
G02 X155.808590 Y122.582080 Z-1.000000 I-1.289800 J-0.629417
G03 X155.924323 Y122.539211 Z-1.000000 I0.066776 J0.002617
G03 X156.187500 Y122.990280 Z-1.000000 I-0.874656 J0.812629
G02 X156.880866 Y123.539882 Z-1.000000 I0.754568 J-0.239778
G02 X160.277340 Y123.306690 Z-1.000000 I0.904913 J-11.671484
G02 X160.844372 Y123.031756 Z-1.000000 I-0.285625 J-1.311279
G02 X160.796880 Y122.878960 Z-1.000000 I-0.054892 J-0.066717
G02 X159.760043 Y122.827965 Z-1.000000 I-1.212972 J14.096172
G02 X159.154300 Y122.859460 Z-1.000000 I-0.058670 J4.712408
G03 X158.848299 Y122.459766 Z-1.000000 I-0.033984 J-0.290964
G03 X160.017580 Y120.701250 Z-1.000000 I4.781130 J1.911092
G03 X165.995280 Y116.729283 Z-1.000000 I13.260389 J13.472398
G03 X170.529300 Y116.312580 Z-1.000000 I2.931515 J7.021913
G03 X173.302872 Y117.735920 Z-1.000000 I-1.267683 J5.884266
G03 X174.109380 Y119.554770 Z-1.000000 I-1.647765 J1.818880
G03 X174.019348 Y119.891522 Z-1.000000 I-0.675054 J-0.000067
G03 X173.046880 Y121.400470 Z-1.000000 I-15.536481 J-8.944922
G01 X171.984380 Y122.880940 Z-1.000000
G01 X173.291020 Y122.880940 Z-1.000000
G02 X174.426897 Y122.511134 Z-1.000000 I-0.000000 J-1.929355
G02 X176.699220 Y120.398520 Z-1.000000 I-7.661113 J-10.518635
G02 X178.566074 Y117.794825 Z-1.000000 I-15.252947 J-12.907505
G02 X179.269530 Y116.128990 Z-1.000000 I-5.465216 J-3.289323
G03 X179.749323 Y114.769877 Z-1.000000 I8.507861 J2.239193
G03 X179.875000 Y114.777420 Z-1.000000 I0.061413 J0.027526
G03 X179.752229 Y116.364748 Z-1.000000 I-2.055835 J0.639404
G03 X176.802730 Y121.041100 Z-1.000000 I-23.286638 J-11.419158
G03 X174.294867 Y122.679546 Z-1.000000 I-3.704732 J-2.932059
G03 X166.156250 Y123.830160 Z-1.000000 I-9.020773 J-34.447789
G02 X157.306812 Y124.772242 Z-1.000000 I1.357661 J54.787781
G02 X155.261720 Y125.894610 Z-1.000000 I0.702070 J3.703645
G03 X154.776089 Y126.362648 Z-1.000000 I-4.960350 J-4.660845
G03 X154.593750 Y126.472740 Z-1.000000 I-0.403971 J-0.463028
G01 X154.593750 Y126.472710 Z-1.000000
G00 Z5.000000

(End cutting path id: path1)


(Start cutting path id: path1)
(Change tool to Default tool)

G00 Z5.000000
G00 X154.593750 Y126.472710

G01 Z-2.000000 F100.0(Penetrate)
G03 X154.469540 Y126.437881 Z-2.000000 I-0.038838 J-0.100393 F400.000000
G03 X154.398440 Y126.228570 Z-2.000000 I0.272547 J-0.209311
G03 X154.572466 Y125.748715 Z-2.000000 I0.748584 J-0.000000
G03 X155.263670 Y125.191460 Z-2.000000 I1.745563 J1.457847
G02 X156.010927 Y124.667653 Z-2.000000 I-1.640280 J-3.134920
G02 X156.126950 Y124.404350 Z-2.000000 I-0.240758 J-0.263303
G02 X155.724600 Y124.116677 Z-2.000000 I-0.304016 J0.000000
G02 X154.193360 Y125.064500 Z-2.000000 I1.306029 J3.820728
G03 X153.135998 Y125.930192 Z-2.000000 I-5.164695 J-5.229612
G03 X152.722660 Y126.056690 Z-2.000000 I-0.414091 J-0.614514
G03 X152.642777 Y125.902273 Z-2.000000 I-0.000103 J-0.097817
G03 X153.707030 Y124.668020 Z-2.000000 I7.040902 J4.995160
G03 X155.193984 Y123.372808 Z-2.000000 I14.195572 J14.795929
G03 X155.468750 Y123.277390 Z-2.000000 I0.274766 J0.347898
G02 X155.664311 Y123.155219 Z-2.000000 I-0.000000 J-0.217604
G02 X155.808590 Y122.582080 Z-2.000000 I-1.289800 J-0.629417
G03 X155.924323 Y122.539211 Z-2.000000 I0.066776 J0.002617
G03 X156.187500 Y122.990280 Z-2.000000 I-0.874656 J0.812629
G02 X156.880866 Y123.539882 Z-2.000000 I0.754568 J-0.239778
G02 X160.277340 Y123.306690 Z-2.000000 I0.904913 J-11.671484
G02 X160.844372 Y123.031756 Z-2.000000 I-0.285625 J-1.311279
G02 X160.796880 Y122.878960 Z-2.000000 I-0.054892 J-0.066717
G02 X159.760043 Y122.827965 Z-2.000000 I-1.212972 J14.096172
G02 X159.154300 Y122.859460 Z-2.000000 I-0.058670 J4.712408
G03 X158.848299 Y122.459766 Z-2.000000 I-0.033984 J-0.290964
G03 X160.017580 Y120.701250 Z-2.000000 I4.781130 J1.911092
G03 X165.995280 Y116.729283 Z-2.000000 I13.260389 J13.472398
G03 X170.529300 Y116.312580 Z-2.000000 I2.931515 J7.021913
G03 X173.302872 Y117.735920 Z-2.000000 I-1.267683 J5.884266
G03 X174.109380 Y119.554770 Z-2.000000 I-1.647765 J1.818880
G03 X174.019348 Y119.891522 Z-2.000000 I-0.675054 J-0.000067
G03 X173.046880 Y121.400470 Z-2.000000 I-15.536481 J-8.944922
G01 X171.984380 Y122.880940 Z-2.000000
G01 X173.291020 Y122.880940 Z-2.000000
G02 X174.426897 Y122.511134 Z-2.000000 I-0.000000 J-1.929355
G02 X176.699220 Y120.398520 Z-2.000000 I-7.661113 J-10.518635
G02 X178.566074 Y117.794825 Z-2.000000 I-15.252947 J-12.907505
G02 X179.269530 Y116.128990 Z-2.000000 I-5.465216 J-3.289323
G03 X179.749323 Y114.769877 Z-2.000000 I8.507861 J2.239193
G03 X179.875000 Y114.777420 Z-2.000000 I0.061413 J0.027526
G03 X179.752229 Y116.364748 Z-2.000000 I-2.055835 J0.639404
G03 X176.802730 Y121.041100 Z-2.000000 I-23.286638 J-11.419158
G03 X174.294867 Y122.679546 Z-2.000000 I-3.704732 J-2.932059
G03 X166.156250 Y123.830160 Z-2.000000 I-9.020773 J-34.447789
G02 X157.306812 Y124.772242 Z-2.000000 I1.357661 J54.787781
G02 X155.261720 Y125.894610 Z-2.000000 I0.702070 J3.703645
G03 X154.776089 Y126.362648 Z-2.000000 I-4.960350 J-4.660845
G03 X154.593750 Y126.472740 Z-2.000000 I-0.403971 J-0.463028
G01 X154.593750 Y126.472710 Z-2.000000
G00 Z5.000000

(End cutting path id: path1)


(Start cutting path id: path1)
(Change tool to Default tool)

G00 Z5.000000
G00 X154.593750 Y126.472710

G01 Z-3.000000 F100.0(Penetrate)
G03 X154.469540 Y126.437881 Z-3.000000 I-0.038838 J-0.100393 F400.000000
G03 X154.398440 Y126.228570 Z-3.000000 I0.272547 J-0.209311
G03 X154.572466 Y125.748715 Z-3.000000 I0.748584 J-0.000000
G03 X155.263670 Y125.191460 Z-3.000000 I1.745563 J1.457847
G02 X156.010927 Y124.667653 Z-3.000000 I-1.640280 J-3.134920
G02 X156.126950 Y124.404350 Z-3.000000 I-0.240758 J-0.263303
G02 X155.724600 Y124.116677 Z-3.000000 I-0.304016 J0.000000
G02 X154.193360 Y125.064500 Z-3.000000 I1.306029 J3.820728
G03 X153.135998 Y125.930192 Z-3.000000 I-5.164695 J-5.229612
G03 X152.722660 Y126.056690 Z-3.000000 I-0.414091 J-0.614514
G03 X152.642777 Y125.902273 Z-3.000000 I-0.000103 J-0.097817
G03 X153.707030 Y124.668020 Z-3.000000 I7.040902 J4.995160
G03 X155.193984 Y123.372808 Z-3.000000 I14.195572 J14.795929
G03 X155.468750 Y123.277390 Z-3.000000 I0.274766 J0.347898
G02 X155.664311 Y123.155219 Z-3.000000 I-0.000000 J-0.217604
G02 X155.808590 Y122.582080 Z-3.000000 I-1.289800 J-0.629417
G03 X155.924323 Y122.539211 Z-3.000000 I0.066776 J0.002617
G03 X156.187500 Y122.990280 Z-3.000000 I-0.874656 J0.812629
G02 X156.880866 Y123.539882 Z-3.000000 I0.754568 J-0.239778
G02 X160.277340 Y123.306690 Z-3.000000 I0.904913 J-11.671484
G02 X160.844372 Y123.031756 Z-3.000000 I-0.285625 J-1.311279
G02 X160.796880 Y122.878960 Z-3.000000 I-0.054892 J-0.066717
G02 X159.760043 Y122.827965 Z-3.000000 I-1.212972 J14.096172
G02 X159.154300 Y122.859460 Z-3.000000 I-0.058670 J4.712408
G03 X158.848299 Y122.459766 Z-3.000000 I-0.033984 J-0.290964
G03 X160.017580 Y120.701250 Z-3.000000 I4.781130 J1.911092
G03 X165.995280 Y116.729283 Z-3.000000 I13.260389 J13.472398
G03 X170.529300 Y116.312580 Z-3.000000 I2.931515 J7.021913
G03 X173.302872 Y117.735920 Z-3.000000 I-1.267683 J5.884266
G03 X174.109380 Y119.554770 Z-3.000000 I-1.647765 J1.818880
G03 X174.019348 Y119.891522 Z-3.000000 I-0.675054 J-0.000067
G03 X173.046880 Y121.400470 Z-3.000000 I-15.536481 J-8.944922
G01 X171.984380 Y122.880940 Z-3.000000
G01 X173.291020 Y122.880940 Z-3.000000
G02 X174.426897 Y122.511134 Z-3.000000 I-0.000000 J-1.929355
G02 X176.699220 Y120.398520 Z-3.000000 I-7.661113 J-10.518635
G02 X178.566074 Y117.794825 Z-3.000000 I-15.252947 J-12.907505
G02 X179.269530 Y116.128990 Z-3.000000 I-5.465216 J-3.289323
G03 X179.749323 Y114.769877 Z-3.000000 I8.507861 J2.239193
G03 X179.875000 Y114.777420 Z-3.000000 I0.061413 J0.027526
G03 X179.752229 Y116.364748 Z-3.000000 I-2.055835 J0.639404
G03 X176.802730 Y121.041100 Z-3.000000 I-23.286638 J-11.419158
G03 X174.294867 Y122.679546 Z-3.000000 I-3.704732 J-2.932059
G03 X166.156250 Y123.830160 Z-3.000000 I-9.020773 J-34.447789
G02 X157.306812 Y124.772242 Z-3.000000 I1.357661 J54.787781
G02 X155.261720 Y125.894610 Z-3.000000 I0.702070 J3.703645
G03 X154.776089 Y126.362648 Z-3.000000 I-4.960350 J-4.660845
G03 X154.593750 Y126.472740 Z-3.000000 I-0.403971 J-0.463028
G01 X154.593750 Y126.472710 Z-3.000000
G00 Z5.000000

(End cutting path id: path1)


(Start cutting path id: path1)
(Change tool to Default tool)

G00 Z5.000000
G00 X156.138670 Y121.414110

G01 Z-1.000000 F100.0(Penetrate)
G03 X156.278399 Y121.005131 Z-1.000000 I0.626209 J-0.014413 F400.000000
G03 X157.587890 Y119.627000 Z-1.000000 I9.424317 J7.643723
G02 X158.990649 Y118.258977 Z-1.000000 I-16.246883 J-18.062616
G02 X160.613280 Y116.429740 Z-1.000000 I-27.777613 J-26.274524
G03 X162.197597 Y114.584239 Z-1.000000 I59.340508 J49.339582
G03 X162.285160 Y114.543020 Z-1.000000 I0.091767 J0.081326
G01 X162.315701 Y114.587419 Z-1.000000
G03 X161.791020 Y115.709030 Z-1.000000 I-15.189582 J-6.422049
G03 X161.051360 Y116.764675 Z-1.000000 I-4.224817 J-2.173256
G03 X159.007810 Y118.714890 Z-1.000000 I-16.853423 J-15.614223
G02 X156.917464 Y120.630140 Z-1.000000 I22.190381 J26.317427
G02 X156.486330 Y121.222710 Z-1.000000 I1.633255 J1.641425
G03 X156.243114 Y121.474204 Z-1.000000 I-0.530178 J-0.269375
G03 X156.138670 Y121.414110 Z-1.000000 I-0.034001 J-0.061715
G01 X156.138670 Y121.414110 Z-1.000000
G00 Z5.000000

(End cutting path id: path1)


(Start cutting path id: path1)
(Change tool to Default tool)

G00 Z5.000000
G00 X156.138670 Y121.414110

G01 Z-2.000000 F100.0(Penetrate)
G03 X156.278399 Y121.005131 Z-2.000000 I0.626209 J-0.014413 F400.000000
G03 X157.587890 Y119.627000 Z-2.000000 I9.424317 J7.643723
G02 X158.990649 Y118.258977 Z-2.000000 I-16.246883 J-18.062616
G02 X160.613280 Y116.429740 Z-2.000000 I-27.777613 J-26.274524
G03 X162.197597 Y114.584239 Z-2.000000 I59.340508 J49.339582
G03 X162.285160 Y114.543020 Z-2.000000 I0.091767 J0.081326
G01 X162.315701 Y114.587419 Z-2.000000
G03 X161.791020 Y115.709030 Z-2.000000 I-15.189582 J-6.422049
G03 X161.051360 Y116.764675 Z-2.000000 I-4.224817 J-2.173256
G03 X159.007810 Y118.714890 Z-2.000000 I-16.853423 J-15.614223
G02 X156.917464 Y120.630140 Z-2.000000 I22.190381 J26.317427
G02 X156.486330 Y121.222710 Z-2.000000 I1.633255 J1.641425
G03 X156.243114 Y121.474204 Z-2.000000 I-0.530178 J-0.269375
G03 X156.138670 Y121.414110 Z-2.000000 I-0.034001 J-0.061715
G01 X156.138670 Y121.414110 Z-2.000000
G00 Z5.000000

(End cutting path id: path1)


(Start cutting path id: path1)
(Change tool to Default tool)

G00 Z5.000000
G00 X156.138670 Y121.414110

G01 Z-3.000000 F100.0(Penetrate)
G03 X156.278399 Y121.005131 Z-3.000000 I0.626209 J-0.014413 F400.000000
G03 X157.587890 Y119.627000 Z-3.000000 I9.424317 J7.643723
G02 X158.990649 Y118.258977 Z-3.000000 I-16.246883 J-18.062616
G02 X160.613280 Y116.429740 Z-3.000000 I-27.777613 J-26.274524
G03 X162.197597 Y114.584239 Z-3.000000 I59.340508 J49.339582
G03 X162.285160 Y114.543020 Z-3.000000 I0.091767 J0.081326
G01 X162.315701 Y114.587419 Z-3.000000
G03 X161.791020 Y115.709030 Z-3.000000 I-15.189582 J-6.422049
G03 X161.051360 Y116.764675 Z-3.000000 I-4.224817 J-2.173256
G03 X159.007810 Y118.714890 Z-3.000000 I-16.853423 J-15.614223
G02 X156.917464 Y120.630140 Z-3.000000 I22.190381 J26.317427
G02 X156.486330 Y121.222710 Z-3.000000 I1.633255 J1.641425
G03 X156.243114 Y121.474204 Z-3.000000 I-0.530178 J-0.269375
G03 X156.138670 Y121.414110 Z-3.000000 I-0.034001 J-0.061715
G01 X156.138670 Y121.414110 Z-3.000000
G00 Z5.000000

(End cutting path id: path1)


(Start cutting path id: path2)
(Change tool to Default tool)

G00 Z5.000000
G00 X160.613170 Y116.430080

G01 Z-1.000000 F100.0(Penetrate)
G03 X158.990276 Y118.258926 Z-1.000000 I-29.228326 J-24.302343 F400.000000
G03 X157.587310 Y119.626640 Z-1.000000 I-17.724761 J-16.778187
G02 X156.277934 Y121.004705 Z-1.000000 I8.112209 J9.018945
G02 X156.138030 Y121.413660 Z-1.000000 I0.487119 J0.395052
G02 X156.242818 Y121.473994 Z-1.000000 I0.070700 J-0.001627
G02 X156.486810 Y121.221850 Z-1.000000 I-0.287192 J-0.522030
G03 X156.917880 Y120.629644 Z-1.000000 I2.060594 J1.046926
G03 X159.007800 Y118.715640 Z-1.000000 I24.391628 J24.535456
G02 X161.051307 Y116.764304 Z-1.000000 I-14.742549 J-17.484593
G02 X161.790890 Y115.708100 Z-1.000000 I-3.495796 J-3.234893
G02 X162.315677 Y114.588477 Z-1.000000 I-14.945911 J-7.688212
G01 X162.285240 Y114.543780 Z-1.000000
G02 X162.197671 Y114.584985 Z-1.000000 I0.004206 J0.122592
G02 X160.613170 Y116.430080 Z-1.000000 I57.133710 J50.667259
G01 X160.613170 Y116.430080 Z-1.000000
G00 Z5.000000

(End cutting path id: path2)


(Start cutting path id: path2)
(Change tool to Default tool)

G00 Z5.000000
G00 X160.613170 Y116.430080

G01 Z-2.000000 F100.0(Penetrate)
G03 X158.990276 Y118.258926 Z-2.000000 I-29.228326 J-24.302343 F400.000000
G03 X157.587310 Y119.626640 Z-2.000000 I-17.724761 J-16.778187
G02 X156.277934 Y121.004705 Z-2.000000 I8.112209 J9.018945
G02 X156.138030 Y121.413660 Z-2.000000 I0.487119 J0.395052
G02 X156.242818 Y121.473994 Z-2.000000 I0.070700 J-0.001627
G02 X156.486810 Y121.221850 Z-2.000000 I-0.287192 J-0.522030
G03 X156.917880 Y120.629644 Z-2.000000 I2.060594 J1.046926
G03 X159.007800 Y118.715640 Z-2.000000 I24.391628 J24.535456
G02 X161.051307 Y116.764304 Z-2.000000 I-14.742549 J-17.484593
G02 X161.790890 Y115.708100 Z-2.000000 I-3.495796 J-3.234893
G02 X162.315677 Y114.588477 Z-2.000000 I-14.945911 J-7.688212
G01 X162.285240 Y114.543780 Z-2.000000
G02 X162.197671 Y114.584985 Z-2.000000 I0.004206 J0.122592
G02 X160.613170 Y116.430080 Z-2.000000 I57.133710 J50.667259
G01 X160.613170 Y116.430080 Z-2.000000
G00 Z5.000000

(End cutting path id: path2)


(Start cutting path id: path2)
(Change tool to Default tool)

G00 Z5.000000
G00 X160.613170 Y116.430080

G01 Z-3.000000 F100.0(Penetrate)
G03 X158.990276 Y118.258926 Z-3.000000 I-29.228326 J-24.302343 F400.000000
G03 X157.587310 Y119.626640 Z-3.000000 I-17.724761 J-16.778187
G02 X156.277934 Y121.004705 Z-3.000000 I8.112209 J9.018945
G02 X156.138030 Y121.413660 Z-3.000000 I0.487119 J0.395052
G02 X156.242818 Y121.473994 Z-3.000000 I0.070700 J-0.001627
G02 X156.486810 Y121.221850 Z-3.000000 I-0.287192 J-0.522030
G03 X156.917880 Y120.629644 Z-3.000000 I2.060594 J1.046926
G03 X159.007800 Y118.715640 Z-3.000000 I24.391628 J24.535456
G02 X161.051307 Y116.764304 Z-3.000000 I-14.742549 J-17.484593
G02 X161.790890 Y115.708100 Z-3.000000 I-3.495796 J-3.234893
G02 X162.315677 Y114.588477 Z-3.000000 I-14.945911 J-7.688212
G01 X162.285240 Y114.543780 Z-3.000000
G02 X162.197671 Y114.584985 Z-3.000000 I0.004206 J0.122592
G02 X160.613170 Y116.430080 Z-3.000000 I57.133710 J50.667259
G01 X160.613170 Y116.430080 Z-3.000000
G00 Z5.000000

(End cutting path id: path2)


(Start cutting path id: path2)
(Change tool to Default tool)

G00 Z5.000000
G00 X157.856580 Y113.793630

G01 Z-1.000000 F100.0(Penetrate)
G03 X157.742025 Y113.968968 Z-1.000000 I-0.191463 J0.000000 F400.000000
G03 X157.510770 Y113.945310 Z-1.000000 I-0.094741 J-0.215995
G03 X157.253500 Y113.654145 Z-1.000000 I0.493317 J-0.695132
G03 X157.164950 Y113.302770 Z-1.000000 I0.652869 J-0.351375
G03 X157.279509 Y113.127426 Z-1.000000 I0.191471 J0.000000
G03 X157.510770 Y113.151080 Z-1.000000 I0.094747 J0.216003
G03 X157.768027 Y113.442246 Z-1.000000 I-0.493417 J0.695184
G03 X157.856580 Y113.793630 Z-1.000000 I-0.652878 J0.351384
G01 X157.856580 Y113.793630 Z-1.000000
G00 Z5.000000

(End cutting path id: path2)


(Start cutting path id: path2)
(Change tool to Default tool)

G00 Z5.000000
G00 X157.856580 Y113.793630

G01 Z-2.000000 F100.0(Penetrate)
G03 X157.742025 Y113.968968 Z-2.000000 I-0.191463 J0.000000 F400.000000
G03 X157.510770 Y113.945310 Z-2.000000 I-0.094741 J-0.215995
G03 X157.253500 Y113.654145 Z-2.000000 I0.493317 J-0.695132
G03 X157.164950 Y113.302770 Z-2.000000 I0.652869 J-0.351375
G03 X157.279509 Y113.127426 Z-2.000000 I0.191471 J0.000000
G03 X157.510770 Y113.151080 Z-2.000000 I0.094747 J0.216003
G03 X157.768027 Y113.442246 Z-2.000000 I-0.493417 J0.695184
G03 X157.856580 Y113.793630 Z-2.000000 I-0.652878 J0.351384
G01 X157.856580 Y113.793630 Z-2.000000
G00 Z5.000000

(End cutting path id: path2)


(Start cutting path id: path2)
(Change tool to Default tool)

G00 Z5.000000
G00 X157.856580 Y113.793630

G01 Z-3.000000 F100.0(Penetrate)
G03 X157.742025 Y113.968968 Z-3.000000 I-0.191463 J0.000000 F400.000000
G03 X157.510770 Y113.945310 Z-3.000000 I-0.094741 J-0.215995
G03 X157.253500 Y113.654145 Z-3.000000 I0.493317 J-0.695132
G03 X157.164950 Y113.302770 Z-3.000000 I0.652869 J-0.351375
G03 X157.279509 Y113.127426 Z-3.000000 I0.191471 J0.000000
G03 X157.510770 Y113.151080 Z-3.000000 I0.094747 J0.216003
G03 X157.768027 Y113.442246 Z-3.000000 I-0.493417 J0.695184
G03 X157.856580 Y113.793630 Z-3.000000 I-0.652878 J0.351384
G01 X157.856580 Y113.793630 Z-3.000000
G00 Z5.000000

(End cutting path id: path2)


(Start cutting path id: path1)
(Change tool to Default tool)

G00 Z5.000000
G00 X157.511720 Y113.945360

G01 Z-1.000000 F100.0(Penetrate)
G02 X157.742929 Y113.968727 Z-1.000000 I0.136176 J-0.191861 F400.000000
G02 X157.857420 Y113.793020 Z-1.000000 I-0.077583 J-0.175707
G02 X157.768917 Y113.441623 Z-1.000000 I-0.741855 J0.000000
G02 X157.511720 Y113.150440 Z-1.000000 I-0.750277 J0.403527
G02 X157.279245 Y113.126592 Z-1.000000 I-0.137307 J0.193465
G02 X157.164060 Y113.302780 Z-1.000000 I0.077158 J0.176188
G02 X157.253402 Y113.654225 Z-1.000000 I0.735914 J0.000000
G02 X157.511720 Y113.945360 Z-1.000000 I0.756899 J-0.411413
G01 X157.511720 Y113.945360 Z-1.000000
G00 Z5.000000

(End cutting path id: path1)


(Start cutting path id: path1)
(Change tool to Default tool)

G00 Z5.000000
G00 X157.511720 Y113.945360

G01 Z-2.000000 F100.0(Penetrate)
G02 X157.742929 Y113.968727 Z-2.000000 I0.136176 J-0.191861 F400.000000
G02 X157.857420 Y113.793020 Z-2.000000 I-0.077583 J-0.175707
G02 X157.768917 Y113.441623 Z-2.000000 I-0.741855 J0.000000
G02 X157.511720 Y113.150440 Z-2.000000 I-0.750277 J0.403527
G02 X157.279245 Y113.126592 Z-2.000000 I-0.137307 J0.193465
G02 X157.164060 Y113.302780 Z-2.000000 I0.077158 J0.176188
G02 X157.253402 Y113.654225 Z-2.000000 I0.735914 J0.000000
G02 X157.511720 Y113.945360 Z-2.000000 I0.756899 J-0.411413
G01 X157.511720 Y113.945360 Z-2.000000
G00 Z5.000000

(End cutting path id: path1)


(Start cutting path id: path1)
(Change tool to Default tool)

G00 Z5.000000
G00 X157.511720 Y113.945360

G01 Z-3.000000 F100.0(Penetrate)
G02 X157.742929 Y113.968727 Z-3.000000 I0.136176 J-0.191861 F400.000000
G02 X157.857420 Y113.793020 Z-3.000000 I-0.077583 J-0.175707
G02 X157.768917 Y113.441623 Z-3.000000 I-0.741855 J0.000000
G02 X157.511720 Y113.150440 Z-3.000000 I-0.750277 J0.403527
G02 X157.279245 Y113.126592 Z-3.000000 I-0.137307 J0.193465
G02 X157.164060 Y113.302780 Z-3.000000 I0.077158 J0.176188
G02 X157.253402 Y113.654225 Z-3.000000 I0.735914 J0.000000
G02 X157.511720 Y113.945360 Z-3.000000 I0.756899 J-0.411413
G01 X157.511720 Y113.945360 Z-3.000000
G00 Z5.000000

(End cutting path id: path1)


(Start cutting path id: path1)
(Change tool to Default tool)

G00 Z5.000000
G00 X155.025390 Y112.445360

G01 Z-1.000000 F100.0(Penetrate)
G02 X155.309404 Y112.064081 Z-1.000000 I0.094478 J-0.226044 F400.000000
G02 X153.292970 Y110.330130 Z-1.000000 I-5.930500 J4.857213
G02 X149.329808 Y109.561754 Z-1.000000 I-3.052757 J5.140768
G02 X147.330080 Y111.248100 Z-1.000000 I0.382452 J2.482372
G02 X147.500455 Y111.527839 Z-1.000000 I0.203298 J0.067934
G02 X149.312500 Y111.556690 Z-1.000000 I1.009675 J-6.495674
G03 X152.029340 Y111.599908 Z-1.000000 I1.203135 J9.783316
G03 X155.025390 Y112.445360 Z-1.000000 I-1.982552 J12.756941
G01 X155.025390 Y112.445360 Z-1.000000
G00 Z5.000000

(End cutting path id: path1)


(Start cutting path id: path1)
(Change tool to Default tool)

G00 Z5.000000
G00 X155.025390 Y112.445360

G01 Z-2.000000 F100.0(Penetrate)
G02 X155.309404 Y112.064081 Z-2.000000 I0.094478 J-0.226044 F400.000000
G02 X153.292970 Y110.330130 Z-2.000000 I-5.930500 J4.857213
G02 X149.329808 Y109.561754 Z-2.000000 I-3.052757 J5.140768
G02 X147.330080 Y111.248100 Z-2.000000 I0.382452 J2.482372
G02 X147.500455 Y111.527839 Z-2.000000 I0.203298 J0.067934
G02 X149.312500 Y111.556690 Z-2.000000 I1.009675 J-6.495674
G03 X152.029340 Y111.599908 Z-2.000000 I1.203135 J9.783316
G03 X155.025390 Y112.445360 Z-2.000000 I-1.982552 J12.756941
G01 X155.025390 Y112.445360 Z-2.000000
G00 Z5.000000

(End cutting path id: path1)


(Start cutting path id: path1)
(Change tool to Default tool)

G00 Z5.000000
G00 X155.025390 Y112.445360

G01 Z-3.000000 F100.0(Penetrate)
G02 X155.309404 Y112.064081 Z-3.000000 I0.094478 J-0.226044 F400.000000
G02 X153.292970 Y110.330130 Z-3.000000 I-5.930500 J4.857213
G02 X149.329808 Y109.561754 Z-3.000000 I-3.052757 J5.140768
G02 X147.330080 Y111.248100 Z-3.000000 I0.382452 J2.482372
G02 X147.500455 Y111.527839 Z-3.000000 I0.203298 J0.067934
G02 X149.312500 Y111.556690 Z-3.000000 I1.009675 J-6.495674
G03 X152.029340 Y111.599908 Z-3.000000 I1.203135 J9.783316
G03 X155.025390 Y112.445360 Z-3.000000 I-1.982552 J12.756941
G01 X155.025390 Y112.445360 Z-3.000000
G00 Z5.000000

(End cutting path id: path1)


(Start cutting path id: path2)
(Change tool to Default tool)

G00 Z5.000000
G00 X153.292550 Y110.330610

G01 Z-1.000000 F100.0(Penetrate)
G03 X155.309310 Y112.064840 Z-1.000000 I-3.914702 J6.592236 F400.000000
G03 X155.025250 Y112.446180 Z-1.000000 I-0.189567 J0.155260
G02 X152.029453 Y111.600335 Z-1.000000 I-4.984279 J11.925072
G02 X149.312840 Y111.556730 Z-1.000000 I-1.514816 J9.728828
G03 X147.500180 Y111.527396 Z-1.000000 I-0.801144 J-6.514559
G03 X147.329760 Y111.247420 Z-1.000000 I0.033063 J-0.211980
G03 X149.329469 Y109.561617 Z-1.000000 I2.381247 J0.795714
G03 X153.292550 Y110.330610 Z-1.000000 I0.908985 J5.912017
G01 X153.292550 Y110.330610 Z-1.000000
G00 Z5.000000

(End cutting path id: path2)


(Start cutting path id: path2)
(Change tool to Default tool)

G00 Z5.000000
G00 X153.292550 Y110.330610

G01 Z-2.000000 F100.0(Penetrate)
G03 X155.309310 Y112.064840 Z-2.000000 I-3.914702 J6.592236 F400.000000
G03 X155.025250 Y112.446180 Z-2.000000 I-0.189567 J0.155260
G02 X152.029453 Y111.600335 Z-2.000000 I-4.984279 J11.925072
G02 X149.312840 Y111.556730 Z-2.000000 I-1.514816 J9.728828
G03 X147.500180 Y111.527396 Z-2.000000 I-0.801144 J-6.514559
G03 X147.329760 Y111.247420 Z-2.000000 I0.033063 J-0.211980
G03 X149.329469 Y109.561617 Z-2.000000 I2.381247 J0.795714
G03 X153.292550 Y110.330610 Z-2.000000 I0.908985 J5.912017
G01 X153.292550 Y110.330610 Z-2.000000
G00 Z5.000000

(End cutting path id: path2)


(Start cutting path id: path2)
(Change tool to Default tool)

G00 Z5.000000
G00 X153.292550 Y110.330610

G01 Z-3.000000 F100.0(Penetrate)
G03 X155.309310 Y112.064840 Z-3.000000 I-3.914702 J6.592236 F400.000000
G03 X155.025250 Y112.446180 Z-3.000000 I-0.189567 J0.155260
G02 X152.029453 Y111.600335 Z-3.000000 I-4.984279 J11.925072
G02 X149.312840 Y111.556730 Z-3.000000 I-1.514816 J9.728828
G03 X147.500180 Y111.527396 Z-3.000000 I-0.801144 J-6.514559
G03 X147.329760 Y111.247420 Z-3.000000 I0.033063 J-0.211980
G03 X149.329469 Y109.561617 Z-3.000000 I2.381247 J0.795714
G03 X153.292550 Y110.330610 Z-3.000000 I0.908985 J5.912017
G01 X153.292550 Y110.330610 Z-3.000000
G00 Z5.000000

(End cutting path id: path2)


(Start cutting path id: path2)
(Change tool to Default tool)

G00 Z5.000000
G00 X153.597860 Y108.608600

G01 Z-1.000000 F100.0(Penetrate)
G03 X156.172884 Y110.449304 Z-1.000000 I-2.988009 J6.901524 F400.000000
G03 X156.807630 Y112.136910 Z-1.000000 I-1.805045 J1.642091
G03 X156.637657 Y112.250825 Z-1.000000 I-0.124757 J-0.002384
G03 X156.166140 Y111.887550 Z-1.000000 I0.382732 J-0.984415
G02 X153.710288 Y109.654241 Z-1.000000 I-6.622338 J4.815294
G02 X151.249610 Y108.981360 Z-1.000000 I-2.460678 J4.162823
G02 X148.072492 Y109.729740 Z-1.000000 I0.000000 J7.118137
G02 X146.926070 Y111.137850 Z-1.000000 I0.983213 J1.971228
G03 X146.058582 Y112.982519 Z-1.000000 I-5.471300 J-1.446666
G03 X145.344830 Y113.349640 Z-1.000000 I-0.713752 J-0.510272
G03 X145.146837 Y113.046259 Z-1.000000 I0.000000 J-0.216298
G03 X146.706360 Y110.254100 Z-1.000000 I15.429898 J6.786558
G03 X149.617163 Y108.261005 Z-1.000000 I4.055404 J2.800610
G03 X153.597860 Y108.608600 Z-1.000000 I1.468490 J6.150181
G01 X153.597860 Y108.608600 Z-1.000000
G00 Z5.000000

(End cutting path id: path2)


(Start cutting path id: path2)
(Change tool to Default tool)

G00 Z5.000000
G00 X153.597860 Y108.608600

G01 Z-2.000000 F100.0(Penetrate)
G03 X156.172884 Y110.449304 Z-2.000000 I-2.988009 J6.901524 F400.000000
G03 X156.807630 Y112.136910 Z-2.000000 I-1.805045 J1.642091
G03 X156.637657 Y112.250825 Z-2.000000 I-0.124757 J-0.002384
G03 X156.166140 Y111.887550 Z-2.000000 I0.382732 J-0.984415
G02 X153.710288 Y109.654241 Z-2.000000 I-6.622338 J4.815294
G02 X151.249610 Y108.981360 Z-2.000000 I-2.460678 J4.162823
G02 X148.072492 Y109.729740 Z-2.000000 I0.000000 J7.118137
G02 X146.926070 Y111.137850 Z-2.000000 I0.983213 J1.971228
G03 X146.058582 Y112.982519 Z-2.000000 I-5.471300 J-1.446666
G03 X145.344830 Y113.349640 Z-2.000000 I-0.713752 J-0.510272
G03 X145.146837 Y113.046259 Z-2.000000 I0.000000 J-0.216298
G03 X146.706360 Y110.254100 Z-2.000000 I15.429898 J6.786558
G03 X149.617163 Y108.261005 Z-2.000000 I4.055404 J2.800610
G03 X153.597860 Y108.608600 Z-2.000000 I1.468490 J6.150181
G01 X153.597860 Y108.608600 Z-2.000000
G00 Z5.000000

(End cutting path id: path2)


(Start cutting path id: path2)
(Change tool to Default tool)

G00 Z5.000000
G00 X153.597860 Y108.608600

G01 Z-3.000000 F100.0(Penetrate)
G03 X156.172884 Y110.449304 Z-3.000000 I-2.988009 J6.901524 F400.000000
G03 X156.807630 Y112.136910 Z-3.000000 I-1.805045 J1.642091
G03 X156.637657 Y112.250825 Z-3.000000 I-0.124757 J-0.002384
G03 X156.166140 Y111.887550 Z-3.000000 I0.382732 J-0.984415
G02 X153.710288 Y109.654241 Z-3.000000 I-6.622338 J4.815294
G02 X151.249610 Y108.981360 Z-3.000000 I-2.460678 J4.162823
G02 X148.072492 Y109.729740 Z-3.000000 I0.000000 J7.118137
G02 X146.926070 Y111.137850 Z-3.000000 I0.983213 J1.971228
G03 X146.058582 Y112.982519 Z-3.000000 I-5.471300 J-1.446666
G03 X145.344830 Y113.349640 Z-3.000000 I-0.713752 J-0.510272
G03 X145.146837 Y113.046259 Z-3.000000 I0.000000 J-0.216298
G03 X146.706360 Y110.254100 Z-3.000000 I15.429898 J6.786558
G03 X149.617163 Y108.261005 Z-3.000000 I4.055404 J2.800610
G03 X153.597860 Y108.608600 Z-3.000000 I1.468490 J6.150181
G01 X153.597860 Y108.608600 Z-3.000000
G00 Z5.000000

(End cutting path id: path2)


(Start cutting path id: path2)
(Change tool to Default tool)

G00 Z5.000000
G00 X151.310190 Y113.581480

G01 Z-1.000000 F100.0(Penetrate)
G03 X151.399749 Y114.596275 Z-1.000000 I-0.805972 J0.582479 F400.000000
G03 X149.954650 Y116.389440 Z-1.000000 I-4.576531 J-2.209313
G03 X148.212468 Y116.828583 Z-1.000000 I-1.366792 J-1.746988
G03 X147.058040 Y115.892050 Z-1.000000 I0.256978 J-1.496542
G03 X146.935552 Y114.987780 Z-1.000000 I1.762062 J-0.699112
G03 X147.268200 Y113.961580 Z-1.000000 I2.633695 J0.286712
G03 X148.021110 Y113.257585 Z-1.000000 I1.512519 J0.863003
G03 X149.349790 Y112.952520 Z-1.000000 I1.328680 J2.740934
G03 X150.744115 Y113.170715 Z-1.000000 I-0.000000 J4.564165
G03 X151.310190 Y113.581480 Z-1.000000 I-0.342440 J1.067352
G01 X151.310190 Y113.581480 Z-1.000000
G00 Z5.000000

(End cutting path id: path2)


(Start cutting path id: path2)
(Change tool to Default tool)

G00 Z5.000000
G00 X151.310190 Y113.581480

G01 Z-2.000000 F100.0(Penetrate)
G03 X151.399749 Y114.596275 Z-2.000000 I-0.805972 J0.582479 F400.000000
G03 X149.954650 Y116.389440 Z-2.000000 I-4.576531 J-2.209313
G03 X148.212468 Y116.828583 Z-2.000000 I-1.366792 J-1.746988
G03 X147.058040 Y115.892050 Z-2.000000 I0.256978 J-1.496542
G03 X146.935552 Y114.987780 Z-2.000000 I1.762062 J-0.699112
G03 X147.268200 Y113.961580 Z-2.000000 I2.633695 J0.286712
G03 X148.021110 Y113.257585 Z-2.000000 I1.512519 J0.863003
G03 X149.349790 Y112.952520 Z-2.000000 I1.328680 J2.740934
G03 X150.744115 Y113.170715 Z-2.000000 I-0.000000 J4.564165
G03 X151.310190 Y113.581480 Z-2.000000 I-0.342440 J1.067352
G01 X151.310190 Y113.581480 Z-2.000000
G00 Z5.000000

(End cutting path id: path2)


(Start cutting path id: path2)
(Change tool to Default tool)

G00 Z5.000000
G00 X151.310190 Y113.581480

G01 Z-3.000000 F100.0(Penetrate)
G03 X151.399749 Y114.596275 Z-3.000000 I-0.805972 J0.582479 F400.000000
G03 X149.954650 Y116.389440 Z-3.000000 I-4.576531 J-2.209313
G03 X148.212468 Y116.828583 Z-3.000000 I-1.366792 J-1.746988
G03 X147.058040 Y115.892050 Z-3.000000 I0.256978 J-1.496542
G03 X146.935552 Y114.987780 Z-3.000000 I1.762062 J-0.699112
G03 X147.268200 Y113.961580 Z-3.000000 I2.633695 J0.286712
G03 X148.021110 Y113.257585 Z-3.000000 I1.512519 J0.863003
G03 X149.349790 Y112.952520 Z-3.000000 I1.328680 J2.740934
G03 X150.744115 Y113.170715 Z-3.000000 I-0.000000 J4.564165
G03 X151.310190 Y113.581480 Z-3.000000 I-0.342440 J1.067352
G01 X151.310190 Y113.581480 Z-3.000000
G00 Z5.000000

(End cutting path id: path2)


(Start cutting path id: path1)
(Change tool to Default tool)

G00 Z5.000000
G00 X148.218750 Y117.013720

G01 Z-1.000000 F100.0(Penetrate)
G02 X148.926399 Y116.953414 Z-1.000000 I0.238226 J-1.386614 F400.000000
G02 X149.955080 Y116.388720 Z-1.000000 I-1.214763 J-3.432189
G02 X151.399920 Y114.596404 Z-1.000000 I-3.132250 J-4.003524
G02 X151.310550 Y113.582080 Z-1.000000 I-0.894763 J-0.432263
G02 X150.744316 Y113.171284 Z-1.000000 I-0.908434 J0.656528
G02 X149.349610 Y112.953170 Z-1.000000 I-1.394706 J4.350093
G02 X148.020691 Y113.257551 Z-1.000000 I0.000000 J3.053197
G02 X147.267580 Y113.960990 Z-1.000000 I0.756495 J1.564779
G02 X146.935446 Y114.987813 Z-1.000000 I2.295006 J1.309466
G02 X147.058590 Y115.892630 Z-1.000000 I1.890924 J0.203437
G02 X147.607588 Y116.706474 Z-1.000000 I2.131359 J-0.845668
G02 X148.218750 Y117.013720 Z-1.000000 I0.809730 J-0.849209
G01 X148.218750 Y117.013720 Z-1.000000
G00 Z5.000000

(End cutting path id: path1)


(Start cutting path id: path1)
(Change tool to Default tool)

G00 Z5.000000
G00 X148.218750 Y117.013720

G01 Z-2.000000 F100.0(Penetrate)
G02 X148.926399 Y116.953414 Z-2.000000 I0.238226 J-1.386614 F400.000000
G02 X149.955080 Y116.388720 Z-2.000000 I-1.214763 J-3.432189
G02 X151.399920 Y114.596404 Z-2.000000 I-3.132250 J-4.003524
G02 X151.310550 Y113.582080 Z-2.000000 I-0.894763 J-0.432263
G02 X150.744316 Y113.171284 Z-2.000000 I-0.908434 J0.656528
G02 X149.349610 Y112.953170 Z-2.000000 I-1.394706 J4.350093
G02 X148.020691 Y113.257551 Z-2.000000 I0.000000 J3.053197
G02 X147.267580 Y113.960990 Z-2.000000 I0.756495 J1.564779
G02 X146.935446 Y114.987813 Z-2.000000 I2.295006 J1.309466
G02 X147.058590 Y115.892630 Z-2.000000 I1.890924 J0.203437
G02 X147.607588 Y116.706474 Z-2.000000 I2.131359 J-0.845668
G02 X148.218750 Y117.013720 Z-2.000000 I0.809730 J-0.849209
G01 X148.218750 Y117.013720 Z-2.000000
G00 Z5.000000

(End cutting path id: path1)


(Start cutting path id: path1)
(Change tool to Default tool)

G00 Z5.000000
G00 X148.218750 Y117.013720

G01 Z-3.000000 F100.0(Penetrate)
G02 X148.926399 Y116.953414 Z-3.000000 I0.238226 J-1.386614 F400.000000
G02 X149.955080 Y116.388720 Z-3.000000 I-1.214763 J-3.432189
G02 X151.399920 Y114.596404 Z-3.000000 I-3.132250 J-4.003524
G02 X151.310550 Y113.582080 Z-3.000000 I-0.894763 J-0.432263
G02 X150.744316 Y113.171284 Z-3.000000 I-0.908434 J0.656528
G02 X149.349610 Y112.953170 Z-3.000000 I-1.394706 J4.350093
G02 X148.020691 Y113.257551 Z-3.000000 I0.000000 J3.053197
G02 X147.267580 Y113.960990 Z-3.000000 I0.756495 J1.564779
G02 X146.935446 Y114.987813 Z-3.000000 I2.295006 J1.309466
G02 X147.058590 Y115.892630 Z-3.000000 I1.890924 J0.203437
G02 X147.607588 Y116.706474 Z-3.000000 I2.131359 J-0.845668
G02 X148.218750 Y117.013720 Z-3.000000 I0.809730 J-0.849209
G01 X148.218750 Y117.013720 Z-3.000000
G00 Z5.000000

(End cutting path id: path1)


(Start cutting path id: path1)
(Change tool to Default tool)

G00 Z5.000000
G00 X146.042970 Y114.699270

G01 Z-1.000000 F100.0(Penetrate)
G02 X146.269322 Y114.674159 Z-1.000000 I0.099082 J-0.139602 F400.000000
G02 X146.546880 Y114.138720 Z-1.000000 I-0.890997 J-0.801530
G02 X146.413482 Y113.844334 Z-1.000000 I-0.260586 J-0.059335
G02 X146.125000 Y113.910210 Z-1.000000 I-0.106724 J0.197232
G02 X145.924017 Y114.436298 Z-1.000000 I0.884471 J0.639332
G02 X146.043000 Y114.699270 Z-1.000000 I0.284498 J0.029681
G01 X146.042970 Y114.699270 Z-1.000000
G00 Z5.000000

(End cutting path id: path1)


(Start cutting path id: path1)
(Change tool to Default tool)

G00 Z5.000000
G00 X146.042970 Y114.699270

G01 Z-2.000000 F100.0(Penetrate)
G02 X146.269322 Y114.674159 Z-2.000000 I0.099082 J-0.139602 F400.000000
G02 X146.546880 Y114.138720 Z-2.000000 I-0.890997 J-0.801530
G02 X146.413482 Y113.844334 Z-2.000000 I-0.260586 J-0.059335
G02 X146.125000 Y113.910210 Z-2.000000 I-0.106724 J0.197232
G02 X145.924017 Y114.436298 Z-2.000000 I0.884471 J0.639332
G02 X146.043000 Y114.699270 Z-2.000000 I0.284498 J0.029681
G01 X146.042970 Y114.699270 Z-2.000000
G00 Z5.000000

(End cutting path id: path1)


(Start cutting path id: path1)
(Change tool to Default tool)

G00 Z5.000000
G00 X146.042970 Y114.699270

G01 Z-3.000000 F100.0(Penetrate)
G02 X146.269322 Y114.674159 Z-3.000000 I0.099082 J-0.139602 F400.000000
G02 X146.546880 Y114.138720 Z-3.000000 I-0.890997 J-0.801530
G02 X146.413482 Y113.844334 Z-3.000000 I-0.260586 J-0.059335
G02 X146.125000 Y113.910210 Z-3.000000 I-0.106724 J0.197232
G02 X145.924017 Y114.436298 Z-3.000000 I0.884471 J0.639332
G02 X146.043000 Y114.699270 Z-3.000000 I0.284498 J0.029681
G01 X146.042970 Y114.699270 Z-3.000000
G00 Z5.000000

(End cutting path id: path1)


(Start cutting path id: path2)
(Change tool to Default tool)

G00 Z5.000000
G00 X146.545970 Y114.139400

G01 Z-1.000000 F100.0(Penetrate)
G03 X146.268877 Y114.674541 Z-1.000000 I-1.169591 J-0.266300 F400.000000
G03 X146.042830 Y114.699720 Z-1.000000 I-0.127143 J-0.114171
G03 X145.923632 Y114.436536 Z-1.000000 I0.165860 J-0.233704
G03 X146.124530 Y113.909960 Z-1.000000 I1.084548 J0.112162
G03 X146.412833 Y113.844506 Z-1.000000 I0.181333 J0.131049
G03 X146.546010 Y114.139400 Z-1.000000 I-0.128137 J0.235387
G01 X146.545970 Y114.139400 Z-1.000000
G00 Z5.000000

(End cutting path id: path2)


(Start cutting path id: path2)
(Change tool to Default tool)

G00 Z5.000000
G00 X146.545970 Y114.139400

G01 Z-2.000000 F100.0(Penetrate)
G03 X146.268877 Y114.674541 Z-2.000000 I-1.169591 J-0.266300 F400.000000
G03 X146.042830 Y114.699720 Z-2.000000 I-0.127143 J-0.114171
G03 X145.923632 Y114.436536 Z-2.000000 I0.165860 J-0.233704
G03 X146.124530 Y113.909960 Z-2.000000 I1.084548 J0.112162
G03 X146.412833 Y113.844506 Z-2.000000 I0.181333 J0.131049
G03 X146.546010 Y114.139400 Z-2.000000 I-0.128137 J0.235387
G01 X146.545970 Y114.139400 Z-2.000000
G00 Z5.000000

(End cutting path id: path2)


(Start cutting path id: path2)
(Change tool to Default tool)

G00 Z5.000000
G00 X146.545970 Y114.139400

G01 Z-3.000000 F100.0(Penetrate)
G03 X146.268877 Y114.674541 Z-3.000000 I-1.169591 J-0.266300 F400.000000
G03 X146.042830 Y114.699720 Z-3.000000 I-0.127143 J-0.114171
G03 X145.923632 Y114.436536 Z-3.000000 I0.165860 J-0.233704
G03 X146.124530 Y113.909960 Z-3.000000 I1.084548 J0.112162
G03 X146.412833 Y113.844506 Z-3.000000 I0.181333 J0.131049
G03 X146.546010 Y114.139400 Z-3.000000 I-0.128137 J0.235387
G01 X146.545970 Y114.139400 Z-3.000000
G00 Z5.000000

(End cutting path id: path2)


(Start cutting path id: path1)
(Change tool to Default tool)

G00 Z5.000000
G00 X145.345700 Y113.349660

G01 Z-1.000000 F100.0(Penetrate)
